;FLAVOR:Marlin
;TIME:2909
;Filament used: 7.56935m
;Layer height: 0.3
;Generated with Cura_SteamEngine 3.6.0
M140 S60
M105
M190 S60
M104 S210
M105
M109 S210
M82 ;absolute extrusion mode
G21 ;metric values
G90 ;absolute positioning
M82 ;set extruder to absolute mode
M107 ;start with the fan off
G28 X0 Y0 ;move X/Y to min endstops
G28 Z0 ;move Z to min endstops
G1 Z15.0 F9000 ;move the platform down 15mm
G92 E0 ;zero the extruded length
G1 F200 E3 ;extrude 3mm of feed stock
G92 E0 ;zero the extruded length again
G1 F9000
;Put printing message on LCD screen
M117 Printing...
G92 E0
G1 F1500 E-4.2
;LAYER_COUNT:157
;LAYER:0
M107
G0 F3600 X94.983 Y83.555 Z0.3
;TYPE:SKIRT
G1 F1500 E0
G1 F1800 X95.526 Y82.982 E0.05593
G1 X96.125 Y82.467 E0.11189
G1 X96.773 Y82.016 E0.16782
G1 X97.464 Y81.632 E0.22382
G1 X98.189 Y81.32 E0.27974
G1 X98.942 Y81.083 E0.33567
G1 X99.716 Y80.924 E0.39164
G1 X100.501 Y80.843 E0.44755
G1 X100.903 Y80.833 E0.47604
G1 X122.097 Y80.833 E1.97751
G1 X122.886 Y80.873 E2.03348
G1 X123.666 Y80.992 E2.08938
G1 X124.431 Y81.19 E2.14536
G1 X125.171 Y81.464 E2.20126
G1 X125.88 Y81.812 E2.25721
G1 X126.551 Y82.23 E2.31322
G1 X127.175 Y82.713 E2.36912
G1 X127.748 Y83.256 E2.42505
G1 X128.263 Y83.855 E2.48101
G1 X128.714 Y84.503 E2.53694
G1 X129.098 Y85.194 E2.59295
G1 X129.41 Y85.919 E2.64886
G1 X129.647 Y86.672 E2.70479
G1 X129.806 Y87.446 E2.76077
G1 X129.887 Y88.231 E2.81667
G1 X129.897 Y88.633 E2.84516
G1 X129.897 Y118.633 E4.97048
G1 X129.857 Y119.422 E5.02645
G1 X129.738 Y120.202 E5.08235
G1 X129.703 Y120.337 E5.09223
G1 X129.703 Y121.787 E5.19495
G1 X129.663 Y122.576 E5.25092
G1 X129.622 Y122.848 E5.27041
G1 X129.693 Y123.54 E5.31969
G1 X129.702 Y124.088 E5.35852
G1 X129.671 Y125.746 E5.476
G1 X129.616 Y126.534 E5.53196
G1 X129.511 Y127.176 E5.57805
G1 X129.4 Y127.714 E5.61696
G1 X129.202 Y128.478 E5.67287
G1 X128.927 Y129.219 E5.72887
G1 X128.579 Y129.928 E5.78482
G1 X128.16 Y130.597 E5.84074
G1 X127.677 Y131.222 E5.8967
G1 X127.132 Y131.794 E5.95267
G1 X126.533 Y132.308 E6.00859
G1 X125.885 Y132.759 E6.06452
G1 X125.194 Y133.142 E6.12049
G1 X124.468 Y133.453 E6.17645
G1 X123.715 Y133.689 E6.23235
G1 X122.705 Y133.881 E6.30518
G1 X100.936 Y136.535 E7.85881
G1 X100.148 Y136.59 E7.91477
G1 X99.112 Y136.542 E7.98824
G1 X98.654 Y136.49 E8.0209
G1 X97.875 Y136.362 E8.07683
G1 X97.113 Y136.155 E8.13277
G1 X96.376 Y135.872 E8.18869
G1 X95.671 Y135.516 E8.24465
G1 X95.005 Y135.091 E8.30062
G1 X94.202 Y134.433 E8.37416
G1 X93.745 Y134.005 E8.41852
G1 X93.197 Y133.437 E8.47444
G1 X92.709 Y132.816 E8.53039
G1 X92.286 Y132.149 E8.58634
G1 X91.933 Y131.443 E8.64226
G1 X91.653 Y130.704 E8.69825
G1 X91.447 Y129.93 E8.75499
G1 X91.243 Y128.968 E8.82466
G1 X91.118 Y128.188 E8.88062
G1 X91.073 Y127.351 E8.94
G1 X91.072 Y118.634 E9.55755
G1 X91.112 Y117.845 E9.61352
G1 X91.231 Y117.065 E9.66942
G1 X91.429 Y116.3 E9.7254
G1 X91.703 Y115.559 E9.78137
G1 X92.051 Y114.85 E9.83732
G1 X92.468 Y114.18 E9.89323
G1 X92.951 Y113.555 E9.94919
G1 X93.103 Y113.395 E9.96482
G1 X93.103 Y88.633 E11.71906
G1 X93.143 Y87.844 E11.77503
G1 X93.262 Y87.064 E11.83093
G1 X93.46 Y86.299 E11.88691
G1 X93.734 Y85.559 E11.94281
G1 X94.082 Y84.85 E11.99876
G1 X94.5 Y84.179 E12.05477
G1 X94.983 Y83.555 E12.11067
G0 F3600 X95.378 Y83.71
G1 F1800 X95.919 Y83.163 E12.16518
G1 X96.514 Y82.675 E12.21969
G1 X97.156 Y82.252 E12.27416
G1 X97.839 Y81.897 E12.32869
G1 X98.554 Y81.616 E12.38312
G1 X99.296 Y81.41 E12.43767
G1 X100.054 Y81.282 E12.49213
G1 X100.903 Y81.233 E12.55238
G1 X122.097 Y81.233 E14.05385
G1 X122.865 Y81.273 E14.10833
G1 X123.625 Y81.392 E14.16283
G1 X124.368 Y81.59 E14.2173
G1 X125.087 Y81.864 E14.27181
G1 X125.773 Y82.211 E14.32627
G1 X126.42 Y82.627 E14.38077
G1 X127.02 Y83.108 E14.43525
G1 X127.567 Y83.649 E14.48975
G1 X128.055 Y84.244 E14.54427
G1 X128.478 Y84.886 E14.59873
G1 X128.833 Y85.569 E14.65327
G1 X129.114 Y86.284 E14.70769
G1 X129.32 Y87.026 E14.76224
G1 X129.448 Y87.784 E14.8167
G1 X129.497 Y88.633 E14.87695
G1 X129.497 Y118.633 E17.00227
G1 X129.457 Y119.401 E17.05676
G1 X129.338 Y120.161 E17.11125
G1 X129.303 Y120.292 E17.12086
G1 X129.303 Y121.787 E17.22677
G1 X129.263 Y122.555 E17.28125
G1 X129.215 Y122.862 E17.30327
G1 X129.254 Y123.093 E17.31986
G1 X129.302 Y124.08 E17.38987
G1 X129.271 Y125.738 E17.50735
G1 X129.216 Y126.506 E17.5619
G1 X129.119 Y127.095 E17.60419
G1 X129.008 Y127.633 E17.6431
G1 X128.814 Y128.377 E17.69757
G1 X128.543 Y129.097 E17.75207
G1 X128.2 Y129.785 E17.80654
G1 X127.786 Y130.434 E17.86107
G1 X127.308 Y131.036 E17.91553
G1 X126.769 Y131.586 E17.97009
G1 X126.177 Y132.076 E18.02453
G1 X125.537 Y132.502 E18.07899
G1 X124.856 Y132.86 E18.1335
G1 X124.141 Y133.145 E18.18803
G1 X123.401 Y133.354 E18.2425
G1 X122.657 Y133.484 E18.29601
G1 X100.888 Y136.138 E19.84963
G1 X100.12 Y136.191 E19.90417
G1 X99.157 Y136.145 E19.97247
G1 X98.699 Y136.093 E20.00513
G1 X97.94 Y135.966 E20.05965
G1 X97.199 Y135.762 E20.11409
G1 X96.483 Y135.482 E20.16856
G1 X95.799 Y135.129 E20.22309
G1 X95.156 Y134.706 E20.27762
G1 X94.476 Y134.141 E20.34025
G1 X94.019 Y133.713 E20.38461
G1 X93.485 Y133.159 E20.43912
G1 X93.012 Y132.552 E20.49363
G1 X92.605 Y131.9 E20.54809
G1 X92.268 Y131.209 E20.60255
G1 X92.004 Y130.486 E20.65708
G1 X91.838 Y129.847 E20.70385
G1 X91.634 Y128.885 E20.77352
G1 X91.514 Y128.125 E20.82803
G1 X91.473 Y127.351 E20.88294
G1 X91.472 Y118.634 E21.50048
G1 X91.512 Y117.866 E21.55497
G1 X91.631 Y117.106 E21.60946
G1 X91.829 Y116.363 E21.66394
G1 X92.103 Y115.644 E21.71845
G1 X92.449 Y114.957 E21.77294
G1 X92.866 Y114.31 E21.82747
G1 X93.347 Y113.71 E21.88195
G1 X93.503 Y113.552 E21.89768
G1 X93.503 Y88.633 E23.66305
G1 X93.543 Y87.865 E23.71753
G1 X93.662 Y87.105 E23.77203
G1 X93.86 Y86.362 E23.8265
G1 X94.134 Y85.643 E23.88101
G1 X94.481 Y84.957 E23.93547
G1 X94.897 Y84.31 E23.98997
G1 X95.378 Y83.71 E24.04445
G0 F3600 X95.774 Y83.87
G1 F1800 X96.311 Y83.349 E24.09745
G1 X96.901 Y82.89 E24.15041
G1 X97.537 Y82.495 E24.20345
G1 X98.211 Y82.171 E24.25643
G1 X98.916 Y81.921 E24.30942
G1 X99.644 Y81.747 E24.36245
G1 X100.386 Y81.652 E24.41544
G1 X100.903 Y81.633 E24.45209
G1 X122.097 Y81.633 E25.95356
G1 X122.844 Y81.673 E26.00656
G1 X123.582 Y81.792 E26.05952
G1 X124.304 Y81.99 E26.11256
G1 X125 Y82.263 E26.16552
G1 X125.663 Y82.61 E26.21853
G1 X126.286 Y83.025 E26.27157
G1 X126.86 Y83.504 E26.32453
G1 X127.381 Y84.041 E26.37754
G1 X127.84 Y84.631 E26.43049
G1 X128.235 Y85.267 E26.48353
G1 X128.559 Y85.941 E26.53651
G1 X128.809 Y86.646 E26.5895
G1 X128.983 Y87.374 E26.64253
G1 X129.078 Y88.116 E26.69553
G1 X129.097 Y88.633 E26.73218
G1 X129.097 Y118.633 E28.8575
G1 X129.057 Y119.38 E28.9105
G1 X128.938 Y120.118 E28.96345
G1 X128.903 Y120.246 E28.97286
G1 X128.903 Y121.787 E29.08203
G1 X128.863 Y122.534 E29.13502
G1 X128.811 Y122.856 E29.15813
G1 X128.884 Y123.425 E29.19877
G1 X128.902 Y124.073 E29.2447
G1 X128.871 Y125.731 E29.36218
G1 X128.817 Y126.477 E29.41516
G1 X128.728 Y127.014 E29.45373
G1 X128.617 Y127.552 E29.49264
G1 X128.427 Y128.276 E29.54567
G1 X128.16 Y128.975 E29.59868
G1 X127.821 Y129.642 E29.65169
G1 X127.413 Y130.268 E29.70462
G1 X126.939 Y130.848 E29.75769
G1 X126.407 Y131.374 E29.81069
G1 X125.822 Y131.84 E29.86367
G1 X125.19 Y132.24 E29.91666
G1 X124.52 Y132.572 E29.96963
G1 X123.817 Y132.829 E30.02266
G1 X123.092 Y133.01 E30.0756
G1 X122.608 Y133.087 E30.11032
G1 X100.839 Y135.741 E31.66394
G1 X100.093 Y135.791 E31.71691
G1 X99.202 Y135.747 E31.78011
G1 X98.744 Y135.695 E31.81277
G1 X98.007 Y135.571 E31.86571
G1 X97.286 Y135.369 E31.91876
G1 X96.592 Y135.092 E31.9717
G1 X95.931 Y134.741 E32.02472
G1 X95.311 Y134.323 E32.07769
G1 X94.749 Y133.849 E32.12977
G1 X94.292 Y133.421 E32.17413
G1 X93.774 Y132.881 E32.22714
G1 X93.317 Y132.289 E32.28012
G1 X92.925 Y131.652 E32.33311
G1 X92.604 Y130.976 E32.38613
G1 X92.357 Y130.27 E32.43912
G1 X92.229 Y129.764 E32.47609
G1 X92.025 Y128.802 E32.54576
G1 X91.909 Y128.063 E32.59876
G1 X91.873 Y127.351 E32.64926
G1 X91.872 Y118.634 E33.26681
G1 X91.912 Y117.887 E33.31981
G1 X92.031 Y117.148 E33.37283
G1 X92.229 Y116.427 E33.4258
G1 X92.502 Y115.73 E33.47883
G1 X92.848 Y115.067 E33.53182
G1 X93.263 Y114.445 E33.58479
G1 X93.742 Y113.87 E33.63781
G1 X93.903 Y113.714 E33.65369
G1 X93.903 Y88.633 E35.43053
G1 X93.943 Y87.886 E35.48352
G1 X94.062 Y87.148 E35.53648
G1 X94.26 Y86.426 E35.58952
G1 X94.533 Y85.73 E35.64249
G1 X94.88 Y85.067 E35.6955
G1 X95.295 Y84.444 E35.74853
G1 X95.774 Y83.87 E35.80149
G0 F3600 X95.692 Y84.583
G1 F1800 X96.168 Y84.035 E35.85292
G1 X96.702 Y83.542 E35.90441
G1 X97.287 Y83.112 E35.95584
G1 X97.916 Y82.748 E36.00733
G1 X98.581 Y82.455 E36.05881
G1 X99.274 Y82.237 E36.11027
G1 X99.986 Y82.097 E36.16168
G1 X100.903 Y82.033 E36.2268
G1 X122.097 Y82.033 E37.72827
G1 X122.822 Y82.073 E37.77971
G1 X123.539 Y82.192 E37.8312
G1 X124.238 Y82.39 E37.88267
G1 X124.911 Y82.663 E37.93412
G1 X125.55 Y83.008 E37.98557
G1 X126.147 Y83.422 E38.03704
G1 X126.695 Y83.898 E38.08846
G1 X127.188 Y84.432 E38.13995
G1 X127.618 Y85.017 E38.19138
G1 X127.982 Y85.646 E38.24287
G1 X128.275 Y86.311 E38.29435
G1 X128.493 Y87.004 E38.34582
G1 X128.633 Y87.716 E38.39722
G1 X128.697 Y88.633 E38.46234
G1 X128.697 Y118.633 E40.58767
G1 X128.657 Y119.358 E40.63911
G1 X128.538 Y120.075 E40.6906
G1 X128.503 Y120.199 E40.69973
G1 X128.503 Y121.787 E40.81223
G1 X128.463 Y122.512 E40.86367
G1 X128.406 Y122.856 E40.88837
G1 X128.439 Y123.025 E40.90057
G1 X128.502 Y124.065 E40.97438
G1 X128.471 Y125.723 E41.09186
G1 X128.417 Y126.448 E41.14336
G1 X128.336 Y126.934 E41.17827
G1 X128.225 Y127.472 E41.21719
G1 X128.039 Y128.174 E41.26863
G1 X127.777 Y128.851 E41.32006
G1 X127.443 Y129.496 E41.37152
G1 X127.039 Y130.1 E41.423
G1 X126.572 Y130.656 E41.47444
G1 X126.046 Y131.157 E41.5259
G1 X125.469 Y131.598 E41.57735
G1 X124.846 Y131.972 E41.62883
G1 X124.187 Y132.276 E41.68024
G1 X123.497 Y132.505 E41.73175
G1 X122.56 Y132.689 E41.7994
G1 X100.791 Y135.343 E43.35302
G1 X100.066 Y135.392 E43.4045
G1 X99.247 Y135.35 E43.4626
G1 X98.789 Y135.298 E43.49525
G1 X98.073 Y135.176 E43.54671
G1 X97.375 Y134.977 E43.59813
G1 X96.703 Y134.702 E43.64957
G1 X96.065 Y134.355 E43.70102
G1 X95.469 Y133.939 E43.75251
G1 X95.022 Y133.557 E43.79416
G1 X94.565 Y133.129 E43.83852
G1 X94.063 Y132.604 E43.88998
G1 X93.622 Y132.027 E43.94143
G1 X93.247 Y131.405 E43.99288
G1 X92.942 Y130.746 E44.04433
G1 X92.712 Y130.057 E44.09579
G1 X92.621 Y129.681 E44.12319
G1 X92.417 Y128.719 E44.19286
G1 X92.305 Y128.001 E44.24434
G1 X92.273 Y127.351 E44.29045
G1 X92.272 Y118.634 E44.908
G1 X92.312 Y117.908 E44.95951
G1 X92.431 Y117.192 E45.01093
G1 X92.629 Y116.493 E45.06239
G1 X92.902 Y115.82 E45.11385
G1 X93.247 Y115.181 E45.16529
G1 X93.66 Y114.584 E45.21672
G1 X94.137 Y114.035 E45.26824
G1 X94.303 Y113.882 E45.28424
G1 X94.303 Y88.633 E47.07298
G1 X94.343 Y87.908 E47.12442
G1 X94.462 Y87.191 E47.17591
G1 X94.66 Y86.492 E47.22738
G1 X94.933 Y85.819 E47.27883
G1 X95.278 Y85.18 E47.33027
G1 X95.692 Y84.583 E47.38174
G0 F3600 X96.088 Y84.727
G1 F1800 X96.562 Y84.206 E47.43164
G1 X97.092 Y83.742 E47.48155
G1 X97.671 Y83.342 E47.5314
G1 X98.292 Y83.01 E47.58129
G1 X98.946 Y82.75 E47.63115
G1 X99.626 Y82.566 E47.68105
G1 X100.322 Y82.46 E47.73093
G1 X100.903 Y82.433 E47.77213
G1 X122.097 Y82.433 E49.2736
G1 X122.8 Y82.473 E49.32349
G1 X123.494 Y82.592 E49.37337
G1 X124.169 Y82.79 E49.42321
G1 X124.818 Y83.062 E49.47306
G1 X125.432 Y83.407 E49.52295
G1 X126.003 Y83.818 E49.57279
G1 X126.524 Y84.292 E49.62269
G1 X126.988 Y84.822 E49.6726
G1 X127.388 Y85.401 E49.72245
G1 X127.72 Y86.022 E49.77234
G1 X127.98 Y86.676 E49.8222
G1 X128.164 Y87.356 E49.87211
G1 X128.27 Y88.052 E49.92198
G1 X128.297 Y88.633 E49.96319
G1 X128.297 Y118.633 E52.08851
G1 X128.257 Y119.336 E52.13839
G1 X128.138 Y120.03 E52.18828
G1 X128.103 Y120.149 E52.19706
G1 X128.103 Y121.787 E52.31311
G1 X128.063 Y122.49 E52.36299
G1 X128 Y122.86 E52.38958
G1 X128.076 Y123.361 E52.42548
G1 X128.102 Y124.058 E52.47489
G1 X128.071 Y125.716 E52.59237
G1 X128.018 Y126.418 E52.64225
G1 X127.944 Y126.853 E52.67351
G1 X127.833 Y127.391 E52.71242
G1 X127.652 Y128.071 E52.76227
G1 X127.395 Y128.726 E52.81212
G1 X127.065 Y129.348 E52.862
G1 X126.667 Y129.929 E52.9119
G1 X126.206 Y130.461 E52.96177
G1 X125.687 Y130.937 E53.01166
G1 X125.118 Y131.351 E53.06151
G1 X124.505 Y131.698 E53.11141
G1 X123.857 Y131.973 E53.16128
G1 X123.182 Y132.173 E53.21115
G1 X122.511 Y132.292 E53.25943
G1 X100.742 Y134.946 E54.81306
G1 X100.04 Y134.992 E54.8629
G1 X99.293 Y134.952 E54.91589
G1 X98.835 Y134.9 E54.94855
G1 X98.141 Y134.781 E54.99843
G1 X97.465 Y134.585 E55.04829
G1 X96.816 Y134.312 E55.09817
G1 X96.201 Y133.968 E55.1481
G1 X95.63 Y133.557 E55.19794
G1 X95.296 Y133.265 E55.22937
G1 X94.839 Y132.837 E55.27372
G1 X94.353 Y132.328 E55.32358
G1 X93.928 Y131.766 E55.3735
G1 X93.57 Y131.16 E55.42336
G1 X93.283 Y130.518 E55.47318
G1 X93.012 Y129.598 E55.54113
G1 X92.808 Y128.636 E55.61079
G1 X92.701 Y127.94 E55.66068
G1 X92.673 Y127.351 E55.70245
G1 X92.672 Y118.634 E56.32
G1 X92.712 Y117.931 E56.36989
G1 X92.831 Y117.237 E56.41977
G1 X93.028 Y116.561 E56.46965
G1 X93.301 Y115.912 E56.51953
G1 X93.645 Y115.298 E56.56939
G1 X94.057 Y114.727 E56.61928
G1 X94.531 Y114.206 E56.66917
G1 X94.703 Y114.056 E56.68534
G1 X94.703 Y88.633 E58.48641
G1 X94.743 Y87.93 E58.5363
G1 X94.862 Y87.236 E58.58618
G1 X95.06 Y86.561 E58.63601
G1 X95.332 Y85.912 E58.68587
G1 X95.677 Y85.298 E58.73576
G1 X96.088 Y84.727 E58.7856
G0 F3600 X96.485 Y84.875
G1 F1800 X96.956 Y84.384 E58.8338
G1 X97.481 Y83.95 E58.88206
G1 X98.053 Y83.581 E58.93028
G1 X98.665 Y83.282 E58.97854
G1 X99.307 Y83.057 E59.02673
G1 X99.972 Y82.908 E59.07501
G1 X100.903 Y82.833 E59.14118
G1 X122.097 Y82.833 E60.64265
G1 X122.777 Y82.873 E60.69091
G1 X123.447 Y82.992 E60.73912
G1 X124.099 Y83.189 E60.78737
G1 X124.723 Y83.461 E60.83559
G1 X125.311 Y83.805 E60.88385
G1 X125.855 Y84.215 E60.93211
G1 X126.346 Y84.686 E60.98031
G1 X126.78 Y85.211 E61.02857
G1 X127.149 Y85.783 E61.07679
G1 X127.448 Y86.395 E61.12505
G1 X127.673 Y87.037 E61.17324
G1 X127.822 Y87.702 E61.22152
G1 X127.897 Y88.633 E61.28769
G1 X127.897 Y118.633 E63.41301
G1 X127.857 Y119.313 E63.46127
G1 X127.738 Y119.983 E63.50948
G1 X127.703 Y120.099 E63.51806
G1 X127.703 Y121.787 E63.63765
G1 X127.663 Y122.467 E63.68591
G1 X127.594 Y122.858 E63.71403
G1 X127.628 Y123.011 E63.72514
G1 X127.697 Y123.688 E63.77335
G1 X127.702 Y124.05 E63.79899
G1 X127.671 Y125.708 E63.91647
G1 X127.618 Y126.387 E63.96472
G1 X127.552 Y126.772 E63.9924
G1 X127.441 Y127.31 E64.03131
G1 X127.265 Y127.968 E64.07957
G1 X127.013 Y128.6 E64.12777
G1 X126.688 Y129.198 E64.17599
G1 X126.295 Y129.755 E64.22428
G1 X125.84 Y130.261 E64.27249
G1 X125.329 Y130.711 E64.32073
G1 X124.768 Y131.097 E64.36897
G1 X124.166 Y131.416 E64.41723
G1 X123.531 Y131.661 E64.46545
G1 X122.872 Y131.831 E64.51367
G1 X122.463 Y131.895 E64.543
G1 X100.694 Y134.549 E66.09662
G1 X100.014 Y134.592 E66.14489
G1 X99.338 Y134.555 E66.19285
G1 X98.88 Y134.503 E66.22551
G1 X98.209 Y134.387 E66.27375
G1 X97.556 Y134.192 E66.32203
G1 X96.931 Y133.923 E66.37023
G1 X96.341 Y133.582 E66.41851
G1 X95.569 Y132.973 E66.48817
G1 X95.112 Y132.545 E66.53253
G1 X94.644 Y132.052 E66.58068
G1 X94.236 Y131.506 E66.62897
G1 X93.895 Y130.917 E66.67719
G1 X93.625 Y130.292 E66.72542
G1 X93.403 Y129.515 E66.78267
G1 X93.199 Y128.553 E66.85234
G1 X93.097 Y127.88 E66.90056
G1 X93.073 Y127.351 E66.93807
G1 X93.072 Y118.634 E67.55562
G1 X93.112 Y117.954 E67.60388
G1 X93.231 Y117.284 E67.65209
G1 X93.428 Y116.632 E67.70034
G1 X93.7 Y116.008 E67.74856
G1 X94.043 Y115.42 E67.79679
G1 X94.453 Y114.876 E67.84505
G1 X94.924 Y114.384 E67.8933
G1 X95.103 Y114.236 E67.90976
G1 X95.103 Y88.633 E69.72358
G1 X95.143 Y87.953 E69.77183
G1 X95.262 Y87.283 E69.82004
G1 X95.459 Y86.631 E69.8683
G1 X95.731 Y86.007 E69.91652
G1 X96.075 Y85.419 E69.96478
G1 X96.485 Y84.875 E70.01304
G0 F3600 X96.881 Y85.03
G1 F1800 X97.348 Y84.568 E70.05958
G1 X97.868 Y84.167 E70.1061
G1 X98.432 Y83.831 E70.15261
G1 X99.034 Y83.567 E70.19918
