;FLAVOR:Marlin
;TIME:4614
;Filament used: 11.4931m
;Layer height: 0.3
;Generated with Cura_SteamEngine 3.6.0
M140 S60
M105
M190 S60
M104 S210
M105
M109 S210
M82 ;absolute extrusion mode
G21 ;metric values
G90 ;absolute positioning
M82 ;set extruder to absolute mode
M107 ;start with the fan off
G28 X0 Y0 ;move X/Y to min endstops
G28 Z0 ;move Z to min endstops
G1 Z15.0 F9000 ;move the platform down 15mm
G92 E0 ;zero the extruded length
G1 F200 E3 ;extrude 3mm of feed stock
G92 E0 ;zero the extruded length again
G1 F9000
;Put printing message on LCD screen
M117 Printing...
G92 E0
G1 F1500 E-4.2
;LAYER_COUNT:151
;LAYER:0
M107
G0 F3600 X104.311 Y65.868 Z0.3
;TYPE:SKIRT
G1 F1500 E0
G1 F1800 X104.666 Y65.362 E0.04379
G1 X104.858 Y65.11 E0.06623
G1 X105.02 Y64.788 E0.09177
G1 X105.41 Y64.102 E0.14767
G1 X105.868 Y63.458 E0.20366
G1 X106.565 Y62.688 E0.27724
G1 X106.871 Y62.392 E0.3074
G1 X107.466 Y61.872 E0.36338
G1 X108.11 Y61.415 E0.41932
G1 X108.797 Y61.026 E0.47525
G1 X109.517 Y60.709 E0.53099
G1 X109.748 Y60.621 E0.5485
G1 X110.499 Y60.378 E0.60442
G1 X111.271 Y60.211 E0.66038
G1 X112.056 Y60.124 E0.71633
G1 X112.846 Y60.117 E0.7723
G1 X113.844 Y60.222 E0.84339
G1 X114.252 Y60.292 E0.87272
G1 X115.023 Y60.465 E0.9287
G1 X115.772 Y60.715 E0.98464
G1 X116.459 Y61.022 E1.03794
G1 X121.943 Y63.801 E1.47349
G1 X122.628 Y64.193 E1.5294
G1 X123.27 Y64.653 E1.58535
G1 X124.076 Y65.391 E1.66277
G1 X124.26 Y65.585 E1.68172
G1 X124.774 Y66.185 E1.73769
G1 X125.225 Y66.834 E1.79368
G1 X125.607 Y67.525 E1.84961
G1 X125.918 Y68.25 E1.9055
G1 X126.201 Y69.199 E1.97566
G1 X126.282 Y69.55 E2.00118
G1 X126.421 Y70.328 E2.05717
G1 X126.48 Y71.115 E2.11308
G1 X126.459 Y71.904 E2.16899
G1 X126.3 Y72.978 E2.24591
G1 X126.231 Y73.292 E2.26868
G1 X126.023 Y74.054 E2.32464
G1 X125.59 Y75.106 E2.40524
G1 X125.432 Y75.422 E2.43027
G1 X125.345 Y75.728 E2.4528
G1 X125.091 Y76.476 E2.50877
G1 X124.592 Y77.505 E2.58978
G1 X124.244 Y78.106 E2.63898
G1 X123.649 Y78.988 E2.71436
G1 X123.638 Y79.003 E2.71568
G1 X120.953 Y84.363 E3.14038
G1 X120.866 Y84.669 E3.16292
G1 X120.612 Y85.417 E3.21888
G1 X120.118 Y86.437 E3.29917
G1 X119.771 Y87.038 E3.34833
G1 X119.166 Y87.936 E3.42504
G1 X119.156 Y87.949 E3.4262
G1 X116.472 Y93.307 E3.85075
G1 X116.386 Y93.611 E3.87313
G1 X116.132 Y94.359 E3.92909
G1 X115.642 Y95.372 E4.00881
G1 X115.295 Y95.974 E4.05804
G1 X114.687 Y96.877 E4.13516
G1 X114.677 Y96.89 E4.13632
G1 X109.897 Y106.433 E4.89246
G1 X129.49 Y122.679 E6.6956
G1 X130.071 Y123.213 E6.7515
G1 X130.596 Y123.803 E6.80745
G1 X131.058 Y124.443 E6.86337
G1 X131.453 Y125.127 E6.91933
G1 X131.769 Y125.827 E6.97374
G1 X131.902 Y126.165 E6.99947
G1 X132.154 Y126.913 E7.05539
G1 X132.328 Y127.684 E7.11139
G1 X132.424 Y128.467 E7.16727
G1 X132.44 Y129.257 E7.22325
G1 X132.389 Y129.946 E7.2722
G1 X129.707 Y152.402 E8.87438
G1 X129.574 Y153.18 E8.93029
G1 X129.362 Y153.941 E8.98626
G1 X128.96 Y154.922 E9.06137
G1 X128.77 Y155.308 E9.09184
G1 X128.386 Y155.998 E9.14779
G1 X127.934 Y156.645 E9.2037
G1 X127.419 Y157.244 E9.25966
G1 X126.848 Y157.785 E9.31539
G1 X126.659 Y157.947 E9.33302
G1 X126.034 Y158.43 E9.38898
G1 X125.364 Y158.847 E9.44489
G1 X124.655 Y159.195 E9.50084
G1 X123.914 Y159.469 E9.55681
G1 X122.881 Y159.716 E9.63206
G1 X122.472 Y159.785 E9.66144
G1 X121.687 Y159.877 E9.71744
G1 X120.898 Y159.889 E9.77334
G1 X120.173 Y159.829 E9.82488
G1 X117.052 Y159.425 E10.04782
G1 X116.275 Y159.285 E10.10376
G1 X115.516 Y159.066 E10.15972
G1 X114.494 Y158.631 E10.23841
G1 X114.258 Y158.51 E10.2572
G1 X113.575 Y158.114 E10.31313
G1 X112.935 Y157.652 E10.36905
G1 X112.345 Y157.127 E10.425
G1 X111.811 Y156.545 E10.48096
G1 X111.245 Y155.771 E10.54889
G1 X111.05 Y155.466 E10.57453
G1 X110.659 Y154.78 E10.63047
G1 X110.339 Y154.058 E10.68642
G1 X110.094 Y153.307 E10.74238
G1 X109.886 Y152.261 E10.81794
G1 X109.845 Y151.943 E10.84065
G1 X109.784 Y151.156 E10.89657
G1 X109.837 Y150.013 E10.97763
G1 X111.616 Y135.253 E12.03086
G1 X102.716 Y130.789 E12.73624
G1 X102.227 Y130.522 E12.77571
G1 X99.813 Y129.087 E12.97466
G1 X98.905 Y128.456 E13.053
G1 X96.713 Y126.69 E13.25241
G1 X95.899 Y125.932 E13.33121
G1 X93.983 Y123.875 E13.53036
G1 X93.28 Y123.002 E13.60977
G1 X91.68 Y120.693 E13.80878
G1 X91.115 Y119.739 E13.88733
G1 X89.856 Y117.222 E14.08671
G1 X89.429 Y116.19 E14.16583
G1 X88.544 Y113.524 E14.36484
G1 X88.271 Y112.453 E14.44314
G1 X87.771 Y109.683 E14.64255
G1 X87.652 Y108.572 E14.7217
G1 X87.553 Y105.765 E14.92069
G1 X87.593 Y104.655 E14.99938
G1 X87.894 Y101.858 E15.19867
G1 X88.092 Y100.763 E15.2775
G1 X88.787 Y98.042 E15.47646
G1 X89.138 Y96.986 E15.55529
G1 X90.215 Y94.387 E15.7546
G1 X90.447 Y93.88 E15.7941
G1 X94.125 Y86.537 E16.37592
G1 X94.213 Y86.226 E16.39881
G1 X94.467 Y85.478 E16.45478
G1 X94.757 Y84.836 E16.50468
G1 X94.953 Y84.449 E16.53542
G1 X95.345 Y83.763 E16.59139
G1 X95.712 Y83.239 E16.63671
G1 X95.9 Y82.993 E16.65865
G1 X98.602 Y77.602 E17.08585
G1 X98.689 Y77.294 E17.10853
G1 X98.942 Y76.546 E17.16447
G1 X99.236 Y75.895 E17.21507
G1 X99.432 Y75.508 E17.2458
G1 X99.824 Y74.822 E17.30178
G1 X100.191 Y74.298 E17.3471
G1 X100.379 Y74.052 E17.36903
G1 X103.079 Y68.664 E17.79599
G1 X103.165 Y68.36 E17.81837
G1 X103.418 Y67.611 E17.87438
G1 X103.721 Y66.94 E17.92653
G1 X103.918 Y66.553 E17.9573
G1 X104.311 Y65.868 E18.01325
G0 F3600 X104.658 Y66.068
G1 F1800 X104.984 Y65.605 E18.05336
G1 X105.197 Y65.325 E18.07829
G1 X105.377 Y64.968 E18.10661
G1 X105.758 Y64.3 E18.16109
G1 X106.207 Y63.675 E18.21561
G1 X106.843 Y62.975 E18.28261
G1 X107.149 Y62.679 E18.31277
G1 X107.729 Y62.174 E18.36726
G1 X108.358 Y61.732 E18.42172
G1 X109.03 Y61.357 E18.47624
G1 X109.66 Y61.083 E18.52491
G1 X109.891 Y60.995 E18.54242
G1 X110.623 Y60.759 E18.5969
G1 X111.375 Y60.6 E18.65136
G1 X112.14 Y60.52 E18.70585
G1 X112.909 Y60.52 E18.76033
G1 X113.776 Y60.617 E18.82213
G1 X114.184 Y60.687 E18.85146
G1 X114.935 Y60.856 E18.90599
G1 X115.663 Y61.102 E18.96043
G1 X116.278 Y61.379 E19.00822
G1 X121.762 Y64.158 E19.44376
G1 X122.429 Y64.541 E19.49825
G1 X123.053 Y64.991 E19.55275
G1 X123.786 Y65.667 E19.6234
G1 X123.97 Y65.861 E19.64234
G1 X124.47 Y66.445 E19.6968
G1 X124.906 Y67.079 E19.75131
G1 X125.274 Y67.754 E19.80578
G1 X125.57 Y68.464 E19.86027
G1 X125.811 Y69.289 E19.92116
G1 X125.892 Y69.64 E19.94668
G1 X126.026 Y70.397 E20.00115
G1 X126.081 Y71.165 E20.05569
G1 X126.055 Y71.933 E20.11013
G1 X125.91 Y72.892 E20.17884
G1 X125.841 Y73.206 E20.20162
G1 X125.637 Y73.948 E20.25614
G1 X125.232 Y74.927 E20.33119
G1 X125.057 Y75.276 E20.35885
G1 X124.96 Y75.619 E20.3841
G1 X124.712 Y76.347 E20.43859
G1 X124.246 Y77.304 E20.514
G1 X123.898 Y77.905 E20.5632
G1 X123.333 Y78.743 E20.6348
G1 X123.299 Y78.786 E20.63868
G1 X120.577 Y84.222 E21.06937
G1 X120.481 Y84.56 E21.09427
G1 X120.233 Y85.288 E21.14875
G1 X119.772 Y86.237 E21.22349
G1 X119.425 Y86.838 E21.27266
G1 X118.851 Y87.69 E21.34544
G1 X118.817 Y87.733 E21.34932
G1 X116.099 Y93.161 E21.77938
G1 X116.002 Y93.502 E21.8045
G1 X115.753 Y94.229 E21.85894
G1 X115.295 Y95.172 E21.9332
G1 X114.948 Y95.774 E21.98243
G1 X114.372 Y96.631 E22.05558
G1 X114.336 Y96.678 E22.05978
G1 X109.397 Y106.538 E22.84103
G1 X129.234 Y122.986 E24.66662
G1 X129.8 Y123.507 E24.72112
G1 X130.309 Y124.084 E24.77563
G1 X130.755 Y124.711 E24.83014
G1 X131.133 Y125.381 E24.88464
G1 X131.397 Y125.973 E24.93056
G1 X131.53 Y126.311 E24.95629
G1 X131.774 Y127.041 E25.01082
G1 X131.941 Y127.792 E25.06532
G1 X132.029 Y128.556 E25.1198
G1 X132.038 Y129.325 E25.17429
G1 X131.992 Y129.899 E25.21508
G1 X129.31 Y152.355 E26.81726
G1 X129.179 Y153.113 E26.87176
G1 X128.97 Y153.853 E26.92623
G1 X128.601 Y154.745 E26.99462
G1 X128.411 Y155.131 E27.0251
G1 X128.036 Y155.803 E27.07962
G1 X127.593 Y156.431 E27.13406
G1 X127.088 Y157.011 E27.18855
G1 X126.588 Y157.481 E27.23716
G1 X126.399 Y157.643 E27.2548
G1 X125.79 Y158.113 E27.30929
G1 X125.135 Y158.517 E27.36381
G1 X124.442 Y158.85 E27.41828
G1 X123.718 Y159.11 E27.47278
G1 X122.814 Y159.322 E27.53856
G1 X122.405 Y159.391 E27.56795
G1 X121.641 Y159.479 E27.62243
G1 X120.872 Y159.488 E27.67691
G1 X120.224 Y159.433 E27.72298
G1 X117.103 Y159.029 E27.94593
G1 X116.346 Y158.891 E28.00045
G1 X115.608 Y158.674 E28.05494
G1 X114.677 Y158.275 E28.1267
G1 X114.441 Y158.154 E28.14549
G1 X113.776 Y157.768 E28.19996
G1 X113.154 Y157.315 E28.25447
G1 X112.583 Y156.8 E28.30895
G1 X112.068 Y156.228 E28.36348
G1 X111.582 Y155.555 E28.42229
G1 X111.387 Y155.25 E28.44793
G1 X111.007 Y154.581 E28.50244
G1 X110.699 Y153.877 E28.55688
G1 X110.465 Y153.144 E28.61139
G1 X110.283 Y152.21 E28.6788
G1 X110.242 Y151.892 E28.70152
G1 X110.183 Y151.125 E28.75601
G1 X110.234 Y150.061 E28.83148
G1 X112.046 Y135.022 E29.90461
G1 X102.895 Y130.432 E30.62988
G1 X102.432 Y130.178 E30.6673
G1 X100.018 Y128.743 E30.86625
G1 X99.156 Y128.144 E30.94061
G1 X96.964 Y126.378 E31.14003
G1 X96.192 Y125.66 E31.21472
G1 X94.276 Y123.603 E31.41387
G1 X93.609 Y122.774 E31.48925
G1 X92.009 Y120.465 E31.68826
G1 X91.473 Y119.56 E31.76278
G1 X90.214 Y117.043 E31.96216
G1 X89.809 Y116.064 E32.03721
G1 X88.924 Y113.398 E32.23622
G1 X88.665 Y112.381 E32.31057
G1 X88.165 Y109.611 E32.50997
G1 X88.052 Y108.558 E32.585
G1 X87.953 Y105.751 E32.78398
G1 X87.99 Y104.698 E32.85863
G1 X88.291 Y101.901 E33.05792
G1 X88.479 Y100.862 E33.13273
G1 X89.174 Y98.141 E33.33168
G1 X89.508 Y97.139 E33.40651
G1 X90.585 Y94.54 E33.60581
G1 X90.804 Y94.059 E33.64326
G1 X94.498 Y86.683 E34.22767
G1 X94.597 Y86.335 E34.2533
G1 X94.846 Y85.608 E34.30774
G1 X95.113 Y85.017 E34.35369
G1 X95.309 Y84.63 E34.38442
G1 X95.692 Y83.962 E34.43897
G1 X96.03 Y83.482 E34.48056
G1 X96.238 Y83.21 E34.50482
G1 X98.978 Y77.743 E34.93804
G1 X99.074 Y77.403 E34.96307
G1 X99.322 Y76.675 E35.01756
G1 X99.592 Y76.076 E35.0641
G1 X99.788 Y75.689 E35.09484
G1 X100.171 Y75.021 E35.14939
G1 X100.509 Y74.541 E35.19098
G1 X100.717 Y74.269 E35.21524
G1 X103.454 Y68.807 E35.64805
G1 X103.55 Y68.468 E35.67301
G1 X103.797 Y67.74 E35.72747
G1 X104.077 Y67.121 E35.7756
G1 X104.274 Y66.734 E35.80637
G1 X104.658 Y66.068 E35.86083
G0 F3600 X105.005 Y66.268
G1 F1800 X105.302 Y65.847 E35.89733
G1 X105.541 Y65.533 E35.92529
G1 X105.735 Y65.148 E35.95583
G1 X106.106 Y64.499 E36.00879
G1 X106.545 Y63.893 E36.0618
G1 X107.121 Y63.263 E36.12228
G1 X107.427 Y62.967 E36.15244
G1 X107.992 Y62.476 E36.20547
G1 X108.606 Y62.049 E36.25845
G1 X109.262 Y61.689 E36.31146
G1 X109.802 Y61.457 E36.3531
G1 X110.033 Y61.369 E36.37061
G1 X110.745 Y61.14 E36.4236
G1 X111.478 Y60.989 E36.47661
G1 X112.223 Y60.917 E36.52964
G1 X112.971 Y60.924 E36.58263
G1 X113.709 Y61.011 E36.63528
G1 X114.117 Y61.081 E36.6646
G1 X114.846 Y61.247 E36.71757
G1 X115.554 Y61.489 E36.77058
G1 X116.097 Y61.736 E36.81284
G1 X121.581 Y64.515 E37.24838
G1 X122.229 Y64.888 E37.30135
G1 X122.834 Y65.329 E37.35439
G1 X123.496 Y65.942 E37.41831
G1 X123.68 Y66.136 E37.43725
G1 X124.165 Y66.705 E37.49022
G1 X124.586 Y67.323 E37.54319
G1 X124.94 Y67.983 E37.59625
G1 X125.22 Y68.676 E37.6492
G1 X125.422 Y69.379 E37.70102
G1 X125.503 Y69.73 E37.72654
G1 X125.632 Y70.467 E37.77955
G1 X125.681 Y71.213 E37.83251
G1 X125.651 Y71.961 E37.88555
G1 X125.519 Y72.806 E37.94613
G1 X125.45 Y73.12 E37.96891
G1 X125.251 Y73.841 E38.0219
G1 X124.874 Y74.748 E38.09148
G1 X124.682 Y75.131 E38.12184
G1 X124.575 Y75.509 E38.14967
G1 X124.333 Y76.217 E38.20267
G1 X123.9 Y77.104 E38.2726
G1 X123.552 Y77.705 E38.3218
G1 X123.018 Y78.497 E38.38947
G1 X122.958 Y78.574 E38.39639
G1 X120.202 Y84.077 E38.8324
G1 X120.096 Y84.45 E38.85987
G1 X119.854 Y85.158 E38.91288
G1 X119.425 Y86.037 E38.98217
G1 X119.078 Y86.638 E39.03134
G1 X118.535 Y87.444 E39.10018
G1 X118.478 Y87.517 E39.10675
G1 X115.724 Y93.016 E39.54244
G1 X115.617 Y93.392 E39.57014
G1 X115.374 Y94.1 E39.62317
G1 X114.949 Y94.973 E39.69195
G1 X114.602 Y95.575 E39.74118
G1 X114.056 Y96.385 E39.81038
G1 X113.999 Y96.458 E39.81694
G1 X108.897 Y106.643 E40.62396
G1 X128.979 Y123.294 E42.47208
G1 X129.528 Y123.802 E42.52507
G1 X130.021 Y124.365 E42.57809
G1 X130.45 Y124.978 E42.6311
G1 X130.811 Y125.633 E42.68408
G1 X131.025 Y126.12 E42.72176
G1 X131.158 Y126.458 E42.7475
G1 X131.394 Y127.168 E42.8005
G1 X131.553 Y127.899 E42.8535
G1 X131.634 Y128.642 E42.90645
G1 X131.634 Y129.39 E42.95944
G1 X131.595 Y129.851 E42.99222
G1 X128.913 Y152.307 E44.5944
G1 X128.784 Y153.044 E44.6474
G1 X128.578 Y153.763 E44.70039
G1 X128.242 Y154.568 E44.76219
G1 X128.052 Y154.954 E44.79267
G1 X127.687 Y155.607 E44.84566
G1 X127.253 Y156.217 E44.8987
G1 X126.757 Y156.777 E44.9517
G1 X126.328 Y157.178 E44.9933
G1 X126.139 Y157.34 E45.01093
G1 X125.545 Y157.796 E45.06399
G1 X124.907 Y158.185 E45.11692
G1 X124.231 Y158.505 E45.16991
G1 X123.524 Y158.751 E45.22294
G1 X122.747 Y158.927 E45.27938
G1 X122.338 Y158.996 E45.30877
G1 X121.595 Y159.081 E45.36175
G1 X120.847 Y159.086 E45.41474
G1 X120.275 Y159.036 E45.45542
G1 X117.154 Y158.632 E45.67837
G1 X116.419 Y158.497 E45.73131
G1 X115.702 Y158.283 E45.78432
G1 X114.859 Y157.919 E45.84937
G1 X114.623 Y157.798 E45.86816
G1 X113.977 Y157.422 E45.92111
G1 X113.374 Y156.978 E45.97416
G1 X112.822 Y156.473 E46.02716
G1 X112.327 Y155.912 E46.08016
G1 X111.919 Y155.34 E46.12994
G1 X111.724 Y155.035 E46.15559
G1 X111.356 Y154.384 E46.20856
G1 X111.059 Y153.697 E46.26159
G1 X110.836 Y152.983 E46.31458
G1 X110.679 Y152.159 E46.374
G1 X110.638 Y151.841 E46.39672
G1 X110.583 Y151.095 E46.44971
G1 X110.631 Y150.108 E46.51972
G1 X112.477 Y134.79 E47.61276
G1 X103.075 Y130.074 E48.35793
G1 X102.636 Y129.834 E48.39338
G1 X100.222 Y128.399 E48.59233
G1 X99.407 Y127.833 E48.66262
G1 X97.215 Y126.067 E48.86204
G1 X96.485 Y125.387 E48.93272
G1 X94.569 Y123.33 E49.13187
G1 X93.937 Y122.546 E49.20321
G1 X92.337 Y120.237 E49.40223
G1 X91.831 Y119.381 E49.47267
G1 X90.572 Y116.864 E49.67205
G1 X90.188 Y115.938 E49.74307
G1 X89.303 Y113.272 E49.94207
G1 X89.058 Y112.31 E50.0124
G1 X88.558 Y109.54 E50.21181
G1 X88.451 Y108.544 E50.28277
G1 X88.352 Y105.737 E50.48176
G1 X88.388 Y104.741 E50.55236
G1 X88.689 Y101.944 E50.75166
G1 X88.867 Y100.961 E50.82243
G1 X89.562 Y98.24 E51.02139
G1 X89.877 Y97.292 E51.09216
G1 X90.954 Y94.693 E51.29146
G1 X91.162 Y94.238 E51.32691
G1 X94.873 Y86.828 E51.91401
G1 X94.982 Y86.445 E51.94223
G1 X95.225 Y85.737 E51.99526
G1 X95.47 Y85.197 E52.03726
G1 X95.666 Y84.81 E52.068
G1 X96.039 Y84.162 E52.12097
G1 X96.347 Y83.725 E52.15884
G1 X96.582 Y83.417 E52.18629
G1 X99.352 Y77.892 E52.62414
G1 X99.459 Y77.512 E52.65211
G1 X99.701 Y76.804 E52.70511
G1 X99.949 Y76.256 E52.74773
G1 X100.145 Y75.869 E52.77846
G1 X100.518 Y75.221 E52.83143
G1 X100.826 Y74.784 E52.8693
G1 X101.061 Y74.476 E52.89675
G1 X103.828 Y68.955 E53.33425
G1 X103.935 Y68.577 E53.36208
G1 X104.176 Y67.869 E53.41507
G1 X104.434 Y67.302 E53.4592
G1 X104.631 Y66.915 E53.48996
G1 X105.005 Y66.268 E53.54291
G0 F3600 X105.352 Y66.469
G1 F1800 X105.62 Y66.09 E53.57579
G1 X105.881 Y65.748 E53.60627
G1 X106.092 Y65.328 E53.63957
G1 X106.454 Y64.698 E53.69104
G1 X106.882 Y64.111 E53.74251
G1 X107.399 Y63.55 E53.79656
G1 X107.705 Y63.254 E53.82672
G1 X108.254 Y62.779 E53.87815
G1 X108.852 Y62.366 E53.92963
G1 X109.492 Y62.022 E53.98111
G1 X109.944 Y61.83 E54.0159
G1 X110.175 Y61.742 E54.03341
G1 X110.867 Y61.522 E54.08485
G1 X111.579 Y61.378 E54.13631
G1 X112.303 Y61.314 E54.18781
G1 X113.029 Y61.329 E54.23925
G1 X113.641 Y61.405 E54.28294
G1 X114.049 Y61.475 E54.31227
G1 X114.757 Y61.637 E54.36372
G1 X115.443 Y61.876 E54.41518
G1 X115.916 Y62.093 E54.45205
G1 X121.4 Y64.872 E54.8876
G1 X122.029 Y65.235 E54.93905
G1 X122.614 Y65.666 E54.99052
G1 X123.206 Y66.217 E55.04782
G1 X123.39 Y66.411 E55.06676
G1 X123.86 Y66.965 E55.11823
G1 X124.266 Y67.567 E55.16967
G1 X124.604 Y68.21 E55.22113
G1 X124.869 Y68.886 E55.27257
G1 X125.032 Y69.469 E55.31546
G1 X125.113 Y69.82 E55.34098
G1 X125.237 Y70.536 E55.39246
G1 X125.282 Y71.261 E55.44392
G1 X125.247 Y71.986 E55.49534
G1 X125.128 Y72.721 E55.54809
G1 X125.059 Y73.035 E55.57086
G1 X124.865 Y73.734 E55.62225
G1 X124.516 Y74.57 E55.68643
G1 X124.309 Y74.983 E55.71916
G1 X124.191 Y75.4 E55.74986
