;FLAVOR:Marlin
;TIME:10529
;Filament used: 15.6444m
;Layer height: 0.3
;Generated with Cura_SteamEngine 3.6.0
M104 S210
M105
M109 S210
M82 ;absolute extrusion mode
G21 ;metric values
G90 ;absolute positioning
M82 ;set extruder to absolute mode
M107 ;start with the fan off
G28 ;Home all axes (max endstops)
G1 Z15.0 F9000 ;move the platform down 15mm
G92 E0 ;zero the extruded length
G1 F200 E3 ;extrude 3mm of feed stock
G92 E0 ;zero the extruded length again
G1 F9000
;Put printing message on LCD screen
M117 Printing...
G92 E0
G1 F1500 E-6.5
;LAYER_COUNT:339
;LAYER:0
M107
G0 F3600 X5.443 Y19.687 Z0.3
;TYPE:SKIRT
G1 F1500 E0
G1 F1260 X-5.441 Y19.688 E0.543
G1 X-6.23 Y19.648 E0.58242
G1 X-7.011 Y19.529 E0.62183
G1 X-7.775 Y19.331 E0.66121
G1 X-8.178 Y19.182 E0.68264
G1 X-13.699 Y19.182 E0.95809
G1 X-14.488 Y19.142 E0.9975
G1 X-15.268 Y19.023 E1.03687
G1 X-16.033 Y18.825 E1.07629
G1 X-16.773 Y18.551 E1.11566
G1 X-17.482 Y18.203 E1.15506
G1 X-18.313 Y17.671 E1.20429
G1 X-18.617 Y17.448 E1.2231
G1 X-19.229 Y16.95 E1.26246
G1 X-19.788 Y16.392 E1.30187
G1 X-20.287 Y15.78 E1.34126
G1 X-20.631 Y15.271 E1.37191
G1 X-21.175 Y14.394 E1.4234
G1 X-21.557 Y13.702 E1.46284
G1 X-21.867 Y12.976 E1.50222
G1 X-22.102 Y12.222 E1.54162
G1 X-22.259 Y11.448 E1.58102
G1 X-22.338 Y10.662 E1.62043
G1 X-22.338 Y10.577 E1.62468
G1 X-22.35 Y10.518 E1.62768
G1 X-22.482 Y9.522 E1.6778
G1 X-22.55 Y8.497 E1.72905
G1 X-22.55 Y-12.383 E2.77076
G1 X-22.51 Y-13.172 E2.81018
G1 X-22.391 Y-13.952 E2.84954
G1 X-22.193 Y-14.717 E2.88896
G1 X-21.919 Y-15.457 E2.92833
G1 X-21.571 Y-16.166 E2.96774
G1 X-21.153 Y-16.837 E3.00718
G1 X-20.67 Y-17.461 E3.04654
G1 X-20.265 Y-17.898 E3.07627
G1 X-20.148 Y-18.015 E3.08452
G1 X-19.562 Y-18.545 E3.12394
G1 X-18.926 Y-19.012 E3.16331
G1 X-18.246 Y-19.413 E3.20269
G1 X-17.528 Y-19.743 E3.24212
G1 X-16.781 Y-19.998 E3.2815
G1 X-16.012 Y-20.177 E3.32089
G1 X-15.228 Y-20.277 E3.36032
G1 X-14.633 Y-20.3 E3.39003
G1 X14.633 Y-20.3 E4.85011
G1 X15.422 Y-20.26 E4.88953
G1 X16.202 Y-20.141 E4.92889
G1 X16.967 Y-19.943 E4.96831
G1 X17.707 Y-19.669 E5.00768
G1 X18.416 Y-19.321 E5.04709
G1 X19.087 Y-18.903 E5.08653
G1 X19.711 Y-18.42 E5.12589
G1 X20.148 Y-18.015 E5.15562
G1 X20.265 Y-17.898 E5.16387
G1 X20.795 Y-17.312 E5.20329
G1 X21.262 Y-16.676 E5.24266
G1 X21.663 Y-15.996 E5.28204
G1 X21.993 Y-15.278 E5.32147
G1 X22.248 Y-14.531 E5.36085
G1 X22.427 Y-13.762 E5.40024
G1 X22.527 Y-12.978 E5.43967
G1 X22.55 Y-12.368 E5.47012
G1 X22.51 Y9.069 E6.53962
G1 X22.469 Y9.857 E6.57899
G1 X22.344 Y10.654 E6.61924
G1 X22.332 Y10.713 E6.62224
G1 X22.257 Y11.456 E6.6595
G1 X22.099 Y12.229 E6.69886
G1 X21.863 Y12.983 E6.73828
G1 X21.553 Y13.709 E6.77766
G1 X21.171 Y14.399 E6.81701
G1 X20.626 Y15.276 E6.86852
G1 X20.176 Y15.925 E6.90792
G1 X19.662 Y16.525 E6.94734
G1 X19.091 Y17.07 E6.98672
G1 X18.611 Y17.451 E7.01729
G1 X18.308 Y17.673 E7.03603
G1 X17.648 Y18.107 E7.07544
G1 X16.948 Y18.472 E7.11483
G1 X16.214 Y18.764 E7.15424
G1 X15.455 Y18.981 E7.19362
G1 X14.677 Y19.119 E7.23304
G1 X13.698 Y19.181 E7.28198
G1 X8.2 Y19.181 E7.55628
G1 X8.156 Y19.2 E7.55867
G1 X7.403 Y19.437 E7.59806
G1 X6.629 Y19.596 E7.63748
G1 X5.844 Y19.677 E7.67685
G1 X5.443 Y19.687 E7.69686
G0 F3600 X5.443 Y19.287
G1 F1260 X-5.441 Y19.288 E8.23987
G1 X-6.209 Y19.248 E8.27823
G1 X-6.969 Y19.129 E8.31661
G1 X-7.713 Y18.931 E8.35502
G1 X-8.103 Y18.782 E8.37585
G1 X-13.699 Y18.782 E8.65504
G1 X-14.467 Y18.742 E8.6934
G1 X-15.227 Y18.623 E8.73178
G1 X-15.97 Y18.425 E8.77015
G1 X-16.689 Y18.151 E8.80853
G1 X-17.375 Y17.804 E8.84689
G1 X-18.076 Y17.349 E8.88858
G1 X-18.38 Y17.126 E8.90739
G1 X-18.976 Y16.639 E8.94579
G1 X-19.518 Y16.093 E8.98417
G1 X-20 Y15.494 E9.02253
G1 X-20.291 Y15.06 E9.0486
G1 X-20.835 Y14.183 E9.10009
G1 X-21.206 Y13.509 E9.13847
G1 X-21.505 Y12.8 E9.17686
G1 X-21.729 Y12.064 E9.21524
G1 X-21.875 Y11.309 E9.25361
G1 X-21.942 Y10.543 E9.29197
G1 X-21.942 Y10.526 E9.29282
G1 X-21.954 Y10.465 E9.29592
G1 X-22.086 Y9.469 E9.34604
G1 X-22.15 Y8.497 E9.39464
G1 X-22.15 Y-12.383 E10.43635
G1 X-22.11 Y-13.151 E10.47472
G1 X-21.991 Y-13.911 E10.51309
G1 X-21.793 Y-14.654 E10.55146
G1 X-21.519 Y-15.373 E10.58984
G1 X-21.172 Y-16.059 E10.6282
G1 X-20.756 Y-16.706 E10.66657
G1 X-20.275 Y-17.306 E10.70494
G1 X-19.983 Y-17.616 E10.72619
G1 X-19.866 Y-17.733 E10.73444
G1 X-19.294 Y-18.247 E10.77281
G1 X-18.672 Y-18.7 E10.8112
G1 X-18.007 Y-19.086 E10.84956
G1 X-17.305 Y-19.401 E10.88794
G1 X-16.574 Y-19.641 E10.92633
G1 X-15.823 Y-19.804 E10.96467
G1 X-15.058 Y-19.888 E11.00307
G1 X-14.633 Y-19.9 E11.02428
G1 X14.633 Y-19.9 E12.48436
G1 X15.401 Y-19.86 E12.52273
G1 X16.161 Y-19.741 E12.56111
G1 X16.904 Y-19.543 E12.59947
G1 X17.623 Y-19.269 E12.63786
G1 X18.309 Y-18.922 E12.67621
G1 X18.956 Y-18.506 E12.71459
G1 X19.556 Y-18.025 E12.75295
G1 X19.866 Y-17.733 E12.7742
G1 X19.983 Y-17.616 E12.78246
G1 X20.497 Y-17.044 E12.82082
G1 X20.95 Y-16.422 E12.85921
G1 X21.336 Y-15.757 E12.89757
G1 X21.651 Y-15.055 E12.93596
G1 X21.891 Y-14.324 E12.97434
G1 X22.054 Y-13.573 E13.01268
G1 X22.138 Y-12.808 E13.05108
G1 X22.15 Y-12.369 E13.07299
G1 X22.11 Y9.068 E14.14249
G1 X22.069 Y9.836 E14.18086
G1 X21.953 Y10.572 E14.21803
G1 X21.925 Y10.706 E14.22486
G1 X21.914 Y10.969 E14.23799
G1 X21.803 Y11.73 E14.27636
G1 X21.613 Y12.476 E14.31477
G1 X21.347 Y13.197 E14.35311
G1 X20.831 Y14.188 E14.40885
G1 X20.286 Y15.065 E14.46036
G1 X19.847 Y15.696 E14.49871
G1 X19.344 Y16.278 E14.53709
G1 X18.784 Y16.805 E14.57546
G1 X18.375 Y17.128 E14.60146
G1 X18.072 Y17.35 E14.6202
G1 X17.428 Y17.772 E14.65861
G1 X16.745 Y18.125 E14.69697
G1 X16.028 Y18.405 E14.73537
G1 X15.287 Y18.608 E14.7737
G1 X14.528 Y18.734 E14.81208
G1 X13.698 Y18.781 E14.85356
G1 X8.104 Y18.781 E15.13265
G1 X7.791 Y18.904 E15.14942
G1 X7.049 Y19.11 E15.18784
G1 X6.291 Y19.238 E15.22619
G1 X5.443 Y19.287 E15.26857
G0 F3600 X5.443 Y18.887
G1 F1260 X-5.441 Y18.888 E15.81158
G1 X-6.188 Y18.848 E15.8489
G1 X-6.927 Y18.729 E15.88624
G1 X-7.648 Y18.531 E15.92354
G1 X-8.028 Y18.382 E15.94391
G1 X-13.699 Y18.382 E16.22684
G1 X-14.446 Y18.342 E16.26416
G1 X-15.184 Y18.223 E16.30145
G1 X-15.906 Y18.025 E16.3388
G1 X-16.602 Y17.752 E16.3761
G1 X-17.265 Y17.405 E16.41344
G1 X-17.839 Y17.026 E16.44775
G1 X-18.143 Y16.803 E16.46656
G1 X-18.722 Y16.329 E16.50389
G1 X-19.247 Y15.796 E16.54122
G1 X-19.712 Y15.21 E16.57854
G1 X-19.952 Y14.849 E16.60017
G1 X-20.496 Y13.972 E16.65165
G1 X-20.855 Y13.316 E16.68896
G1 X-21.143 Y12.625 E16.72631
G1 X-21.355 Y11.908 E16.76361
G1 X-21.49 Y11.172 E16.80095
G1 X-21.54 Y10.5 E16.83456
G1 X-21.557 Y10.413 E16.83899
G1 X-21.689 Y9.417 E16.88911
G1 X-21.75 Y8.497 E16.93511
G1 X-21.75 Y-12.383 E17.97682
G1 X-21.71 Y-13.13 E18.01414
G1 X-21.591 Y-13.868 E18.05144
G1 X-21.393 Y-14.59 E18.08879
G1 X-21.12 Y-15.286 E18.12608
G1 X-20.773 Y-15.949 E18.16342
G1 X-20.358 Y-16.572 E18.20076
G1 X-19.7 Y-17.333 E18.25096
G1 X-19.583 Y-17.45 E18.25921
G1 X-19.026 Y-17.95 E18.29655
G1 X-18.42 Y-18.387 E18.33383
G1 X-17.77 Y-18.758 E18.37117
G1 X-17.084 Y-19.057 E18.4085
G1 X-16.37 Y-19.281 E18.44583
G1 X-15.637 Y-19.428 E18.48313
G1 X-14.633 Y-19.5 E18.53335
G1 X14.633 Y-19.5 E19.99344
G1 X15.38 Y-19.46 E20.03076
G1 X16.118 Y-19.341 E20.06805
G1 X16.84 Y-19.143 E20.1054
G1 X17.536 Y-18.87 E20.1427
G1 X18.199 Y-18.523 E20.18004
G1 X18.822 Y-18.108 E20.21738
G1 X19.583 Y-17.45 E20.26757
G1 X19.7 Y-17.333 E20.27583
G1 X20.2 Y-16.776 E20.31317
G1 X20.637 Y-16.17 E20.35045
G1 X21.008 Y-15.52 E20.38779
G1 X21.307 Y-14.834 E20.42512
G1 X21.531 Y-14.12 E20.46245
G1 X21.678 Y-13.387 E20.49975
G1 X21.75 Y-12.37 E20.55062
G1 X21.71 Y9.067 E21.62011
G1 X21.669 Y9.814 E21.65744
G1 X21.561 Y10.49 E21.69159
G1 X21.532 Y10.628 E21.69863
G1 X21.478 Y11.258 E21.73017
G1 X21.334 Y11.992 E21.76749
G1 X21.113 Y12.707 E21.80483
G1 X20.816 Y13.394 E21.84217
G1 X20.491 Y13.977 E21.87547
G1 X19.946 Y14.854 E21.92698
G1 X19.518 Y15.467 E21.96428
G1 X19.027 Y16.031 E22.00159
G1 X18.478 Y16.54 E22.03894
G1 X18.138 Y16.806 E22.06048
G1 X17.835 Y17.028 E22.07922
G1 X17.209 Y17.437 E22.11652
G1 X16.543 Y17.777 E22.15383
G1 X15.844 Y18.044 E22.19116
G1 X15.121 Y18.235 E22.22847
G1 X14.381 Y18.348 E22.26581
G1 X13.698 Y18.381 E22.29993
G1 X8.044 Y18.381 E22.58201
G1 X7.429 Y18.599 E22.61456
G1 X6.701 Y18.773 E22.6519
G1 X5.959 Y18.868 E22.68922
G1 X5.443 Y18.887 E22.71499
G0 F3600 X5.443 Y18.487
G1 F1260 X-5.441 Y18.488 E23.25799
G1 X-6.167 Y18.448 E23.29427
G1 X-6.883 Y18.329 E23.33048
G1 X-7.582 Y18.131 E23.36672
G1 X-7.949 Y17.982 E23.38648
G1 X-13.699 Y17.982 E23.67335
G1 X-14.424 Y17.942 E23.70958
G1 X-15.141 Y17.823 E23.74584
G1 X-15.84 Y17.625 E23.78208
G1 X-16.513 Y17.352 E23.81832
G1 X-17.152 Y17.007 E23.85455
G1 X-17.603 Y16.704 E23.88165
G1 X-17.907 Y16.481 E23.90046
G1 X-18.468 Y16.02 E23.93669
G1 X-18.975 Y15.499 E23.97296
G1 X-19.612 Y14.638 E24.02639
G1 X-20.156 Y13.761 E24.07788
G1 X-20.504 Y13.124 E24.11409
G1 X-20.78 Y12.452 E24.15034
G1 X-20.981 Y11.754 E24.18657
G1 X-21.104 Y11.038 E24.22282
G1 X-21.136 Y10.498 E24.24981
G1 X-21.161 Y10.36 E24.2568
G1 X-21.293 Y9.364 E24.30693
G1 X-21.35 Y8.497 E24.35028
G1 X-21.35 Y-12.383 E25.39198
G1 X-21.31 Y-13.108 E25.42821
G1 X-21.191 Y-13.825 E25.46447
G1 X-20.993 Y-14.524 E25.50072
G1 X-20.72 Y-15.197 E25.53695
G1 X-20.375 Y-15.836 E25.57318
G1 X-19.961 Y-16.433 E25.60942
G1 X-19.417 Y-17.05 E25.65046
G1 X-19.3 Y-17.167 E25.65872
G1 X-18.759 Y-17.651 E25.69493
G1 X-18.168 Y-18.074 E25.73119
G1 X-17.534 Y-18.428 E25.76742
G1 X-16.865 Y-18.711 E25.80366
G1 X-16.169 Y-18.919 E25.8399
G1 X-15.454 Y-19.049 E25.87616
G1 X-14.633 Y-19.1 E25.9172
G1 X14.633 Y-19.1 E27.37728
G1 X15.358 Y-19.06 E27.41351
G1 X16.075 Y-18.941 E27.44977
G1 X16.774 Y-18.743 E27.48601
G1 X17.447 Y-18.47 E27.52225
G1 X18.086 Y-18.125 E27.55848
G1 X18.683 Y-17.711 E27.59472
G1 X19.3 Y-17.167 E27.63576
G1 X19.417 Y-17.05 E27.64402
G1 X19.901 Y-16.509 E27.68023
G1 X20.324 Y-15.918 E27.71649
G1 X20.678 Y-15.284 E27.75272
G1 X20.961 Y-14.615 E27.78896
G1 X21.169 Y-13.919 E27.8252
G1 X21.299 Y-13.204 E27.86145
G1 X21.35 Y-12.371 E27.90309
G1 X21.31 Y9.066 E28.97259
G1 X21.269 Y9.791 E29.00882
G1 X21.17 Y10.408 E29.03999
G1 X21.13 Y10.601 E29.04983
G1 X21.124 Y10.815 E29.06051
G1 X21.026 Y11.535 E29.09676
G1 X20.849 Y12.239 E29.13297
G1 X20.596 Y12.92 E29.16922
G1 X20.152 Y13.766 E29.21689
G1 X19.607 Y14.643 E29.2684
G1 X19.19 Y15.238 E29.30465
G1 X18.71 Y15.783 E29.34088
G1 X17.902 Y16.483 E29.39422
G1 X17.599 Y16.705 E29.41296
G1 X16.99 Y17.101 E29.4492
G1 X16.342 Y17.428 E29.48541
G1 X15.661 Y17.682 E29.52167
G1 X14.957 Y17.86 E29.5579
G1 X14.237 Y17.959 E29.59416
G1 X13.698 Y17.981 E29.62107
G1 X7.955 Y17.981 E29.90759
G1 X7.764 Y18.065 E29.918
G1 X7.071 Y18.283 E29.95424
G1 X6.359 Y18.423 E29.99045
G1 X5.443 Y18.487 E30.03626
G0 F3600 X5.443 Y18.087
G1 F1260 X-5.441 Y18.088 E30.57926
G1 X-6.144 Y18.048 E30.61439
G1 X-6.838 Y17.929 E30.64952
G1 X-7.514 Y17.732 E30.68465
G1 X-7.871 Y17.582 E30.70397
G1 X-13.699 Y17.582 E30.99473
G1 X-14.402 Y17.542 E31.02986
G1 X-15.096 Y17.423 E31.06499
G1 X-15.771 Y17.225 E31.10008
G1 X-16.42 Y16.953 E31.13519
G1 X-17.034 Y16.608 E31.17033
G1 X-17.366 Y16.381 E31.19039
G1 X-17.67 Y16.158 E31.2092
G1 X-18.213 Y15.71 E31.24432
G1 X-18.702 Y15.204 E31.27943
G1 X-19.272 Y14.427 E31.32751
G1 X-19.816 Y13.55 E31.37899
G1 X-20.152 Y12.932 E31.41409
G1 X-20.416 Y12.279 E31.44923
G1 X-20.605 Y11.601 E31.48434
G1 X-20.716 Y10.906 E31.51946
G1 X-20.734 Y10.486 E31.54043
G1 X-20.764 Y10.308 E31.54944
G1 X-20.896 Y9.312 E31.59956
G1 X-20.95 Y8.497 E31.64031
G1 X-20.95 Y-12.383 E32.68202
G1 X-20.91 Y-13.086 E32.71715
G1 X-20.791 Y-13.78 E32.75228
G1 X-20.593 Y-14.455 E32.78737
G1 X-20.321 Y-15.104 E32.82248
G1 X-19.976 Y-15.718 E32.85762
G1 X-19.565 Y-16.289 E32.89271
G1 X-19.134 Y-16.767 E32.92483
G1 X-19.017 Y-16.884 E32.93308
G1 X-18.492 Y-17.353 E32.9682
G1 X-17.917 Y-17.759 E33.00332
G1 X-17.299 Y-18.097 E33.03846
G1 X-16.648 Y-18.364 E33.07357
G1 X-15.97 Y-18.554 E33.10869
G1 X-15.275 Y-18.667 E33.14382
G1 X-14.633 Y-18.7 E33.17589
G1 X14.633 Y-18.7 E34.63598
G1 X15.336 Y-18.66 E34.67111
G1 X16.03 Y-18.541 E34.70624
G1 X16.705 Y-18.343 E34.74133
G1 X17.354 Y-18.071 E34.77644
G1 X17.968 Y-17.726 E34.81158
G1 X18.539 Y-17.315 E34.84668
G1 X19.017 Y-16.884 E34.87879
G1 X19.134 Y-16.767 E34.88704
G1 X19.603 Y-16.242 E34.92217
G1 X20.009 Y-15.667 E34.95728
G1 X20.347 Y-15.049 E34.99243
G1 X20.614 Y-14.398 E35.02753
G1 X20.804 Y-13.72 E35.06266
G1 X20.917 Y-13.025 E35.09779
G1 X20.95 Y-12.371 E35.13046
G1 X20.91 Y9.066 E36.19995
G1 X20.869 Y9.768 E36.23504
G1 X20.778 Y10.326 E36.26324
G1 X20.735 Y10.53 E36.27365
G1 X20.691 Y11.106 E36.30247
G1 X20.558 Y11.797 E36.33757
G1 X20.347 Y12.469 E36.37271
G1 X20.062 Y13.113 E36.40785
G1 X19.812 Y13.554 E36.43314
G1 X19.267 Y14.431 E36.48465
G1 X18.862 Y15.007 E36.51978
G1 X18.394 Y15.534 E36.55494
G1 X17.665 Y16.16 E36.60288
G1 X17.362 Y16.382 E36.62162
G1 X16.772 Y16.765 E36.65672
G1 X16.142 Y17.079 E36.69184
G1 X15.48 Y17.319 E36.72697
G1 X14.795 Y17.483 E36.76211
G1 X14.096 Y17.568 E36.79724
G1 X13.698 Y17.581 E36.8171
G1 X7.874 Y17.581 E37.10766
G1 X7.399 Y17.77 E37.13317
G1 X6.719 Y17.954 E37.16831
G1 X6.023 Y18.06 E37.20344
G1 X5.443 Y18.087 E37.23241
G0 F3600 X5.443 Y17.687
G1 F1260 X-5.441 Y17.688 E37.77541
G1 X-6.121 Y17.648 E37.8094
G1 X-6.792 Y17.529 E37.84339
G1 X-7.443 Y17.332 E37.87733
G1 X-7.787 Y17.182 E37.89605
G1 X-13.699 Y17.182 E38.191
G1 X-14.379 Y17.142 E38.22498
G1 X-15.049 Y17.023 E38.25893
G1 X-15.701 Y16.826 E38.29292
G1 X-16.325 Y16.554 E38.32688
G1 X-17.13 Y16.059 E38.37402
G1 X-17.434 Y15.836 E38.39283
G1 X-17.958 Y15.401 E38.42681
G1 X-18.428 Y14.909 E38.46075
G1 X-18.932 Y14.216 E38.50351
G1 X-19.476 Y13.339 E38.55499
G1 X-19.8 Y12.741 E38.58893
G1 X-20.052 Y12.108 E38.62292
G1 X-20.228 Y11.45 E38.6569
G1 X-20.326 Y10.777 E38.69083
G1 X-20.336 Y10.401 E38.70959
G1 X-20.368 Y10.255 E38.71705
G1 X-20.5 Y9.259 E38.76718
G1 X-20.55 Y8.497 E38.80527
G1 X-20.55 Y-12.383 E39.84698
G1 X-20.51 Y-13.063 E39.88097
G1 X-20.391 Y-13.733 E39.91491
G1 X-20.194 Y-14.385 E39.9489
G1 X-19.922 Y-15.009 E39.98286
G1 X-19.578 Y-15.597 E40.01684
G1 X-19.168 Y-16.141 E40.05083
G1 X-18.851 Y-16.484 E40.07413
G1 X-18.734 Y-16.601 E40.08238
G1 X-18.225 Y-17.054 E40.11638
G1 X-17.667 Y-17.443 E40.15031
G1 X-17.067 Y-17.765 E40.18429
G1 X-16.433 Y-18.014 E40.21827
G1 X-15.774 Y-18.187 E40.25226
G1 X-15.1 Y-18.281 E40.28621
G1 X-14.633 Y-18.3 E40.30953
G1 X14.633 Y-18.3 E41.76962
G1 X15.313 Y-18.26 E41.8036
G1 X15.983 Y-18.141 E41.83755
G1 X16.635 Y-17.944 E41.87153
G1 X17.259 Y-17.672 E41.90549
G1 X17.847 Y-17.328 E41.93948
G1 X18.391 Y-16.918 E41.97346
G1 X18.734 Y-16.601 E41.99677
G1 X18.851 Y-16.484 E42.00502
G1 X19.304 Y-15.975 E42.03902
G1 X19.693 Y-15.417 E42.07295
G1 X20.015 Y-14.817 E42.10692
G1 X20.264 Y-14.183 E42.14091
G1 X20.437 Y-13.524 E42.1749
G1 X20.531 Y-12.85 E42.20885
G1 X20.55 Y-12.372 E42.23272
G1 X20.51 Y9.065 E43.30221
G1 X20.469 Y9.744 E43.33615
G1 X20.387 Y10.244 E43.36143
G1 X20.333 Y10.501 E43.37453
G1 X20.33 Y10.709 E43.38491
G1 X20.24 Y11.384 E43.41888
G1 X20.072 Y12.043 E43.45281
G1 X19.828 Y12.679 E43.4868
G1 X19.472 Y13.343 E43.52439
G1 X18.927 Y14.22 E43.5759
G1 X18.535 Y14.777 E43.60988
G1 X18.079 Y15.283 E43.64386
G1 X17.429 Y15.838 E43.6865
G1 X17.126 Y16.06 E43.70524
G1 X16.554 Y16.429 E43.7392
G1 X15.943 Y16.729 E43.77316
G1 X15.301 Y16.955 E43.80712
G1 X14.636 Y17.105 E43.84113
G1 X13.698 Y17.181 E43.88808
G1 X7.797 Y17.181 E44.18248
G1 X7.68 Y17.238 E44.18898
G1 X7.038 Y17.463 E44.22292
G1 X6.373 Y17.612 E44.25691
G1 X5.443 Y17.687 E44.30346
G0 F3600 X5.442 Y17.287
G1 F1260 X-5.442 Y17.288 E44.84647
G1 X-6.097 Y17.248 E44.87921
G1 X-6.743 Y17.129 E44.91198
G1 X-7.37 Y16.932 E44.94477
G1 X-7.701 Y16.782 E44.9629
G1 X-13.699 Y16.782 E45.26214
G1 X-14.355 Y16.742 E45.29493
G1 X-15.001 Y16.623 E45.3277
G1 X-15.628 Y16.426 E45.36049
G1 X-16.226 Y16.154 E45.39326
G1 X-16.893 Y15.736 E45.43254
G1 X-17.197 Y15.513 E45.45134
G1 X-17.702 Y15.093 E45.48411
G1 X-18.152 Y14.615 E45.51687
