;FLAVOR:Marlin
;TIME:4142
;Filament used: 7.46623m
;Layer height: 0.3
;Generated with Cura_SteamEngine 3.6.0
M140 S60
M105
M190 S60
M104 S210
M105
M109 S210
M82 ;absolute extrusion mode
G21 ;metric values
G90 ;absolute positioning
M82 ;set extruder to absolute mode
M107 ;start with the fan off
G28 X0 Y0 ;move X/Y to min endstops
G28 Z0 ;move Z to min endstops
G1 Z15.0 F9000 ;move the platform down 15mm
G92 E0 ;zero the extruded length
G1 F200 E3 ;extrude 3mm of feed stock
G92 E0 ;zero the extruded length again
G1 F9000
;Put printing message on LCD screen
M117 Printing...
G92 E0
G1 F2520 E-4.2
;LAYER_COUNT:279
;LAYER:0
M107
G0 F3600 X91.445 Y97.579 Z0.3
;TYPE:SKIRT
G1 F2520 E0
G1 F1800 X91.693 Y97.356 E0.01664
G1 X91.987 Y97.197 E0.03331
G1 X92.311 Y97.113 E0.05001
G1 X92.5 Y97.1 E0.05946
G1 X127.5 Y97.1 E1.80562
G1 X127.832 Y97.14 E1.82231
G1 X128.144 Y97.257 E1.83893
G1 X128.421 Y97.445 E1.85563
G1 X128.644 Y97.693 E1.87227
G1 X128.803 Y97.987 E1.88895
G1 X128.887 Y98.311 E1.90564
G1 X128.9 Y98.5 E1.9151
G1 X128.9 Y116.472 E2.81172
G1 X128.892 Y116.624 E2.81932
G1 X128.768 Y117.762 E2.87643
G1 X128.697 Y118.073 E2.89234
G1 X128.326 Y119.132 E2.94833
G1 X128.19 Y119.414 E2.96394
G1 X127.593 Y120.364 E3.01992
G1 X127.398 Y120.609 E3.03554
G1 X126.609 Y121.398 E3.09121
G1 X126.364 Y121.593 E3.10683
G1 X125.414 Y122.19 E3.16281
G1 X125.132 Y122.326 E3.17843
G1 X124.075 Y122.696 E3.2343
G1 X123.765 Y122.767 E3.25017
G1 X122.627 Y122.892 E3.30729
G1 X122.472 Y122.9 E3.31503
G1 X94.057 Y122.851 E4.73266
G1 X93.6 Y122.774 E4.75578
G1 X93.176 Y122.627 E4.77817
G1 X92.764 Y122.4 E4.80164
G1 X92.068 Y121.847 E4.84599
G1 X91.753 Y121.495 E4.86956
G1 X91.514 Y121.114 E4.89199
G1 X91.379 Y120.833 E4.90755
G1 X91.23 Y120.408 E4.93002
G1 X91.16 Y120.102 E4.94568
G1 X91.109 Y119.649 E4.96842
G1 X91.1 Y119.492 E4.97627
G1 X91.1 Y98.5 E6.02356
G1 X91.14 Y98.168 E6.04024
G1 X91.257 Y97.856 E6.05687
G1 X91.445 Y97.579 E6.07357
G0 F3600 X91.839 Y97.749
G1 F1800 X92.075 Y97.595 E6.08763
G1 X92.345 Y97.512 E6.10172
G1 X92.5 Y97.5 E6.10948
G1 X127.5 Y97.5 E7.85563
G1 X127.779 Y97.54 E7.8697
G1 X128.036 Y97.656 E7.88376
G1 X128.251 Y97.839 E7.89785
G1 X128.405 Y98.075 E7.91191
G1 X128.488 Y98.345 E7.926
G1 X128.5 Y98.5 E7.93376
G1 X128.5 Y116.472 E8.83038
G1 X128.494 Y116.58 E8.83578
G1 X128.37 Y117.718 E8.89289
G1 X128.32 Y117.941 E8.90429
G1 X127.949 Y119 E8.96028
G1 X127.852 Y119.201 E8.97141
G1 X127.255 Y120.151 E9.02739
G1 X127.115 Y120.326 E9.03857
G1 X126.326 Y121.115 E9.09424
G1 X126.151 Y121.255 E9.10542
G1 X125.201 Y121.852 E9.16139
G1 X124.999 Y121.949 E9.17257
G1 X123.942 Y122.319 E9.22845
G1 X123.721 Y122.369 E9.23975
G1 X122.583 Y122.494 E9.29687
G1 X122.472 Y122.5 E9.30241
G1 X94.057 Y122.451 E10.72004
G1 X93.731 Y122.396 E10.73654
G1 X93.307 Y122.249 E10.75893
G1 X93.013 Y122.087 E10.77567
G1 X92.317 Y121.534 E10.82002
G1 X92.092 Y121.282 E10.83688
G1 X91.853 Y120.901 E10.85932
G1 X91.756 Y120.701 E10.87041
G1 X91.607 Y120.276 E10.89288
G1 X91.557 Y120.057 E10.90408
G1 X91.506 Y119.604 E10.92683
G1 X91.5 Y119.492 E10.93242
G1 X91.5 Y98.5 E11.97972
G1 X91.54 Y98.221 E11.99378
G1 X91.656 Y97.964 E12.00785
G1 X91.839 Y97.749 E12.02193
G0 F3600 X92.053 Y98.099
G1 F1800 X92.226 Y97.966 E12.03282
G1 X92.5 Y97.9 E12.04688
G1 X127.5 Y97.9 E13.79304
G1 X127.715 Y97.94 E13.80395
G1 X127.901 Y98.053 E13.8148
G1 X128.034 Y98.226 E13.82569
G1 X128.1 Y98.5 E13.83975
G1 X128.1 Y116.472 E14.73638
G1 X128.096 Y116.537 E14.73963
G1 X127.972 Y117.675 E14.79674
G1 X127.942 Y117.808 E14.80354
G1 X127.571 Y118.867 E14.85952
G1 X127.513 Y118.988 E14.86622
G1 X126.916 Y119.938 E14.92219
G1 X126.832 Y120.043 E14.9289
G1 X126.043 Y120.832 E14.98457
G1 X125.938 Y120.916 E14.99128
G1 X124.988 Y121.513 E15.04726
G1 X124.867 Y121.571 E15.05395
G1 X123.81 Y121.941 E15.10982
G1 X123.678 Y121.971 E15.11658
G1 X122.54 Y122.096 E15.17369
G1 X122.473 Y122.1 E15.17704
G1 X94.058 Y122.051 E16.59467
G1 X93.862 Y122.018 E16.60459
G1 X93.438 Y121.871 E16.62698
G1 X93.262 Y121.774 E16.637
G1 X92.566 Y121.221 E16.68135
G1 X92.431 Y121.07 E16.69146
G1 X92.192 Y120.689 E16.7139
G1 X92.134 Y120.569 E16.72055
G1 X91.985 Y120.144 E16.74302
G1 X91.955 Y120.012 E16.74977
G1 X91.904 Y119.559 E16.77251
G1 X91.9 Y119.492 E16.77586
G1 X91.9 Y98.5 E17.82316
G1 X91.94 Y98.285 E17.83407
G1 X92.053 Y98.099 E17.84492
G0 F3600 X92.339 Y98.381
G1 F1800 X92.5 Y98.3 E17.85392
G1 X127.5 Y98.3 E19.60007
G1 X127.619 Y98.339 E19.60632
G1 X127.7 Y98.5 E19.61531
G1 X127.7 Y116.472 E20.51194
G1 X127.699 Y116.494 E20.51304
G1 X127.575 Y117.632 E20.57015
G1 X127.565 Y117.676 E20.5724
G1 X127.194 Y118.735 E20.62838
G1 X127.174 Y118.775 E20.63061
G1 X126.577 Y119.725 E20.68659
G1 X126.549 Y119.76 E20.68883
G1 X125.76 Y120.549 E20.7445
G1 X125.725 Y120.577 E20.74673
G1 X124.775 Y121.174 E20.80271
G1 X124.735 Y121.194 E20.80494
G1 X123.678 Y121.564 E20.86081
G1 X123.634 Y121.574 E20.86306
G1 X122.496 Y121.699 E20.92018
G1 X122.474 Y121.7 E20.92128
G1 X94.059 Y121.651 E22.33891
G1 X93.993 Y121.64 E22.34225
G1 X93.569 Y121.493 E22.36464
G1 X93.511 Y121.461 E22.36794
G1 X92.815 Y120.908 E22.41229
G1 X92.77 Y120.857 E22.41568
G1 X92.531 Y120.476 E22.43812
G1 X92.511 Y120.436 E22.44035
G1 X92.362 Y120.011 E22.46282
G1 X92.352 Y119.967 E22.46507
G1 X92.301 Y119.514 E22.48782
G1 X92.3 Y119.492 E22.48892
G1 X92.3 Y98.5 E23.53621
G1 X92.339 Y98.381 E23.54246
G1 F2520 E19.34246
;MESH:thingy_attacher_3.stl
G0 F3600 X93.114 Y99.114
G0 X111.646 Y105.658
G0 X112.447 Y106.079
G0 X126.801 Y116.429
G0 X127.3 Y116.46
;TYPE:WALL-OUTER
G1 F2520 E23.54246
G1 F1800 X127.178 Y117.568 E23.59807
G1 X126.822 Y118.585 E23.65183
G1 X126.253 Y119.491 E23.7052
G1 X125.492 Y120.252 E23.7589
G1 X124.585 Y120.822 E23.81234
G1 X123.568 Y121.178 E23.8661
G1 X122.462 Y121.3 E23.92161
G1 X94.565 Y121.3 E25.3134
G1 X94.102 Y121.254 E25.33661
G1 X93.719 Y121.121 E25.35684
G1 X93.38 Y120.909 E25.37679
G1 X93.095 Y120.624 E25.39689
G1 X92.883 Y120.286 E25.4168
G1 X92.749 Y119.904 E25.437
G1 X92.7 Y119.476 E25.45849
G1 X92.7 Y98.7 E26.49501
G1 X127.3 Y98.7 E28.22121
G1 X127.3 Y116.46 E29.10726
G0 F3600 X127.279 Y116.658
G0 X126.842 Y116.609
G0 X126.782 Y116.602
G0 X114.571 Y111.076
G0 X114.076 Y111.015
G1 F1800 X114.2 Y109.99 E29.15877
G1 X114.077 Y108.986 E29.20923
G1 X113.72 Y108.047 E29.25935
G1 X113.145 Y107.214 E29.30985
G1 X112.386 Y106.542 E29.36043
G1 X111.489 Y106.072 E29.41095
G1 X110.506 Y105.829 E29.46147
G1 X109.494 Y105.829 E29.51195
G1 X108.511 Y106.072 E29.56247
G1 X107.614 Y106.542 E29.613
G1 X106.855 Y107.214 E29.66357
G1 X106.28 Y108.047 E29.71407
G1 X105.92 Y108.995 E29.76466
G1 X105.799 Y110 E29.81516
G1 X105.92 Y111.005 E29.86566
G1 X106.28 Y111.953 E29.91626
G1 X106.855 Y112.787 E29.96679
G1 X107.614 Y113.458 E30.01734
G1 X108.511 Y113.928 E30.06786
G1 X109.484 Y114.169 E30.11787
G1 X110.495 Y114.171 E30.16831
G1 X111.479 Y113.932 E30.21883
G1 X112.376 Y113.463 E30.26933
G1 X113.136 Y112.794 E30.31984
G1 X113.714 Y111.962 E30.37038
G1 X114.076 Y111.015 E30.42096
G0 F3600 X114.1 Y110.817
G0 X114.467 Y111.112
;TYPE:WALL-INNER
G1 F1800 X114.603 Y109.99 E30.47735
G1 X114.468 Y108.889 E30.53269
G1 X114.077 Y107.86 E30.58761
G1 X113.447 Y106.947 E30.64295
G1 X112.615 Y106.21 E30.6984
G1 X111.632 Y105.695 E30.75377
G1 X110.555 Y105.429 E30.80911
G1 X109.445 Y105.429 E30.86449
G1 X108.368 Y105.695 E30.91984
G1 X107.385 Y106.21 E30.9752
G1 X106.553 Y106.947 E31.03066
G1 X105.923 Y107.86 E31.086
G1 X105.529 Y108.899 E31.14143
G1 X105.396 Y110 E31.19676
G1 X105.529 Y111.101 E31.25209
G1 X105.923 Y112.14 E31.30753
G1 X106.553 Y113.054 E31.36291
G1 X107.385 Y113.79 E31.41833
G1 X108.368 Y114.305 E31.4737
G1 X109.435 Y114.569 E31.52853
G1 X110.542 Y114.571 E31.58376
G1 X111.621 Y114.309 E31.63916
G1 X112.604 Y113.795 E31.6945
G1 X113.437 Y113.062 E31.74986
G1 X114.07 Y112.15 E31.80524
G1 X114.467 Y111.112 E31.86069
G0 F3600 X114.858 Y111.209
G1 F1800 X115.006 Y109.99 E31.92195
G1 X114.859 Y108.792 E31.98217
G1 X114.434 Y107.673 E32.04188
G1 X113.749 Y106.68 E32.10207
G1 X112.844 Y105.878 E32.1624
G1 X111.775 Y105.318 E32.22261
G1 X110.604 Y105.029 E32.28278
G1 X109.396 Y105.029 E32.34305
G1 X108.225 Y105.318 E32.40322
G1 X107.156 Y105.878 E32.46343
G1 X106.251 Y106.68 E32.52376
G1 X105.566 Y107.673 E32.58394
G1 X105.138 Y108.803 E32.64423
G1 X104.993 Y110 E32.70438
G1 X105.138 Y111.197 E32.76454
G1 X105.566 Y112.327 E32.82482
G1 X106.251 Y113.321 E32.88505
G1 X107.156 Y114.122 E32.94534
G1 X108.225 Y114.682 E33.00555
G1 X109.386 Y114.969 E33.06522
G1 X110.59 Y114.971 E33.12528
G1 X111.763 Y114.686 E33.18551
G1 X112.832 Y114.127 E33.24569
G1 X113.738 Y113.33 E33.30589
G1 X114.426 Y112.338 E33.36612
G1 X114.858 Y111.209 E33.42643
G0 F3600 X126.801 Y116.429
G0 X126.9 Y116.434
G1 F1800 X126.785 Y117.479 E33.47888
G1 X126.459 Y118.41 E33.52809
G1 X125.938 Y119.24 E33.57698
G1 X125.241 Y119.937 E33.62616
G1 X124.41 Y120.459 E33.67512
G1 X123.479 Y120.785 E33.72433
G1 X122.436 Y120.9 E33.77669
G1 X94.585 Y120.9 E35.16618
G1 X94.189 Y120.861 E35.18603
G1 X93.892 Y120.758 E35.20171
G1 X93.632 Y120.595 E35.21702
G1 X93.41 Y120.373 E35.23269
G1 X93.27 Y120.148 E35.24591
G1 X93.244 Y120.108 E35.24829
G1 X93.141 Y119.814 E35.26383
G1 X93.1 Y119.457 E35.28176
G1 X93.1 Y99.1 E36.29737
G1 X126.9 Y99.1 E37.98366
G1 X126.9 Y116.434 E38.84846
G0 F3600 X126.5 Y116.408
G1 F1800 X126.392 Y117.39 E38.89774
G1 X126.096 Y118.235 E38.94241
G1 X125.623 Y118.989 E38.98682
G1 X124.99 Y119.622 E39.03148
G1 X124.235 Y120.096 E39.07596
G1 X123.39 Y120.392 E39.12063
G1 X122.41 Y120.5 E39.16981
G1 X94.604 Y120.5 E40.55706
G1 X94.276 Y120.468 E40.5735
G1 X94.065 Y120.395 E40.58464
G1 X93.884 Y120.281 E40.59531
G1 X93.723 Y120.12 E40.60667
G1 X93.608 Y119.936 E40.6175
G1 X93.533 Y119.721 E40.62886
G1 X93.5 Y119.437 E40.64312
G1 X93.5 Y99.5 E41.63778
G1 X126.5 Y99.5 E43.28416
G1 X126.5 Y116.408 E44.1277
G0 F3600 X126.11 Y116.383
;TYPE:SKIN
G1 F1800 X126.008 Y117.304 E44.17393
G1 X125.741 Y118.067 E44.21426
G1 X125.315 Y118.747 E44.2543
G1 X124.748 Y119.314 E44.2943
G1 X124.067 Y119.741 E44.3344
G1 X123.304 Y120.008 E44.37473
G1 X122.385 Y120.11 E44.42086
G1 X94.622 Y120.11 E45.80596
G1 X94.362 Y120.084 E45.819
G1 X94.234 Y120.041 E45.82574
G1 X94.124 Y119.971 E45.83224
G1 X94.034 Y119.881 E45.83859
G1 X93.962 Y119.767 E45.84532
G1 X93.917 Y119.634 E45.85232
G1 X93.89 Y119.409 E45.86363
G1 X93.89 Y99.89 E46.83744
G1 X126.11 Y99.89 E48.4449
G1 X126.11 Y116.383 E49.26774
G0 F3600 X114.773 Y112.521
G1 F1800 X115.24 Y111.304 E49.33277
G1 X115.398 Y109.99 E49.3988
G1 X115.241 Y108.698 E49.46373
G1 X114.781 Y107.49 E49.52822
G1 X114.043 Y106.419 E49.59311
G1 X113.067 Y105.554 E49.65817
G1 X111.914 Y104.951 E49.72309
G1 X110.651 Y104.639 E49.78799
G1 X109.349 Y104.639 E49.85295
G1 X108.086 Y104.951 E49.91786
G1 X106.933 Y105.554 E49.98277
G1 X105.957 Y106.419 E50.04784
G1 X105.219 Y107.49 E50.11273
G1 X104.756 Y108.709 E50.17778
G1 X104.601 Y110 E50.24265
G1 X104.756 Y111.291 E50.30752
G1 X105.218 Y112.51 E50.37256
G1 X105.957 Y113.582 E50.43752
G1 X106.933 Y114.446 E50.50255
G1 X108.086 Y115.049 E50.56747
G1 X109.338 Y115.359 E50.63181
G1 X110.637 Y115.361 E50.69662
G1 X111.901 Y115.054 E50.76152
G1 X113.054 Y114.451 E50.82643
G1 X114.031 Y113.591 E50.89137
G1 X114.773 Y112.521 E50.95633
G0 F3600 X125.929 Y100.473
G1 F1800 X125.526 Y100.07 E50.98476
G0 F3600 X124.96 Y100.07
G1 F1800 X125.929 Y101.039 E51.05313
G0 F3600 X125.929 Y101.604
G1 F1800 X124.394 Y100.07 E51.1614
G0 F3600 X123.829 Y100.07
G1 F1800 X125.929 Y102.17 E51.30957
G0 F3600 X125.929 Y102.736
G1 F1800 X123.263 Y100.07 E51.49767
G0 F3600 X122.697 Y100.07
G1 F1800 X125.929 Y103.301 E51.72567
G0 F3600 X125.929 Y103.867
G1 F1800 X122.132 Y100.07 E51.99357
G0 F3600 X121.566 Y100.07
G1 F1800 X125.929 Y104.433 E52.3014
G0 F3600 X125.929 Y104.998
G1 F1800 X121 Y100.07 E52.64913
G0 F3600 X120.435 Y100.07
G1 F1800 X125.929 Y105.564 E53.03676
G0 F3600 X125.929 Y106.13
G1 F1800 X119.869 Y100.07 E53.46433
G0 F3600 X119.303 Y100.07
G1 F1800 X125.929 Y106.696 E53.93183
G0 F3600 X125.929 Y107.261
G1 F1800 X118.738 Y100.07 E54.43919
G0 F3600 X118.172 Y100.07
G1 F1800 X125.929 Y107.827 E54.98649
G0 F3600 X125.929 Y108.393
G1 F1800 X117.606 Y100.07 E55.57372
G0 F3600 X117.041 Y100.07
G1 F1800 X125.929 Y108.958 E56.20082
G0 F3600 X125.929 Y109.524
G1 F1800 X116.475 Y100.07 E56.86785
G0 F3600 X115.909 Y100.07
G1 F1800 X125.929 Y110.09 E57.57481
G0 F3600 X125.929 Y110.655
G1 F1800 X115.343 Y100.07 E58.32168
G0 F3600 X114.778 Y100.07
G1 F1800 X125.929 Y111.221 E59.10844
G0 F3600 X125.929 Y111.787
G1 F1800 X114.212 Y100.07 E59.93514
G0 F3600 X113.646 Y100.07
G1 F1800 X125.929 Y112.352 E60.80174
G0 F3600 X125.929 Y112.918
G1 F1800 X113.081 Y100.07 E61.70823
G0 F3600 X112.515 Y100.07
G1 F1800 X125.929 Y113.484 E62.65466
G0 F3600 X125.929 Y114.049
G1 F1800 X111.949 Y100.07 E63.64099
G0 F3600 X111.384 Y100.07
G1 F1800 X125.929 Y114.615 E64.66722
G0 F3600 X125.929 Y115.181
G1 F1800 X110.818 Y100.07 E65.73338
G0 F3600 X110.252 Y100.07
G1 F1800 X125.929 Y115.747 E66.83948
G0 F3600 X125.929 Y116.312
G1 F1800 X109.686 Y100.069 E67.98551
G0 F3600 X109.12 Y100.069
G1 F1800 X125.879 Y116.828 E69.16795
G0 F3600 X125.809 Y117.323
G1 F1800 X108.555 Y100.069 E70.38531
G0 F3600 X107.989 Y100.069
G1 F1800 X125.662 Y117.743 E71.63227
G0 F3600 X125.487 Y118.133
G1 F1800 X115.051 Y107.697 E72.36859
G1 X114.981 Y107.627
G0 F3600 X115.399 Y108.61
G1 F1800 X125.269 Y118.481 E73.06501
G0 F3600 X125.015 Y118.792
G1 F1800 X115.49 Y109.267 E73.73705
G0 F3600 X115.568 Y109.911
G1 F1800 X124.732 Y119.075 E74.38362
G0 F3600 X124.406 Y119.315
G1 F1800 X115.524 Y110.433 E75.01029
G0 F3600 X115.464 Y110.938
G1 F1800 X124.058 Y119.532 E75.61664
G0 F3600 X123.653 Y119.694
G1 F1800 X115.384 Y111.425 E76.20007
G0 F3600 X115.227 Y111.833
G1 F1800 X123.229 Y119.835 E76.76465
G0 F3600 X122.719 Y119.891
G1 F1800 X115.071 Y112.242 E77.30429
G0 F3600 X114.906 Y112.643
G1 F1800 X122.192 Y119.929 E77.81836
G0 F3600 X121.626 Y119.929
G1 F1800 X114.675 Y112.977 E78.30882
G0 F3600 X114.443 Y113.311
G1 F1800 X121.06 Y119.929 E78.77573
G0 F3600 X120.495 Y119.929
G1 F1800 X114.211 Y113.646 E79.21906
G0 F3600 X113.924 Y113.924
G1 F1800 X119.929 Y119.929 E79.64275
G0 F3600 X119.363 Y119.929
G1 F1800 X113.624 Y114.189 E80.0477
G0 F3600 X113.323 Y114.454
G1 F1800 X118.798 Y119.929 E80.43399
G0 F3600 X118.232 Y119.929
G1 F1800 X112.99 Y114.687 E80.80384
G0 F3600 X112.619 Y114.882
G1 F1800 X117.666 Y119.929 E81.15993
G0 F3600 X117.101 Y119.929
G1 F1800 X112.247 Y115.075 E81.50241
G0 F3600 X111.856 Y115.25
G1 F1800 X116.535 Y119.929 E81.83254
G0 F3600 X115.969 Y119.929
G1 F1800 X111.401 Y115.36 E82.15487
G0 F3600 X110.946 Y115.471
G1 F1800 X115.404 Y119.929 E82.46941
G0 F3600 X114.838 Y119.929
G1 F1800 X110.449 Y115.54 E82.77907
G0 F3600 X109.882 Y115.539
G1 F1800 X114.272 Y119.929 E83.08881
G0 F3600 X113.707 Y119.929
G1 F1800 X109.316 Y115.539 E83.39859
G0 F3600 X108.564 Y115.352
G1 F1800 X113.141 Y119.929 E83.72152
G0 F3600 X112.575 Y119.929
G1 F1800 X107.69 Y115.044 E84.06618
G1 X107.62 Y114.974
G0 F3600 X104.946 Y112.3
G1 F1800 X94.069 Y101.423 E84.83361
G0 F3600 X94.069 Y100.858
G1 F1800 X104.6 Y111.389 E85.57663
G0 F3600 X104.507 Y110.73
G1 F1800 X94.069 Y100.292 E86.31309
G0 F3600 X94.412 Y100.069
G1 F1800 X104.43 Y110.087 E87.01991
G0 F3600 X104.472 Y109.563
G1 F1800 X94.978 Y100.069 E87.68977
G0 F3600 X95.544 Y100.069
G1 F1800 X104.533 Y109.058 E88.32399
G0 F3600 X104.615 Y108.574
G1 F1800 X96.109 Y100.069 E88.9241
G0 F3600 X96.675 Y100.069
G1 F1800 X104.77 Y108.164 E89.49524
G0 F3600 X104.926 Y107.755
G1 F1800 X97.241 Y100.069 E90.0375
G0 F3600 X97.807 Y100.069
G1 F1800 X105.093 Y107.355 E90.55156
G0 F3600 X105.323 Y107.02
G1 F1800 X98.372 Y100.069 E91.04199
G0 F3600 X98.938 Y100.069
G1 F1800 X105.554 Y106.685 E91.50879
G0 F3600 X105.784 Y106.35
G1 F1800 X99.504 Y100.069 E91.95191
G0 F3600 X100.069 Y100.069
G1 F1800 X106.073 Y106.073 E92.37553
G0 F3600 X106.373 Y105.807
G1 F1800 X100.635 Y100.069 E92.78037
G0 F3600 X101.201 Y100.069
