;FLAVOR:Marlin
;TIME:6942
;Filament used: 9.58793m
;Layer height: 0.3
;Generated with Cura_SteamEngine 3.6.0
M140 S60
M105
M190 S60
M104 S210
M105
M109 S210
M82 ;absolute extrusion mode
G21 ;metric values
G90 ;absolute positioning
M82 ;set extruder to absolute mode
M107 ;start with the fan off
G28 X0 Y0 ;move X/Y to min endstops
G28 Z0 ;move Z to min endstops
G1 Z15.0 F9000 ;move the platform down 15mm
G92 E0 ;zero the extruded length
G1 F200 E3 ;extrude 3mm of feed stock
G92 E0 ;zero the extruded length again
G1 F9000
;Put printing message on LCD screen
M117 Printing...
G92 E0
G1 F2520 E-4.2
;LAYER_COUNT:120
;LAYER:0
M107
G0 F3600 X87.933 Y43.694 Z0.3
;TYPE:SKIRT
G1 F2520 E0
G1 F1800 X88.121 Y43.417 E0.0167
G1 X88.369 Y43.194 E0.03334
G1 X88.663 Y43.035 E0.05002
G1 X88.987 Y42.951 E0.06672
G1 X89.176 Y42.938 E0.07617
G1 X118.676 Y42.938 E1.54793
G1 X119.008 Y42.978 E1.56461
G1 X119.32 Y43.095 E1.58124
G1 X119.597 Y43.283 E1.59794
G1 X119.82 Y43.531 E1.61458
G1 X119.979 Y43.825 E1.63125
G1 X120.063 Y44.149 E1.64795
G1 X120.076 Y44.338 E1.6574
G1 X120.076 Y141.717 E6.51566
G1 X120.036 Y142.049 E6.53234
G1 X119.919 Y142.361 E6.54897
G1 X119.731 Y142.638 E6.56567
G1 X119.483 Y142.861 E6.58231
G1 X119.189 Y143.02 E6.59898
G1 X118.865 Y143.104 E6.61568
G1 X118.676 Y143.117 E6.62513
G1 X89.176 Y143.117 E8.0969
G1 X88.844 Y143.077 E8.11358
G1 X88.532 Y142.96 E8.1302
G1 X88.255 Y142.772 E8.1469
G1 X88.032 Y142.524 E8.16354
G1 X87.873 Y142.23 E8.18022
G1 X87.789 Y141.906 E8.19692
G1 X87.776 Y141.717 E8.20637
G1 X87.776 Y44.338 E13.06463
G1 X87.816 Y44.006 E13.08131
G1 X87.933 Y43.694 E13.09794
G0 F3600 X88.332 Y43.802
G1 F1800 X88.515 Y43.587 E13.11202
G1 X88.751 Y43.433 E13.12608
G1 X89.021 Y43.35 E13.14017
G1 X89.176 Y43.338 E13.14793
G1 X118.676 Y43.338 E14.61969
G1 X118.955 Y43.378 E14.63375
G1 X119.212 Y43.494 E14.64782
G1 X119.427 Y43.677 E14.6619
G1 X119.581 Y43.913 E14.67596
G1 X119.664 Y44.183 E14.69006
G1 X119.676 Y44.338 E14.69781
G1 X119.676 Y141.717 E19.55607
G1 X119.636 Y141.996 E19.57013
G1 X119.52 Y142.253 E19.5842
G1 X119.337 Y142.468 E19.59829
G1 X119.101 Y142.622 E19.61234
G1 X118.831 Y142.705 E19.62644
G1 X118.676 Y142.717 E19.63419
G1 X89.176 Y142.717 E21.10595
G1 X88.897 Y142.677 E21.12002
G1 X88.64 Y142.561 E21.13408
G1 X88.425 Y142.378 E21.14817
G1 X88.271 Y142.142 E21.16223
G1 X88.188 Y141.872 E21.17632
G1 X88.176 Y141.717 E21.18408
G1 X88.176 Y44.338 E26.04233
G1 X88.216 Y44.059 E26.0564
G1 X88.332 Y43.802 E26.07046
G0 F3600 X88.616 Y44.123
G1 F1800 X88.729 Y43.937 E26.08132
G1 X88.902 Y43.804 E26.09221
G1 X89.176 Y43.738 E26.10627
G1 X118.676 Y43.738 E27.57803
G1 X118.891 Y43.778 E27.58894
G1 X119.077 Y43.891 E27.5998
G1 X119.21 Y44.064 E27.61069
G1 X119.276 Y44.338 E27.62475
G1 X119.276 Y141.717 E32.483
G1 X119.236 Y141.932 E32.49391
G1 X119.123 Y142.118 E32.50477
G1 X118.95 Y142.251 E32.51566
G1 X118.676 Y142.317 E32.52972
G1 X89.176 Y142.317 E34.00148
G1 X88.961 Y142.277 E34.01239
G1 X88.775 Y142.164 E34.02325
G1 X88.642 Y141.991 E34.03414
G1 X88.576 Y141.717 E34.0482
G1 X88.576 Y44.338 E38.90646
G1 X88.616 Y44.123 E38.91737
G0 F3600 X89.015 Y44.219
G1 F1800 X89.176 Y44.138 E38.92636
G1 X118.676 Y44.138 E40.39812
G1 X118.795 Y44.177 E40.40437
G1 X118.876 Y44.338 E40.41336
G1 X118.876 Y141.717 E45.27162
G1 X118.837 Y141.836 E45.27786
G1 X118.676 Y141.917 E45.28685
G1 X89.176 Y141.917 E46.75862
G1 X89.057 Y141.878 E46.76486
G1 X88.976 Y141.717 E46.77386
G1 X88.976 Y44.338 E51.63211
G1 X89.015 Y44.219 E51.63836
G1 F2520 E47.43836
;MESH:thingy_attacher_4.stl
G0 F3600 X89.79 Y44.952
G0 X95.597 Y67.401
G0 X118.006 Y141.047
G0 X118.476 Y141.517
;TYPE:WALL-OUTER
G1 F2520 E51.63836
G1 F1800 X89.376 Y141.517 E53.09017
G1 X89.376 Y44.538 E57.92847
G1 X118.476 Y44.538 E59.38027
G1 X118.476 Y141.517 E64.21857
G0 F3600 X118.276 Y141.517
G0 X118.036 Y141.077
G0 X117.976 Y141.077
G0 X95.597 Y67.401
G0 X95.327 Y65.742
G0 X95.351 Y63.629
G0 X95.832 Y63.761
G1 F1800 X95.737 Y65.533 E64.30711
G1 X96.023 Y67.283 E64.39557
G1 X96.68 Y68.93 E64.48404
G1 X97.676 Y70.397 E64.5725
G1 X98.962 Y71.617 E64.66094
G1 X100.483 Y72.532 E64.74949
G1 X102.163 Y73.097 E64.83792
G1 X103.926 Y73.289 E64.9264
G1 X105.689 Y73.097 E65.01488
G1 X107.369 Y72.532 E65.1033
G1 X108.889 Y71.617 E65.19182
G1 X110.176 Y70.397 E65.28029
G1 X111.172 Y68.93 E65.36875
G1 X111.828 Y67.283 E65.4572
G1 X112.115 Y65.533 E65.54567
G1 X112.019 Y63.761 E65.63421
G1 X111.545 Y62.053 E65.72264
G1 X110.713 Y60.486 E65.81116
G1 X109.565 Y59.134 E65.89964
G1 X108.154 Y58.062 E65.98805
G1 X106.544 Y57.316 E66.07658
G1 X104.813 Y56.935 E66.16501
G1 X103.039 Y56.935 E66.25351
G1 X101.307 Y57.316 E66.34199
G1 X99.697 Y58.062 E66.43051
G1 X98.286 Y59.134 E66.51892
G1 X97.137 Y60.486 E66.60744
G1 X96.307 Y62.053 E66.69591
G1 X95.832 Y63.761 E66.78435
G0 F3600 X95.822 Y63.96
G0 X95.435 Y63.696
;TYPE:WALL-INNER
G1 F1800 X95.335 Y65.555 E66.87723
G1 X95.635 Y67.391 E66.97005
G1 X96.325 Y69.119 E67.06288
G1 X97.369 Y70.657 E67.15562
G1 X98.718 Y71.937 E67.24839
G1 X100.314 Y72.897 E67.34131
G1 X102.077 Y73.49 E67.43411
G1 X103.926 Y73.691 E67.5269
G1 X105.775 Y73.49 E67.61969
G1 X107.538 Y72.897 E67.71249
G1 X109.133 Y71.937 E67.80537
G1 X110.483 Y70.658 E67.89815
G1 X111.527 Y69.119 E67.99093
G1 X112.216 Y67.391 E68.08374
G1 X112.517 Y65.555 E68.17656
G1 X112.416 Y63.696 E68.26944
G1 X111.919 Y61.904 E68.36222
G1 X111.046 Y60.26 E68.45508
G1 X109.842 Y58.842 E68.54789
G1 X108.361 Y57.717 E68.64068
G1 X106.673 Y56.935 E68.73349
G1 X104.857 Y56.535 E68.82626
G1 X102.996 Y56.535 E68.91911
G1 X101.178 Y56.935 E69.01198
G1 X99.49 Y57.717 E69.10479
G1 X98.009 Y58.842 E69.19758
G1 X96.804 Y60.26 E69.29042
G1 X95.933 Y61.904 E69.38324
G1 X95.435 Y63.696 E69.47603
G0 F3600 X95.038 Y63.631
G1 F1800 X94.933 Y65.577 E69.57326
G1 X95.247 Y67.499 E69.67042
G1 X95.97 Y69.308 E69.76761
G1 X97.062 Y70.917 E69.86462
G1 X98.474 Y72.257 E69.96174
G1 X100.145 Y73.262 E70.05902
G1 X101.991 Y73.883 E70.15619
G1 X103.926 Y74.093 E70.2533
G1 X105.861 Y73.883 E70.3504
G1 X107.707 Y73.262 E70.44757
G1 X109.377 Y72.257 E70.54481
G1 X110.79 Y70.919 E70.6419
G1 X111.882 Y69.308 E70.73899
G1 X112.604 Y67.499 E70.83617
G1 X112.919 Y65.577 E70.93333
G1 X112.813 Y63.631 E71.03057
G1 X112.293 Y61.755 E71.12769
G1 X111.379 Y60.034 E71.22491
G1 X110.119 Y58.55 E71.32203
G1 X108.568 Y57.372 E71.4192
G1 X106.802 Y56.554 E71.5163
G1 X104.901 Y56.135 E71.61342
G1 X102.953 Y56.135 E71.7106
G1 X101.049 Y56.554 E71.80787
G1 X99.283 Y57.372 E71.90496
G1 X97.732 Y58.55 E72.00213
G1 X96.471 Y60.034 E72.09929
G1 X95.559 Y61.755 E72.19646
G1 X95.038 Y63.631 E72.2936
G0 F3600 X95.597 Y67.401
G0 X118.006 Y141.047
G0 X118.076 Y141.117
G1 F1800 X89.776 Y141.117 E73.70549
G1 X89.776 Y44.938 E78.50388
G1 X118.076 Y44.938 E79.91577
G1 X118.076 Y141.117 E84.71416
G0 F3600 X117.676 Y140.717
G1 F1800 X90.176 Y140.717 E86.08614
G1 X90.176 Y45.338 E90.84462
G1 X117.676 Y45.338 E92.2166
G1 X117.676 Y140.717 E96.97508
G0 F3600 X117.286 Y140.327
;TYPE:SKIN
G1 F1800 X90.566 Y140.327 E98.30814
G1 X90.566 Y45.728 E103.02771
G1 X117.286 Y45.728 E104.36077
G1 X117.286 Y140.327 E109.08034
G0 F3600 X105.945 Y74.266
G1 F1800 X107.871 Y73.618 E109.18172
G1 X109.615 Y72.569 E109.28325
G1 X111.089 Y71.173 E109.38454
G1 X112.229 Y69.492 E109.48587
G1 X112.982 Y67.604 E109.58728
G1 X113.311 Y65.598 E109.68869
G1 X113.201 Y63.567 E109.79017
G1 X112.658 Y61.61 E109.89149
G1 X111.703 Y59.814 E109.99298
G1 X110.388 Y58.265 E110.09435
G1 X108.771 Y57.036 E110.19568
G1 X106.927 Y56.182 E110.29706
G1 X104.944 Y55.745 E110.39837
G1 X102.91 Y55.745 E110.49984
G1 X100.924 Y56.182 E110.6013
G1 X99.08 Y57.036 E110.70268
G1 X97.463 Y58.265 E110.80401
G1 X96.146 Y59.814 E110.90545
G1 X95.194 Y61.61 E111.00686
G1 X94.65 Y63.567 E111.1082
G1 X94.541 Y65.598 E111.20967
G1 X94.869 Y67.604 E111.31108
G1 X95.623 Y69.492 E111.4125
G1 X96.763 Y71.171 E111.51375
G1 X98.236 Y72.569 E111.61507
G1 X99.981 Y73.619 E111.71667
G1 X101.907 Y74.266 E111.81804
G1 X103.926 Y74.485 E111.91936
G1 X105.945 Y74.266 E112.02068
G0 F3600 X109.157 Y71.968
G0 X110.513 Y70.683
G0 X111.562 Y69.137
G0 X112.184 Y67.575
G0 X117.106 Y46.395
G1 F1800 X116.618 Y45.908 E112.05507
G0 F3600 X116.053 Y45.908
G1 F1800 X117.106 Y46.961 E112.12937
G0 F3600 X117.106 Y47.526
G1 F1800 X115.487 Y45.908 E112.24356
G0 F3600 X114.921 Y45.908
G1 F1800 X117.106 Y48.092 E112.39769
G0 F3600 X117.106 Y48.658
G1 F1800 X114.356 Y45.908 E112.59172
G0 F3600 X113.79 Y45.908
G1 F1800 X117.106 Y49.223 E112.82564
G0 F3600 X117.106 Y49.789
G1 F1800 X113.224 Y45.908 E113.09951
G0 F3600 X112.659 Y45.908
G1 F1800 X117.106 Y50.355 E113.41327
G0 F3600 X117.106 Y50.92
G1 F1800 X112.093 Y45.908 E113.76692
G0 F3600 X111.527 Y45.908
G1 F1800 X117.106 Y51.486 E114.16052
G0 F3600 X117.106 Y52.052
G1 F1800 X110.962 Y45.908 E114.59401
G0 F3600 X110.396 Y45.908
G1 F1800 X117.106 Y52.617 E115.0674
G0 F3600 X117.106 Y53.183
G1 F1800 X109.83 Y45.908 E115.58073
G0 F3600 X109.264 Y45.908
G1 F1800 X117.106 Y53.749 E116.13399
G0 F3600 X117.106 Y54.314
G1 F1800 X108.699 Y45.908 E116.72711
G0 F3600 X108.133 Y45.908
G1 F1800 X117.106 Y54.88 E117.36017
G0 F3600 X117.106 Y55.446
G1 F1800 X107.567 Y45.908 E118.03316
G0 F3600 X107.002 Y45.908
G1 F1800 X117.106 Y56.012 E118.74605
G0 F3600 X117.106 Y56.577
G1 F1800 X106.436 Y45.908 E119.49885
G0 F3600 X105.87 Y45.908
G1 F1800 X117.106 Y57.143 E120.29157
G0 F3600 X117.106 Y57.709
G1 F1800 X105.305 Y45.908 E121.12419
G0 F3600 X104.739 Y45.908
G1 F1800 X117.106 Y58.274 E121.99672
G0 F3600 X117.106 Y58.84
G1 F1800 X104.173 Y45.908 E122.90918
G0 F3600 X103.608 Y45.908
G1 F1800 X117.106 Y59.406 E123.86153
G0 F3600 X117.106 Y59.971
G1 F1800 X103.042 Y45.908 E124.85379
G0 F3600 X102.476 Y45.908
G1 F1800 X117.106 Y60.537 E125.88598
G0 F3600 X117.106 Y61.103
G1 F1800 X101.911 Y45.908 E126.95807
G0 F3600 X101.345 Y45.908
G1 F1800 X117.106 Y61.668 E128.07006
G0 F3600 X117.106 Y62.234
G1 F1800 X100.779 Y45.908 E129.22198
G0 F3600 X100.214 Y45.908
G1 F1800 X117.106 Y62.8 E130.4138
G0 F3600 X117.106 Y63.365
G1 F1800 X99.648 Y45.908 E131.64552
G0 F3600 X99.082 Y45.908
G1 F1800 X117.106 Y63.931 E132.91718
G0 F3600 X117.106 Y64.497
G1 F1800 X98.516 Y45.908 E134.22877
G0 F3600 X97.951 Y45.908
G1 F1800 X109.115 Y57.072 E135.01645
G1 X109.185 Y57.142
G0 F3600 X107.92 Y56.443
G1 F1800 X97.385 Y45.908 E135.75975
G0 F3600 X96.819 Y45.908
G1 F1800 X106.903 Y55.992 E136.47123
G0 F3600 X106.179 Y55.833
G1 F1800 X96.254 Y45.908 E137.17149
G0 F3600 X95.688 Y45.908
G1 F1800 X105.453 Y55.673 E137.86046
G0 F3600 X104.779 Y55.565
G1 F1800 X95.122 Y45.908 E138.54182
G0 F3600 X94.557 Y45.908
G1 F1800 X104.214 Y55.565 E139.22317
G0 F3600 X103.648 Y55.565
G1 F1800 X93.991 Y45.908 E139.90453
G0 F3600 X93.425 Y45.908
G1 F1800 X103.082 Y55.565 E140.58588
G0 F3600 X102.584 Y55.632
G1 F1800 X92.86 Y45.908 E141.27196
G0 F3600 X92.294 Y45.908
G1 F1800 X102.12 Y55.734 E141.96524
G0 F3600 X101.657 Y55.836
G1 F1800 X91.728 Y45.908 E142.66575
G0 F3600 X91.163 Y45.908
G1 F1800 X101.193 Y55.938 E143.37342
G0 F3600 X100.751 Y56.062
G1 F1800 X90.745 Y46.055 E144.07943
G0 F3600 X90.745 Y46.621
G1 F1800 X100.365 Y56.241 E144.75817
G0 F3600 X99.978 Y56.42
G1 F1800 X90.745 Y47.187 E145.40961
G0 F3600 X90.745 Y47.753
G1 F1800 X99.591 Y56.599 E146.03374
G0 F3600 X99.204 Y56.778
G1 F1800 X90.745 Y48.318 E146.63061
G0 F3600 X90.745 Y48.884
G1 F1800 X98.847 Y56.986 E147.20225
G0 F3600 X98.525 Y57.23
G1 F1800 X90.745 Y49.45 E147.75117
G0 F3600 X90.745 Y50.015
G1 F1800 X98.204 Y57.475 E148.27748
G0 F3600 X97.882 Y57.719
G1 F1800 X90.745 Y50.581 E148.78107
G0 F3600 X90.745 Y51.147
G1 F1800 X97.561 Y57.963 E149.26197
G0 F3600 X97.259 Y58.226
G1 F1800 X90.745 Y51.712 E149.72157
G0 F3600 X90.745 Y52.278
G1 F1800 X96.999 Y58.532 E150.16282
G0 F3600 X96.739 Y58.838
G1 F1800 X90.745 Y52.844 E150.58573
G0 F3600 X90.745 Y53.409
G1 F1800 X96.479 Y59.143 E150.9903
G0 F3600 X96.219 Y59.45
G1 F1800 X90.745 Y53.975 E151.37655
G0 F3600 X90.745 Y54.541
G1 F1800 X95.969 Y59.765 E151.74513
G0 F3600 X95.772 Y60.134
G1 F1800 X90.745 Y55.106 E152.09985
G0 F3600 X90.745 Y55.672
G1 F1800 X95.576 Y60.504 E152.44074
G0 F3600 X95.38 Y60.874
G1 F1800 X90.745 Y56.238 E152.7678
G0 F3600 X90.745 Y56.804
G1 F1800 X95.184 Y61.243 E153.08099
G0 F3600 X95.001 Y61.626
G1 F1800 X90.745 Y57.369 E153.38131
G0 F3600 X90.745 Y57.935
G1 F1800 X94.878 Y62.069 E153.67295
G0 F3600 X94.755 Y62.511
G1 F1800 X90.745 Y58.501 E153.95588
G0 F3600 X90.745 Y59.066
G1 F1800 X94.632 Y62.954 E154.23016
G0 F3600 X94.509 Y63.397
G1 F1800 X90.745 Y59.632 E154.49577
G0 F3600 X90.745 Y60.198
G1 F1800 X94.451 Y63.904 E154.75725
G0 F3600 X94.422 Y64.441
G1 F1800 X90.745 Y60.763 E155.01672
G0 F3600 X90.745 Y61.329
G1 F1800 X94.393 Y64.978 E155.27414
G0 F3600 X94.364 Y65.514
G1 F1800 X90.745 Y61.895 E155.52948
G0 F3600 X90.745 Y62.46
G1 F1800 X94.451 Y66.167 E155.79099
G0 F3600 X94.562 Y66.843
G1 F1800 X90.745 Y63.026 E156.0603
G0 F3600 X90.745 Y63.592
G1 F1800 X94.672 Y67.519 E156.33737
G1 X94.742 Y67.589
G0 F3600 X94.996 Y68.409
G1 F1800 X90.745 Y64.157 E156.63734
G0 F3600 X90.745 Y64.723
G1 F1800 X95.371 Y69.349 E156.96373
G1 X95.441 Y69.419
G0 F3600 X96.372 Y70.916
G1 F1800 X90.745 Y65.289 E157.36074
G0 F3600 X90.745 Y65.854
G1 F1800 X117.106 Y92.215 E159.22065
G0 F3600 X117.106 Y92.781
G1 F1800 X90.745 Y66.42 E161.08057
G0 F3600 X90.745 Y66.986
G1 F1800 X117.106 Y93.347 E162.94048
G0 F3600 X117.106 Y93.912
G1 F1800 X90.745 Y67.552 E164.80035
G0 F3600 X90.745 Y68.117
G1 F1800 X117.106 Y94.478 E166.66026
G0 F3600 X117.106 Y95.044
G1 F1800 X90.745 Y68.683 E168.52017
G0 F3600 X90.745 Y69.249
G1 F1800 X117.106 Y95.61 E170.38008
G0 F3600 X117.106 Y96.175
G1 F1800 X90.745 Y69.814 E172.24
G0 F3600 X90.745 Y70.38
G1 F1800 X117.106 Y96.741 E174.09991
G0 F3600 X117.106 Y97.307
G1 F1800 X90.745 Y70.946 E175.95982
G0 F3600 X90.745 Y71.511
G1 F1800 X117.106 Y97.872 E177.81973
G0 F3600 X117.106 Y98.438
G1 F1800 X90.745 Y72.077 E179.67964
G0 F3600 X90.745 Y72.643
G1 F1800 X117.106 Y99.004 E181.53955
G0 F3600 X117.106 Y99.569
G1 F1800 X90.745 Y73.208 E183.39946
G0 F3600 X90.745 Y73.774
G1 F1800 X117.106 Y100.135 E185.25937
G0 F3600 X117.106 Y100.701
G1 F1800 X90.745 Y74.34 E187.11928
G0 F3600 X90.745 Y74.905
G1 F1800 X117.106 Y101.266 E188.97919
G0 F3600 X117.106 Y101.832
G1 F1800 X90.745 Y75.471 E190.8391
G0 F3600 X90.745 Y76.037
G1 F1800 X117.106 Y102.398 E192.69902
G0 F3600 X117.106 Y102.963
G1 F1800 X90.745 Y76.602 E194.55893
G0 F3600 X90.745 Y77.168
G1 F1800 X117.106 Y103.529 E196.41884
G0 F3600 X117.106 Y104.095
G1 F1800 X90.745 Y77.734 E198.27875
G0 F3600 X90.745 Y78.3
G1 F1800 X117.106 Y104.66 E200.13862
G0 F3600 X117.106 Y105.226
G1 F1800 X90.745 Y78.865 E201.99853
G0 F3600 X90.745 Y79.431
G1 F1800 X117.106 Y105.792 E203.85845
G0 F3600 X117.106 Y106.358
G1 F1800 X90.745 Y79.997 E205.71836
G0 F3600 X90.745 Y80.562
G1 F1800 X117.106 Y106.923 E207.57827
G0 F3600 X117.106 Y107.489
G1 F1800 X90.745 Y81.128 E209.43818
G0 F3600 X90.745 Y81.694
G1 F1800 X117.106 Y108.055 E211.29809
G0 F3600 X117.106 Y108.62
G1 F1800 X90.745 Y82.259 E213.158
G0 F3600 X90.745 Y82.825
G1 F1800 X117.106 Y109.186 E215.01791
G0 F3600 X117.106 Y109.752
G1 F1800 X90.745 Y83.391 E216.87782
G0 F3600 X90.745 Y83.956
G1 F1800 X117.106 Y110.317 E218.73773
G0 F3600 X117.106 Y110.883
G1 F1800 X90.745 Y84.522 E220.59764
G0 F3600 X90.745 Y85.088
G1 F1800 X117.106 Y111.449 E222.45756
G0 F3600 X117.106 Y112.014
G1 F1800 X90.745 Y85.653 E224.31747
G0 F3600 X90.745 Y86.219
G1 F1800 X117.106 Y112.58 E226.17738
G0 F3600 X117.106 Y113.146
G1 F1800 X90.745 Y86.785 E228.03729
G0 F3600 X90.745 Y87.351
G1 F1800 X117.106 Y113.711 E229.89716
G0 F3600 X117.106 Y114.277
G1 F1800 X90.745 Y87.916 E231.75707
G0 F3600 X90.745 Y88.482
G1 F1800 X117.106 Y114.843 E233.61699
G0 F3600 X117.106 Y115.409
G1 F1800 X90.745 Y89.048 E235.4769
G0 F3600 X90.745 Y89.613
G1 F1800 X117.106 Y115.974 E237.33681
G0 F3600 X117.106 Y116.54
G1 F1800 X90.745 Y90.179 E239.19672
G0 F3600 X90.745 Y90.745
G1 F1800 X117.106 Y117.106 E241.05663
G0 F3600 X117.106 Y117.671
