;FLAVOR:Marlin
;TIME:4943
;Filament used: 7.87325m
;Layer height: 0.3
;Generated with Cura_SteamEngine 3.6.0
M140 S60
M105
M190 S60
M104 S210
M105
M109 S210
M82 ;absolute extrusion mode
G21 ;metric values
G90 ;absolute positioning
M82 ;set extruder to absolute mode
M107 ;start with the fan off
G28 X0 Y0 ;move X/Y to min endstops
G28 Z0 ;move Z to min endstops
G1 Z15.0 F9000 ;move the platform down 15mm
G92 E0 ;zero the extruded length
G1 F200 E3 ;extrude 3mm of feed stock
G92 E0 ;zero the extruded length again
G1 F9000
;Put printing message on LCD screen
M117 Printing...
G92 E0
G1 F2520 E-4.2
;LAYER_COUNT:32
;LAYER:0
M107
G0 F3600 X122.401 Y20.681 Z0.3
;TYPE:SKIRT
G1 F2520 E0
G1 F1800 X122.518 Y20.369 E0.01662
G1 X122.706 Y20.092 E0.03333
G1 X122.954 Y19.869 E0.04997
G1 X123.248 Y19.71 E0.06664
G1 X123.572 Y19.626 E0.08334
G1 X123.761 Y19.613 E0.09279
G1 X133.761 Y19.613 E0.59169
G1 X134.093 Y19.653 E0.60838
G1 X134.405 Y19.77 E0.625
G1 X134.682 Y19.958 E0.6417
G1 X134.905 Y20.206 E0.65834
G1 X135.064 Y20.5 E0.67502
G1 X135.148 Y20.824 E0.69172
G1 X135.161 Y21.013 E0.70117
G1 X135.161 Y185.913 E8.92806
G1 X135.121 Y186.245 E8.94475
G1 X135.004 Y186.557 E8.96137
G1 X134.816 Y186.834 E8.97807
G1 X134.568 Y187.057 E8.99471
G1 X134.274 Y187.216 E9.01139
G1 X133.95 Y187.3 E9.02808
G1 X133.761 Y187.313 E9.03754
G1 X123.761 Y187.313 E9.53644
G1 X123.429 Y187.273 E9.55312
G1 X123.117 Y187.156 E9.56975
G1 X122.84 Y186.968 E9.58645
G1 X122.617 Y186.72 E9.60309
G1 X122.458 Y186.426 E9.61976
G1 X122.374 Y186.102 E9.63646
G1 X122.361 Y185.913 E9.64591
G1 X122.361 Y21.013 E17.87281
G1 X122.401 Y20.681 E17.88949
G0 F3600 X122.801 Y20.734
G1 F1800 X122.917 Y20.477 E17.90356
G1 X123.1 Y20.262 E17.91764
G1 X123.336 Y20.108 E17.9317
G1 X123.606 Y20.025 E17.9458
G1 X123.761 Y20.013 E17.95355
G1 X133.761 Y20.013 E18.45245
G1 X134.04 Y20.053 E18.46651
G1 X134.297 Y20.169 E18.48058
G1 X134.512 Y20.352 E18.49467
G1 X134.666 Y20.588 E18.50873
G1 X134.749 Y20.858 E18.52282
G1 X134.761 Y21.013 E18.53058
G1 X134.761 Y185.913 E26.75747
G1 X134.721 Y186.192 E26.77153
G1 X134.605 Y186.449 E26.7856
G1 X134.422 Y186.664 E26.79969
G1 X134.186 Y186.818 E26.81374
G1 X133.916 Y186.901 E26.82784
G1 X133.761 Y186.913 E26.83559
G1 X123.761 Y186.913 E27.33449
G1 X123.482 Y186.873 E27.34856
G1 X123.225 Y186.757 E27.36262
G1 X123.01 Y186.574 E27.37671
G1 X122.856 Y186.338 E27.39077
G1 X122.773 Y186.068 E27.40486
G1 X122.761 Y185.913 E27.41262
G1 X122.761 Y21.013 E35.63951
G1 X122.801 Y20.734 E35.65357
G0 F3600 X123.201 Y20.798
G1 F1800 X123.314 Y20.612 E35.66443
G1 X123.487 Y20.479 E35.67532
G1 X123.761 Y20.413 E35.68938
G1 X133.761 Y20.413 E36.18828
G1 X133.976 Y20.453 E36.19919
G1 X134.162 Y20.566 E36.21005
G1 X134.295 Y20.739 E36.22094
G1 X134.361 Y21.013 E36.235
G1 X134.361 Y185.913 E44.46189
G1 X134.321 Y186.128 E44.4728
G1 X134.208 Y186.314 E44.48366
G1 X134.035 Y186.447 E44.49455
G1 X133.761 Y186.513 E44.50861
G1 X123.761 Y186.513 E45.00751
G1 X123.546 Y186.473 E45.01842
G1 X123.36 Y186.36 E45.02928
G1 X123.227 Y186.187 E45.04016
G1 X123.161 Y185.913 E45.05423
G1 X123.161 Y21.013 E53.28112
G1 X123.201 Y20.798 E53.29203
G0 F3600 X123.561 Y21.013
G1 F1800 X123.6 Y20.894 E53.29828
G1 X123.761 Y20.813 E53.30727
G1 X133.761 Y20.813 E53.80617
G1 X133.88 Y20.852 E53.81242
G1 X133.961 Y21.013 E53.82141
G1 X133.961 Y185.913 E62.04831
G1 X133.922 Y186.032 E62.05455
G1 X133.761 Y186.113 E62.06354
G1 X123.761 Y186.113 E62.56245
G1 X123.642 Y186.074 E62.56869
G1 X123.561 Y185.913 E62.57769
G1 X123.561 Y21.013 E70.80458
G1 F2520 E66.60458
G0 F3600 X123.096 Y21.013
G0 X116.282 Y21.916
G1 F2520 E70.80458
G1 F1800 X116.295 Y22.109 E70.81423
G1 X116.296 Y186.436 E79.01254
G1 X116.256 Y186.768 E79.02922
G1 X116.139 Y187.08 E79.04585
G1 X115.951 Y187.357 E79.06255
G1 X115.703 Y187.58 E79.07919
G1 X115.409 Y187.739 E79.09586
G1 X115.085 Y187.823 E79.11256
G1 X114.892 Y187.836 E79.12221
G1 X94.792 Y187.785 E80.12501
G1 X94.461 Y187.744 E80.14165
G1 X94.195 Y187.649 E80.15574
G1 X93.762 Y187.443 E80.17966
G1 X93.479 Y187.265 E80.19634
G1 X93.22 Y186.988 E80.21526
G1 X93.055 Y186.755 E80.22951
G1 X92.896 Y186.461 E80.24618
G1 X92.799 Y185.995 E80.26993
G1 X92.687 Y182.811 E80.42888
G1 X92.686 Y182.761 E80.43137
G1 X92.749 Y26.816 E88.2115
G1 X92.689 Y25.96 E88.25431
G1 X92.687 Y25.813 E88.26164
G1 X92.801 Y22.549 E88.42459
G1 X92.852 Y22.219 E88.44125
G1 X93.05 Y21.8 E88.46437
G1 X93.211 Y21.568 E88.47845
G1 X93.433 Y21.318 E88.49513
G1 X93.762 Y21.101 E88.5148
G1 X94.195 Y20.896 E88.5387
G1 X94.512 Y20.79 E88.55537
G1 X94.79 Y20.761 E88.56932
G1 X114.891 Y20.709 E89.57217
G1 X115.223 Y20.748 E89.58884
G1 X115.536 Y20.864 E89.6055
G1 X115.813 Y21.052 E89.6222
G1 X116.037 Y21.299 E89.63883
G1 X116.196 Y21.593 E89.65551
G1 X116.282 Y21.916 E89.67219
G0 F3600 X115.883 Y21.952
G1 F1800 X115.895 Y22.109 E89.68004
G1 X115.896 Y186.436 E97.87835
G1 X115.856 Y186.715 E97.89241
G1 X115.74 Y186.972 E97.90648
G1 X115.557 Y187.187 E97.92056
G1 X115.321 Y187.341 E97.93462
G1 X115.051 Y187.424 E97.94871
G1 X114.893 Y187.436 E97.95662
G1 X94.793 Y187.385 E98.95942
G1 X94.514 Y187.344 E98.97349
G1 X94.366 Y187.288 E98.98138
G1 X93.933 Y187.082 E99.0053
G1 X93.698 Y186.926 E99.01937
G1 X93.547 Y186.757 E99.03068
G1 X93.382 Y186.524 E99.04493
G1 X93.253 Y186.273 E99.059
G1 X93.199 Y185.981 E99.07382
G1 X93.087 Y182.797 E99.23277
G1 X93.086 Y182.762 E99.23452
G1 X93.149 Y26.802 E107.01539
G1 X93.088 Y25.932 E107.0589
G1 X93.087 Y25.827 E107.06414
G1 X93.201 Y22.563 E107.22708
G1 X93.25 Y22.285 E107.24117
G1 X93.378 Y22.028 E107.25549
G1 X93.539 Y21.796 E107.26958
G1 X93.731 Y21.589 E107.28366
G1 X93.933 Y21.462 E107.29557
G1 X94.366 Y21.257 E107.31947
G1 X94.636 Y21.174 E107.33356
G1 X94.791 Y21.161 E107.34132
G1 X114.892 Y21.109 E108.34417
G1 X115.172 Y21.148 E108.35827
G1 X115.429 Y21.264 E108.37234
G1 X115.644 Y21.447 E108.38643
G1 X115.799 Y21.682 E108.40047
G1 X115.883 Y21.952 E108.41458
G0 F3600 X115.495 Y22.109
G1 F1800 X115.496 Y186.436 E116.61288
G1 X115.456 Y186.651 E116.6238
G1 X115.343 Y186.837 E116.63465
G1 X115.17 Y186.97 E116.64554
G1 X114.894 Y187.036 E116.6597
G1 X94.794 Y186.985 E117.66249
G1 X94.538 Y186.927 E117.67559
G1 X94.105 Y186.721 E117.69951
G1 X93.873 Y186.526 E117.71463
G1 X93.708 Y186.293 E117.72888
G1 X93.617 Y186.095 E117.73975
G1 X93.598 Y185.967 E117.7462
G1 X93.486 Y182.783 E117.90515
G1 X93.486 Y182.762 E117.9062
G1 X93.549 Y26.789 E125.68773
G1 X93.487 Y25.904 E125.73199
G1 X93.486 Y25.841 E125.73513
G1 X93.6 Y22.577 E125.89807
G1 X93.647 Y22.364 E125.90895
G1 X93.707 Y22.256 E125.91512
G1 X93.868 Y22.024 E125.92921
G1 X94.104 Y21.824 E125.94464
G1 X94.537 Y21.619 E125.96854
G1 X94.792 Y21.561 E125.98159
G1 X114.893 Y21.509 E126.98443
G1 X115.108 Y21.548 E126.99533
G1 X115.295 Y21.661 E127.00624
G1 X115.428 Y21.834 E127.01712
G1 X115.495 Y22.109 E127.03124
G0 F3600 X115.095 Y22.109
G1 F1800 X115.096 Y186.436 E135.22955
G1 X115.057 Y186.555 E135.2358
G1 X114.895 Y186.636 E135.24483
G1 X94.795 Y186.585 E136.24763
G1 X94.71 Y186.566 E136.25198
G1 X94.277 Y186.36 E136.2759
G1 X94.2 Y186.295 E136.28093
G1 X94.035 Y186.062 E136.29517
G1 X93.998 Y185.953 E136.30091
G1 X93.886 Y182.769 E136.45986
G1 X93.886 Y182.762 E136.46021
G1 X93.949 Y26.775 E144.24243
G1 X93.886 Y25.876 E144.2874
G1 X93.886 Y25.855 E144.28844
G1 X94 Y22.591 E144.45138
G1 X94.036 Y22.484 E144.45702
G1 X94.197 Y22.252 E144.47111
G1 X94.275 Y22.185 E144.47624
G1 X94.708 Y21.98 E144.50014
G1 X94.793 Y21.961 E144.50448
G1 X114.894 Y21.909 E145.50733
G1 X115.013 Y21.948 E145.51358
G1 X115.095 Y22.109 E145.52259
G1 F2520 E141.32259
;MESH:lcover.stl
G0 F3600 X115.56 Y22.108
G0 X115.522 Y22.4
G0 X115.515 Y22.463
G0 X95.781 Y181.523
G0 X95.776 Y181.567
G0 X95.767 Y181.649
G0 X94.758 Y181.114
G0 X94.447 Y181.336
G0 X94.348 Y181.333
;TYPE:WALL-OUTER
G1 F2520 E145.52259
G1 F1800 X94.349 Y26.755 E153.23452
G1 X94.342 Y26.65 E153.23977
G1 X94.34 Y26.617 E153.24142
G1 X94.289 Y25.88 E153.27827
G1 X94.287 Y25.856 E153.27948
G1 X94.287 Y25.839 E153.28032
G1 X94.327 Y25.111 E153.3167
G1 X94.329 Y25.075 E153.3185
G1 X94.329 Y25.032 E153.32064
G1 X94.331 Y24.651 E153.33965
G1 X94.348 Y24.433 E153.35056
G1 X94.352 Y22.844 E153.42984
G1 X94.387 Y22.678 E153.4383
G1 X94.485 Y22.527 E153.44728
G1 X94.756 Y22.384 E153.46257
G1 X94.836 Y22.358 E153.46676
G1 X95.196 Y22.317 E153.48484
G1 X97.081 Y22.317 E153.57888
G1 X97.197 Y22.317 E153.58467
G1 X97.773 Y22.317 E153.61341
G1 X97.904 Y22.317 E153.61994
G1 X98.494 Y22.317 E153.64938
G1 X98.595 Y22.317 E153.65442
G1 X114.495 Y22.309 E154.44767
G1 X114.695 Y22.309 E154.45765
G1 X114.695 Y22.509 E154.46411
G1 X114.696 Y186.036 E162.62251
G1 X114.696 Y186.236 E162.63248
G1 X114.496 Y186.236 E162.63894
G1 X98.583 Y186.231 E163.43285
G1 X98.494 Y186.231 E163.43729
G1 X97.901 Y186.23 E163.46687
G1 X97.77 Y186.229 E163.47341
G1 X97.197 Y186.228 E163.502
G1 X97.088 Y186.228 E163.50743
G1 X95.195 Y186.227 E163.60188
G1 X94.835 Y186.188 E163.61994
G1 X94.761 Y186.163 E163.62384
G1 X94.483 Y186.014 E163.63957
G1 X94.386 Y185.867 E163.64836
G1 X94.351 Y185.7 E163.65687
G1 X94.349 Y183.655 E163.7589
G1 X94.342 Y183.55 E163.76415
G1 X94.34 Y183.517 E163.7658
G1 X94.289 Y182.78 E163.80266
G1 X94.287 Y182.756 E163.80386
G1 X94.287 Y182.739 E163.80471
G1 X94.327 Y182.011 E163.84108
G1 X94.329 Y181.975 E163.84288
G1 X94.329 Y181.932 E163.84502
G1 X94.331 Y181.551 E163.86403
G1 X94.348 Y181.333 E163.87494
G0 F3600 X94.348 Y181.133
G0 X94.448 Y181.262
G0 X101.441 Y26.648
G0 X100.946 Y26.588
G1 F1800 X101.038 Y25.823 E163.91338
G1 X100.956 Y25.102 E163.94959
G1 X100.714 Y24.418 E163.98578
G1 X100.324 Y23.808 E164.0219
G1 X99.901 Y23.385 E164.05175
G1 X99.803 Y23.298 E164.05829
G1 X99.3 Y22.982 E164.08792
G1 X99.183 Y22.92 E164.09453
G1 X98.623 Y22.724 E164.12413
G1 X98.593 Y22.716 E164.12568
G1 X98.495 Y22.692 E164.13056
G1 X97.904 Y22.626 E164.15609
G1 X97.773 Y22.625 E164.16113
G1 X97.198 Y22.688 E164.18564
G1 X97.085 Y22.716 E164.19124
G1 X97.071 Y22.72 E164.19196
G1 X96.522 Y22.904 E164.22085
G1 X95.914 Y23.262 E164.25605
G1 X95.401 Y23.747 E164.29127
G1 X95.005 Y24.33 E164.32643
G1 X94.812 Y24.782 E164.35095
G1 X94.724 Y25.09 E164.36694
G1 X94.713 Y25.131 E164.36902
G1 X94.636 Y25.856 E164.40249
G1 X94.729 Y26.589 E164.43645
G1 X94.74 Y26.619 E164.43802
G1 X95.003 Y27.312 E164.475
G1 X95.441 Y27.946 E164.51344
G1 X96.02 Y28.457 E164.55197
G1 X96.703 Y28.815 E164.59044
G1 X97.452 Y29 E164.62894
G1 X98.223 Y29 E164.6674
G1 X98.972 Y28.815 E164.70589
G1 X99.655 Y28.457 E164.74436
G1 X100.234 Y27.945 E164.78292
G1 X100.671 Y27.31 E164.82138
G1 X100.946 Y26.588 E164.85993
G0 F3600 X100.969 Y26.39
G0 X101.406 Y26.443
G0 X101.465 Y26.45
G0 X95.032 Y180.312
G0 X95.442 Y180.597
G1 F1800 X95.006 Y181.228 E164.89819
G1 X94.812 Y181.682 E164.92282
G1 X94.724 Y181.99 E164.9388
G1 X94.713 Y182.031 E164.94089
G1 X94.636 Y182.756 E164.97436
G1 X94.729 Y183.489 E165.00832
G1 X94.74 Y183.519 E165.00989
G1 X95.002 Y184.211 E165.0468
G1 X95.4 Y184.796 E165.0821
G1 X95.913 Y185.281 E165.11733
G1 X96.521 Y185.639 E165.15253
G1 X97.07 Y185.823 E165.18141
G1 X97.091 Y185.829 E165.1825
G1 X97.197 Y185.855 E165.18777
G1 X97.77 Y185.918 E165.21251
G1 X97.901 Y185.919 E165.21763
G1 X98.494 Y185.853 E165.24328
G1 X98.58 Y185.832 E165.24758
G1 X98.622 Y185.821 E165.24975
G1 X99.182 Y185.625 E165.27935
G1 X99.299 Y185.563 E165.28595
G1 X99.802 Y185.247 E165.31559
G1 X99.9 Y185.16 E165.32213
G1 X100.32 Y184.74 E165.35176
G1 X100.396 Y184.632 E165.35835
G1 X100.713 Y184.127 E165.38809
G1 X100.955 Y183.443 E165.42429
G1 X101.038 Y182.721 E165.46055
G1 X100.946 Y181.956 E165.49899
G1 X100.672 Y181.234 E165.53752
G1 X100.234 Y180.599 E165.576
G1 X99.657 Y180.088 E165.61446
G1 X98.974 Y179.729 E165.65295
G1 X98.224 Y179.544 E165.69149
G1 X97.453 Y179.544 E165.72996
G1 X96.704 Y179.728 E165.76844
G1 X96.021 Y180.086 E165.80691
G1 X95.442 Y180.597 E165.84544
G0 F3600 X95.329 Y180.761
G0 X94.967 Y180.51
G0 X94.748 Y180.898
;TYPE:WALL-INNER
G1 F1800 X94.748 Y180.329 E165.87382
G1 X94.748 Y180.323 E165.87412
G1 X94.748 Y28.221 E173.46252
G1 X94.748 Y28.214 E173.46287
G1 X94.749 Y27.648 E173.49111
G1 X95.14 Y28.214 E173.51022
G1 X95.145 Y28.218 E173.51053
G1 X95.792 Y28.789 E173.55359
G1 X96.56 Y29.192 E173.59686
G1 X97.403 Y29.4 E173.64018
G1 X98.272 Y29.4 E173.68353
G1 X99.115 Y29.192 E173.72685
G1 X99.884 Y28.789 E173.77016
G1 X100.536 Y28.212 E173.8136
G1 X101.028 Y27.497 E173.8569
G1 X101.337 Y26.685 E173.90025
G1 X101.441 Y25.824 E173.94351
G1 X101.348 Y25.012 E173.98429
G1 X101.076 Y24.241 E174.02508
G1 X100.638 Y23.556 E174.06564
G1 X100.191 Y23.11 E174.09714
G1 X100.175 Y23.094 E174.09827
G1 X100.044 Y22.977 E174.10704
G1 X99.628 Y22.715 E174.13156
G1 X100.044 Y22.715 E174.13771
G1 X100.174 Y22.715 E174.14279
G1 X100.198 Y22.715 E174.14396
G1 X114.096 Y22.709 E174.83733
G1 X114.295 Y22.709 E174.84726
G1 X114.295 Y22.908 E174.85369
G1 X114.296 Y185.637 E182.97227
G1 X114.296 Y185.836 E182.9822
G1 X114.097 Y185.836 E182.98862
G1 X100.196 Y185.831 E183.68214
G1 X100.174 Y185.831 E183.68324
G1 X100.043 Y185.83 E183.68978
G1 X99.628 Y185.829 E183.71048
G1 X100.043 Y185.568 E183.72037
G1 X100.174 Y185.451 E183.72774
G1 X100.189 Y185.436 E183.72877
G1 X100.627 Y184.998 E183.75967
G1 X100.729 Y184.854 E183.76848
G1 X101.075 Y184.302 E183.80098
G1 X101.347 Y183.534 E183.84163
G1 X101.441 Y182.72 E183.88251
G1 X101.337 Y181.86 E183.92573
G1 X101.029 Y181.047 E183.9691
G1 X100.536 Y180.332 E184.01243
G1 X99.886 Y179.756 E184.05576
G1 X99.117 Y179.352 E184.0991
G1 X98.273 Y179.144 E184.14246
G1 X97.405 Y179.144 E184.18577
G1 X96.561 Y179.351 E184.22912
G1 X95.793 Y179.754 E184.27239
G1 X95.145 Y180.326 E184.31552
G1 X95.141 Y180.329 E184.31576
G1 X94.748 Y180.898 E184.33502
G0 F3600 X94.777 Y180.803
G0 X95.148 Y179.79
G1 F1800 X95.148 Y179.349 E184.35703
G1 X95.148 Y179.348 E184.35708
G1 X95.149 Y29.196 E191.84819
G1 X95.149 Y29.194 E191.84829
G1 X95.149 Y28.755 E191.87019
G1 X95.479 Y29.046 E191.88213
G1 X95.564 Y29.121 E191.88778
G1 X96.417 Y29.569 E191.93585
G1 X97.354 Y29.8 E191.984
G1 X98.321 Y29.8 E192.03224
G1 X99.258 Y29.569 E192.08039
G1 X100.113 Y29.121 E192.12855
G1 X100.838 Y28.479 E192.17686
G1 X101.385 Y27.684 E192.225
G1 X101.728 Y26.782 E192.27315
G1 X101.844 Y25.825 E192.32124
G1 X101.74 Y24.922 E192.36659
G1 X101.438 Y24.064 E192.41197
G1 X101.054 Y23.464 E192.44751
G1 X100.951 Y23.304 E192.45701
G1 X100.762 Y23.115 E192.47034
G1 X100.95 Y23.115 E192.47171
G1 X101.141 Y23.115 E192.47904
G1 X113.696 Y23.109 E193.10541
G1 X113.895 Y23.109 E193.11534
G1 X113.895 Y23.308 E193.12177
G1 X113.896 Y185.237 E201.20044
G1 X113.896 Y185.436 E201.21036
G1 X113.697 Y185.436 E201.21679
G1 X101.1 Y185.432 E201.84525
G1 X101.062 Y185.432 E201.84715
G1 X100.934 Y185.431 E201.85354
G1 X100.761 Y185.43 E201.86217
G1 X100.934 Y185.257 E201.86682
G1 X101.062 Y185.076 E201.87526
G1 X101.082 Y185.044 E201.87705
G1 X101.437 Y184.477 E201.91043
G1 X101.739 Y183.625 E201.95553
G1 X101.844 Y182.719 E202.00103
G1 X101.728 Y181.764 E202.04903
G1 X101.386 Y180.86 E202.09725
G1 X100.838 Y180.065 E202.14542
G1 X100.115 Y179.424 E202.19362
G1 X99.26 Y178.975 E202.2418
G1 X98.322 Y178.744 E202.29
G1 X97.357 Y178.744 E202.33814
G1 X96.418 Y178.974 E202.38637
G1 X95.565 Y179.422 E202.43444
G1 X95.479 Y179.498 E202.44017
G1 X95.148 Y179.79 E202.45215
G0 F3600 X94.321 Y181.956
G0 X94.612 Y182.616
G0 X94.779 Y184.646
G0 X94.75 Y184.551
G1 F1800 X95.094 Y185.057 E202.48268
G1 X95.141 Y185.101 E202.48589
G1 X95.512 Y185.453 E202.51141
G1 X95.671 Y185.603 E202.52231
G1 X96.052 Y185.827 E202.54436
G1 X95.671 Y185.827 E202.54912
G1 X95.452 Y185.827 E202.55783
G1 X95.22 Y185.827 E202.5694
G1 X94.921 Y185.795 E202.5844
G1 X94.761 Y185.709 E202.59347
G1 X94.751 Y185.661 E202.59591
G1 X94.751 Y185.123 E202.62275
G1 X94.751 Y185.058 E202.62579
G1 X94.75 Y184.551 E202.63587
G0 F3600 X94.779 Y184.646
G0 X94.597 Y182.756
G0 X94.597 Y25.856
G0 X94.778 Y23.899
G0 X94.749 Y23.994
G1 F1800 X94.75 Y23.486 E202.66121
G1 X94.75 Y23.423 E202.66435
