;FLAVOR:Marlin
;TIME:10504
;Filament used: 13.7102m
;Layer height: 0.1
;Generated with Cura_SteamEngine 3.6.0
M140 S60
M105
M190 S60
M104 S210
M105
M109 S210
M82 ;absolute extrusion mode
G21 ;metric values
G90 ;absolute positioning
M82 ;set extruder to absolute mode
M107 ;start with the fan off
G28 X0 Y0 ;move X/Y to min endstops
G28 Z0 ;move Z to min endstops
G1 Z15.0 F9000 ;move the platform down 15mm
G92 E0 ;zero the extruded length
G1 F200 E3 ;extrude 3mm of feed stock
G92 E0 ;zero the extruded length again
G1 F9000
;Put printing message on LCD screen
M117 Printing...
G92 E0
G1 F2520 E-6.2
;LAYER_COUNT:52
;LAYER:0
M107
G0 F3600 X31.085 Y73.44 Z0.3
;TYPE:SKIRT
G1 F2520 E0
G1 F1800 X31.408 Y73.352 E0.0167
G1 X31.75 Y73.344 E0.03377
G1 X35.434 Y73.708 E0.21846
G1 X35.503 Y73.716 E0.22192
G1 X36.878 Y73.922 E0.29129
G1 X189.944 Y91.14 E7.97595
G1 X191.317 Y91.242 E8.04463
G1 X191.388 Y91.249 E8.04819
G1 X195.057 Y91.71 E8.23268
G1 X195.381 Y91.791 E8.24934
G1 X195.676 Y91.946 E8.26597
G1 X195.927 Y92.167 E8.28265
G1 X196.118 Y92.441 E8.29931
G1 X196.211 Y92.659 E8.31114
G1 X196.381 Y93.172 E8.3381
G1 X196.452 Y93.576 E8.35857
G1 X196.466 Y94.125 E8.38596
G1 X196.457 Y94.317 E8.39555
G1 X195.004 Y107.236 E9.04415
G1 X194.928 Y107.562 E9.06085
G1 X194.776 Y107.859 E9.07749
G1 X194.558 Y108.113 E9.09419
G1 X194.287 Y108.307 E9.11082
G1 X193.977 Y108.432 E9.1275
G1 X193.646 Y108.48 E9.14418
G1 X193.457 Y108.471 E9.15362
G1 X29.59 Y90.041 E17.38053
G1 X29.264 Y89.965 E17.39723
G1 X28.967 Y89.813 E17.41387
G1 X28.713 Y89.595 E17.43057
G1 X28.519 Y89.324 E17.4472
G1 X28.394 Y89.014 E17.46387
G1 X28.346 Y88.683 E17.48056
G1 X28.355 Y88.491 E17.49015
G1 X29.859 Y75.295 E18.15276
G1 X30 Y74.823 E18.17734
G1 X30.362 Y74.106 E18.21741
G1 X30.547 Y73.828 E18.23407
G1 X30.793 Y73.602 E18.25074
G1 X31.085 Y73.44 E18.2674
G0 F3600 X31.361 Y73.769
G1 F1800 X31.71 Y73.742 E18.28486
G1 X35.394 Y74.106 E18.46955
G1 X35.444 Y74.112 E18.47206
G1 X36.801 Y74.315 E18.54052
G1 X189.926 Y91.54 E26.22814
G1 X191.287 Y91.641 E26.29623
G1 X191.338 Y91.646 E26.29878
G1 X195.007 Y92.107 E26.48327
G1 X195.279 Y92.181 E26.49733
G1 X195.519 Y92.328 E26.51137
G1 X195.709 Y92.537 E26.52546
G1 X195.831 Y92.784 E26.53921
G1 X196.001 Y93.297 E26.56617
G1 X196.052 Y93.587 E26.58086
G1 X196.066 Y94.136 E26.60826
G1 X196.06 Y94.273 E26.6151
G1 X194.607 Y107.192 E27.2637
G1 X194.536 Y107.465 E27.27777
G1 X194.392 Y107.707 E27.29182
G1 X194.186 Y107.9 E27.3059
G1 X193.934 Y108.027 E27.31998
G1 X193.656 Y108.079 E27.33409
G1 X193.501 Y108.074 E27.34183
G1 X29.634 Y89.644 E35.56873
G1 X29.361 Y89.573 E35.5828
G1 X29.119 Y89.429 E35.59685
G1 X28.926 Y89.223 E35.61094
G1 X28.799 Y88.971 E35.62501
G1 X28.747 Y88.693 E35.63912
G1 X28.752 Y88.537 E35.64691
G1 X30.256 Y75.341 E36.30952
G1 X30.357 Y75.003 E36.32712
G1 X30.719 Y74.286 E36.3672
G1 X30.881 Y74.055 E36.38127
G1 X31.1 Y73.878 E36.39532
G1 X31.361 Y73.769 E36.40943
G0 F3600 X31.394 Y74.178
G1 F1800 X31.671 Y74.14 E36.42338
G1 X35.355 Y74.504 E36.60807
G1 X35.385 Y74.508 E36.60958
G1 X36.753 Y74.713 E36.67859
G1 X189.876 Y91.937 E44.36611
G1 X191.258 Y92.04 E44.43525
G1 X191.288 Y92.043 E44.43675
G1 X194.957 Y92.504 E44.62124
G1 X195.165 Y92.57 E44.63212
G1 X195.335 Y92.706 E44.64299
G1 X195.452 Y92.91 E44.65472
G1 X195.622 Y93.423 E44.68168
G1 X195.652 Y93.597 E44.69049
G1 X195.666 Y94.146 E44.71789
G1 X195.662 Y94.228 E44.72198
G1 X194.209 Y107.147 E45.37058
G1 X194.146 Y107.356 E45.38147
G1 X194.012 Y107.528 E45.39235
G1 X193.825 Y107.641 E45.40325
G1 X193.546 Y107.676 E45.41728
G1 X29.679 Y89.246 E53.64418
G1 X29.47 Y89.183 E53.65507
G1 X29.298 Y89.049 E53.66595
G1 X29.185 Y88.862 E53.67685
G1 X29.15 Y88.582 E53.69093
G1 X30.654 Y75.386 E54.35354
G1 X30.714 Y75.184 E54.36405
G1 X31.076 Y74.467 E54.40412
G1 X31.208 Y74.293 E54.41502
G1 X31.394 Y74.178 E54.42593
G0 F3600 X31.522 Y74.559
G1 F1800 X31.632 Y74.538 E54.43152
G1 X35.316 Y74.902 E54.61621
G1 X35.326 Y74.903 E54.61671
G1 X36.705 Y75.11 E54.68628
G1 X189.84 Y92.335 E62.37439
G1 X189.84 Y92.336 E62.37444
G1 X191.228 Y92.439 E62.44388
G1 X191.238 Y92.44 E62.44438
G1 X194.907 Y92.901 E62.62887
G1 X195.02 Y92.954 E62.6351
G1 X195.072 Y93.036 E62.63994
G1 X195.242 Y93.549 E62.6669
G1 X195.252 Y93.607 E62.66984
G1 X195.266 Y94.156 E62.69724
G1 X195.265 Y94.183 E62.69859
G1 X193.812 Y107.102 E63.34718
G1 X193.76 Y107.216 E63.35343
G1 X193.591 Y107.279 E63.36243
G1 X29.724 Y88.849 E71.58933
G1 X29.61 Y88.797 E71.59558
G1 X29.547 Y88.627 E71.60463
G1 X31.051 Y75.431 E72.26724
G1 X31.071 Y75.364 E72.27073
G1 X31.433 Y74.647 E72.3108
G1 X31.522 Y74.559 E72.31705
G1 F2520 E66.11705
G0 F3600 X30.966 Y74.474
G0 X30.604 Y75.287
G0 X29.024 Y89.225
G0 X30.421 Y114.679
G1 F2520 E72.31705
G1 F1800 X31.834 Y114.741 E72.38761
G1 X186.305 Y114.742 E80.0942
G1 X187.162 Y114.682 E80.13706
G1 X187.309 Y114.68 E80.14439
G1 X190.573 Y114.794 E80.30734
G1 X190.903 Y114.845 E80.32399
G1 X191.325 Y115.044 E80.34727
G1 X191.556 Y115.205 E80.36132
G1 X191.805 Y115.428 E80.378
G1 X192.018 Y115.75 E80.39726
G1 X192.224 Y116.181 E80.42109
G1 X192.331 Y116.498 E80.43778
G1 X192.361 Y116.781 E80.45198
G1 X192.412 Y136.884 E81.45493
G1 X192.373 Y137.216 E81.4716
G1 X192.256 Y137.529 E81.48827
G1 X192.069 Y137.806 E81.50495
G1 X191.822 Y138.03 E81.52158
G1 X191.528 Y138.189 E81.53826
G1 X191.205 Y138.275 E81.55493
G1 X191.012 Y138.288 E81.56458
G1 X26.686 Y138.288 E89.76284
G1 X26.354 Y138.248 E89.77953
G1 X26.042 Y138.131 E89.79615
G1 X25.765 Y137.943 E89.81285
G1 X25.542 Y137.695 E89.82949
G1 X25.383 Y137.401 E89.84617
G1 X25.299 Y137.077 E89.86287
G1 X25.286 Y136.884 E89.87252
G1 X25.337 Y116.784 E90.87531
G1 X25.378 Y116.453 E90.89195
G1 X25.472 Y116.188 E90.90598
G1 X25.677 Y115.756 E90.92984
G1 X25.855 Y115.473 E90.94652
G1 X26.135 Y115.212 E90.96561
G1 X26.369 Y115.047 E90.9799
G1 X26.663 Y114.888 E90.99657
G1 X27.126 Y114.792 E91.02016
G1 X30.31 Y114.679 E91.17911
G1 X30.421 Y114.679 E91.18465
G0 F3600 X30.404 Y115.079
G1 F1800 X31.817 Y115.141 E91.25521
G1 X186.319 Y115.142 E98.96335
G1 X187.19 Y115.081 E99.00691
G1 X187.295 Y115.08 E99.01215
G1 X190.559 Y115.194 E99.17509
G1 X190.837 Y115.243 E99.18917
G1 X191.096 Y115.373 E99.20363
G1 X191.327 Y115.534 E99.21768
G1 X191.533 Y115.726 E99.23173
G1 X191.657 Y115.923 E99.24334
G1 X191.863 Y116.354 E99.26717
G1 X191.948 Y116.623 E99.28125
G1 X191.961 Y116.782 E99.28921
G1 X192.012 Y136.885 E100.29215
G1 X191.973 Y137.165 E100.30626
G1 X191.857 Y137.422 E100.32033
G1 X191.674 Y137.637 E100.33441
G1 X191.439 Y137.792 E100.34846
G1 X191.169 Y137.876 E100.36256
G1 X191.012 Y137.888 E100.37042
G1 X26.686 Y137.888 E108.56868
G1 X26.407 Y137.848 E108.58274
G1 X26.15 Y137.732 E108.59681
G1 X25.935 Y137.549 E108.61089
G1 X25.781 Y137.313 E108.62495
G1 X25.698 Y137.043 E108.63904
G1 X25.686 Y136.885 E108.64695
G1 X25.737 Y116.785 E109.64974
G1 X25.778 Y116.506 E109.66381
G1 X25.834 Y116.359 E109.67166
G1 X26.039 Y115.927 E109.69552
G1 X26.194 Y115.692 E109.70956
G1 X26.366 Y115.539 E109.72105
G1 X26.6 Y115.374 E109.73533
G1 X26.851 Y115.245 E109.74941
G1 X27.141 Y115.192 E109.76412
G1 X30.325 Y115.079 E109.92307
G1 X30.404 Y115.079 E109.92701
G0 F3600 X30.339 Y115.478
G1 F1800 X30.386 Y115.479 E109.92936
G1 X31.799 Y115.541 E109.99992
G1 X186.332 Y115.542 E117.7096
G1 X187.218 Y115.48 E117.75391
G1 X187.281 Y115.479 E117.75706
G1 X190.545 Y115.593 E117.92
G1 X190.758 Y115.64 E117.93088
G1 X190.867 Y115.701 E117.93711
G1 X191.098 Y115.862 E117.95116
G1 X191.296 Y116.095 E117.96641
G1 X191.502 Y116.526 E117.99025
G1 X191.561 Y116.783 E118.0034
G1 X191.612 Y136.886 E119.00635
G1 X191.573 Y137.101 E119.01725
G1 X191.46 Y137.288 E119.02815
G1 X191.287 Y137.421 E119.03904
G1 X191.012 Y137.488 E119.05316
G1 X26.686 Y137.488 E127.25141
G1 X26.471 Y137.448 E127.26232
G1 X26.285 Y137.335 E127.27318
G1 X26.152 Y137.162 E127.28407
G1 X26.086 Y136.886 E127.29823
G1 X26.137 Y116.786 E128.30102
G1 X26.195 Y116.531 E128.31407
G1 X26.4 Y116.099 E128.33793
G1 X26.596 Y115.866 E128.35312
G1 X26.83 Y115.701 E128.3674
G1 X27.028 Y115.609 E128.37829
G1 X27.155 Y115.591 E128.38469
G1 X30.339 Y115.478 E128.54364
G0 F3600 X30.369 Y115.878
G1 F1800 X31.805 Y115.941 E128.61536
G1 X186.346 Y115.942 E136.32544
G1 X187.246 Y115.879 E136.37045
G1 X187.267 Y115.879 E136.3715
G1 X190.531 Y115.993 E136.53444
G1 X190.638 Y116.029 E136.54007
G1 X190.869 Y116.19 E136.55412
G1 X190.935 Y116.268 E136.55921
G1 X191.141 Y116.699 E136.58305
G1 X191.161 Y116.784 E136.5874
G1 X191.212 Y136.887 E137.59035
G1 X191.173 Y137.006 E137.5966
G1 X191.012 Y137.088 E137.60561
G1 X26.686 Y137.088 E145.80387
G1 X26.567 Y137.049 E145.81012
G1 X26.486 Y136.887 E145.81915
G1 X26.537 Y116.787 E146.82195
G1 X26.556 Y116.702 E146.82629
G1 X26.761 Y116.27 E146.85015
G1 X26.827 Y116.193 E146.85521
G1 X27.061 Y116.028 E146.86949
G1 X27.169 Y115.991 E146.87519
G1 X30.353 Y115.878 E147.03414
G1 X30.369 Y115.878 E147.03494
G1 F2520 E140.83494
;MESH:display_cover_r.stl
G0 F3600 X30.392 Y115.414
G0 X32.817 Y89.628
G0 X32.821 Y89.584
G0 X33.641 Y80.866
G0 X33.644 Y80.822
G0 X34.039 Y76.64
G0 X33.732 Y75.829
G0 X33.874 Y75.296
G0 X33.883 Y75.197
;TYPE:WALL-OUTER
G1 F2520 E147.03494
G1 F1800 X34.559 Y75.243 E147.06874
G1 X34.721 Y75.253 E147.07684
G1 X34.799 Y75.259 E147.08074
G1 X35.266 Y75.299 E147.10413
G1 X35.282 Y75.301 E147.10493
G1 X35.82 Y75.381 E147.13207
G1 X35.988 Y75.406 E147.14054
G1 X36.652 Y75.506 E147.17404
G1 X111.694 Y83.942 E150.94148
G1 X189.8 Y92.733 E154.86281
G1 X190.47 Y92.779 E154.89632
G1 X190.639 Y92.79 E154.90477
G1 X190.71 Y92.795 E154.90832
G1 X191.184 Y92.836 E154.93205
G1 X191.198 Y92.838 E154.93276
G1 X191.737 Y92.917 E154.95994
G1 X191.906 Y92.942 E154.96846
G1 X192.568 Y93.041 E155.00186
G1 X193.483 Y93.154 E155.04785
G1 X194.753 Y93.287 E155.11156
G1 X194.855 Y93.65 E155.13037
G1 X194.878 Y93.896 E155.1427
G1 X194.867 Y94.139 E155.15483
G1 X193.436 Y106.859 E155.79344
G1 X29.967 Y88.473 E164.00036
G1 X31.396 Y75.767 E164.63827
G1 X31.444 Y75.503 E164.65165
G1 X31.523 Y75.272 E164.66383
G1 X31.697 Y74.948 E164.68218
G1 X33.883 Y75.197 E164.79195
G0 F3600 X34.082 Y75.21
G0 X34.075 Y75.309
G0 X188.616 Y93.363
G0 X188.951 Y93.734
G1 F1800 X188.379 Y94.252 E164.83045
G1 X187.947 Y94.891 E164.86893
G1 X187.679 Y95.614 E164.9074
G1 X187.593 Y96.381 E164.9459
G1 X187.693 Y97.146 E164.98439
G1 X187.972 Y97.865 E165.02287
G1 X188.416 Y98.496 E165.06136
G1 X188.999 Y99.003 E165.09991
G1 X189.685 Y99.356 E165.1384
G1 X190.437 Y99.534 E165.17695
G1 X191.208 Y99.527 E165.21542
G1 X191.955 Y99.336 E165.25389
G1 X192.635 Y98.972 E165.29237
G1 X193.208 Y98.455 E165.33087
G1 X193.641 Y97.816 E165.36938
G1 X193.909 Y97.093 E165.40785
G1 X193.995 Y96.326 E165.44635
G1 X193.896 Y95.561 E165.48484
G1 X193.617 Y94.842 E165.52332
G1 X193.174 Y94.21 E165.56182
G1 X192.594 Y93.705 E165.60019
G1 X192.09 Y93.426 E165.62893
G1 X191.845 Y93.337 E165.64193
G1 X191.684 Y93.28 E165.65009
G1 X191.151 Y93.171 E165.67398
G1 X190.701 Y93.161 E165.69361
G1 X190.614 Y93.158 E165.69762
G1 X190.446 Y93.178 E165.70573
G1 X190.181 Y93.21 E165.71904
G1 X189.628 Y93.371 E165.74778
G1 X188.951 Y93.734 E165.7861
G0 F3600 X188.803 Y93.868
G0 X188.509 Y93.541
G0 X188.469 Y93.496
G0 X35.238 Y75.596
G0 X34.683 Y75.618
G0 X32.799 Y75.757
G0 X33.034 Y76.198
G1 F1800 X32.462 Y76.716 E165.8246
G1 X32.03 Y77.355 E165.86308
G1 X31.762 Y78.078 E165.90155
G1 X31.676 Y78.846 E165.94011
G1 X31.776 Y79.61 E165.97855
G1 X32.055 Y80.329 E166.01703
G1 X32.499 Y80.961 E166.05556
G1 X33.082 Y81.467 E166.09407
G1 X33.768 Y81.82 E166.13256
G1 X34.52 Y81.998 E166.17112
G1 X35.291 Y81.991 E166.20959
G1 X36.038 Y81.8 E166.24805
G1 X36.718 Y81.436 E166.28653
G1 X37.291 Y80.919 E166.32504
G1 X37.724 Y80.28 E166.36355
G1 X37.992 Y79.557 E166.40201
G1 X38.078 Y78.79 E166.44052
G1 X37.979 Y78.025 E166.479
G1 X37.7 Y77.306 E166.51748
G1 X37.257 Y76.674 E166.55599
G1 X36.677 Y76.169 E166.59435
G1 X36.173 Y75.891 E166.62307
G1 X35.927 Y75.801 E166.63614
G1 X35.767 Y75.744 E166.64425
G1 X35.234 Y75.635 E166.66817
G1 X34.79 Y75.625 E166.68757
G1 X34.697 Y75.622 E166.69186
G1 X34.536 Y75.641 E166.69964
G1 X34.264 Y75.675 E166.71331
G1 X33.711 Y75.835 E166.74204
G1 X33.034 Y76.198 E166.78036
G0 F3600 X32.886 Y76.332
G0 X32.592 Y76.005
G0 X32.552 Y75.96
G0 X34.696 Y75.583
G0 X35.002 Y75.589
G0 X37.129 Y75.991
G0 X37.038 Y75.952
;TYPE:WALL-INNER
G1 F1800 X37.6 Y76.015 E166.80857
G1 X37.607 Y76.015 E166.80892
G1 X111.649 Y84.339 E170.52616
G1 X188.754 Y93.016 E174.39723
G1 X188.762 Y93.017 E174.39763
G1 X189.323 Y93.081 E174.4258
G1 X188.719 Y93.405 E174.44477
G1 X188.713 Y93.411 E174.4452
G1 X188.075 Y93.988 E174.48811
G1 X187.589 Y94.707 E174.53141
G1 X187.287 Y95.521 E174.57472
G1 X187.19 Y96.385 E174.6181
G1 X187.303 Y97.246 E174.66142
G1 X187.617 Y98.055 E174.70472
G1 X188.117 Y98.766 E174.74808
G1 X188.773 Y99.337 E174.79147
G1 X189.545 Y99.734 E174.83478
G1 X190.392 Y99.934 E174.8782
G1 X191.26 Y99.927 E174.92151
G1 X192.101 Y99.712 E174.96482
G1 X192.867 Y99.302 E175.00816
G1 X193.512 Y98.72 E175.0515
G1 X193.581 Y98.618 E175.05765
G1 X193.999 Y98 E175.09487
G1 X194.044 Y97.878 E175.10136
G1 X194.03 Y98.003 E175.10153
G1 X193.947 Y98.745 E175.1221
G1 X193.084 Y106.417 E175.50727
G1 X30.409 Y88.121 E183.67433
G1 X31.272 Y80.449 E184.0595
G1 X31.355 Y79.706 E184.0968
G1 X31.369 Y79.581 E184.10307
G1 X31.386 Y79.71 E184.10347
G1 X31.656 Y80.407 E184.12405
G1 X31.7 Y80.519 E184.13005
G1 X31.929 Y80.846 E184.14997
G1 X32.2 Y81.231 E184.17345
G1 X32.856 Y81.801 E184.21681
G1 X33.628 Y82.198 E184.26012
G1 X34.475 Y82.398 E184.30354
G1 X35.343 Y82.391 E184.34685
G1 X36.184 Y82.176 E184.39015
G1 X36.95 Y81.766 E184.4335
G1 X37.595 Y81.184 E184.47684
G1 X38.082 Y80.464 E184.52021
G1 X38.384 Y79.65 E184.56352
G1 X38.481 Y78.787 E184.60685
G1 X38.369 Y77.926 E184.65017
G1 X38.055 Y77.116 E184.69351
G1 X37.561 Y76.41 E184.7365
G1 X37.557 Y76.404 E184.73686
G1 X37.038 Y75.952 E184.75596
G0 F3600 X37.129 Y75.991
G0 X38.093 Y76.473
G1 F1800 X38.531 Y76.522 E184.77795
G1 X111.604 Y84.736 E188.44653
G1 X187.741 Y93.305 E192.26901
G1 X188.179 Y93.354 E192.29099
G1 X187.853 Y93.649 E192.30291
G1 X187.852 Y93.65 E192.30298
G1 X187.771 Y93.724 E192.30846
G1 X187.231 Y94.523 E192.35657
G1 X186.913 Y95.382 E192.40227
G1 X186.895 Y95.428 E192.40473
G1 X186.787 Y96.389 E192.45298
G1 X186.913 Y97.346 E192.50113
G1 X187.262 Y98.245 E192.54925
G1 X187.818 Y99.036 E192.59748
G1 X188.547 Y99.671 E192.64572
G1 X189.406 Y100.112 E192.69389
G1 X190.347 Y100.334 E192.74212
G1 X191.312 Y100.327 E192.79027
G1 X192.247 Y100.088 E192.83842
G1 X193.053 Y99.657 E192.88402
G1 X193.099 Y99.632 E192.88663
G1 X193.484 Y99.284 E192.91252
G1 X193.441 Y99.669 E192.91977
G1 X193.436 Y99.721 E192.92222
G1 X192.732 Y105.975 E193.2362
G1 X30.851 Y87.769 E201.36339
G1 X31.554 Y81.514 E201.67742
G1 X31.559 Y81.463 E201.67998
G1 X31.603 Y81.076 E201.69941
G1 X31.901 Y81.501 E201.71324
G1 X31.94 Y81.535 E201.71566
G1 X32.63 Y82.135 E201.76128
G1 X33.489 Y82.576 E201.80946
G1 X34.43 Y82.798 E201.85769
G1 X35.395 Y82.791 E201.90584
G1 X36.33 Y82.552 E201.95398
G1 X37.182 Y82.096 E202.0022
G1 X37.899 Y81.448 E202.05041
G1 X38.44 Y80.648 E202.09859
G1 X38.758 Y79.789 E202.14429
G1 X38.776 Y79.743 E202.14676
G1 X38.884 Y78.783 E202.19495
G1 X38.759 Y77.826 E202.2431
G1 X38.41 Y76.926 E202.29126
G1 X38.346 Y76.834 E202.29685
G1 X38.093 Y76.473 E202.30881
G0 F3600 X35.777 Y75.706
G0 X35.341 Y75.617
G0 X33.308 Y75.563
G0 X33.406 Y75.545
G1 F1800 X32.802 Y75.869 E202.34301
G1 X32.796 Y75.875 E202.34343
G1 X32.158 Y76.452 E202.38635
G1 X32.09 Y76.553 E202.39242
G1 X31.672 Y77.171 E202.42964
G1 X31.626 Y77.294 E202.4362
G1 X31.64 Y77.168 E202.43635
G1 X31.723 Y76.427 E202.45693
G1 X31.79 Y75.839 E202.48645
G1 X31.834 Y75.597 E202.49872
G1 X31.89 Y75.433 E202.50737
G1 X31.921 Y75.376 E202.51061
G1 X32.838 Y75.48 E202.55665
G1 X32.846 Y75.481 E202.55705
G1 X33.406 Y75.545 E202.56995
G0 F3600 X33.308 Y75.563
G0 X32.264 Y75.817
G1 F1800 X32.234 Y75.844 E202.57196
G1 X32.189 Y75.885 E202.575
