;FLAVOR:Marlin
;TIME:6049
;Filament used: 12.0821m
;Layer height: 0.3
;Generated with Cura_SteamEngine 3.6.0
M140 S60
M105
M190 S60
M104 S210
M105
M109 S210
M82 ;absolute extrusion mode
G21 ;metric values
G90 ;absolute positioning
M82 ;set extruder to absolute mode
M107 ;start with the fan off
G28 X0 Y0 ;move X/Y to min endstops
G28 Z0 ;move Z to min endstops
G1 Z15.0 F9000 ;move the platform down 15mm
G92 E0 ;zero the extruded length
G1 F200 E3 ;extrude 3mm of feed stock
G92 E0 ;zero the extruded length again
G1 F9000
;Put printing message on LCD screen
M117 Printing...
G92 E0
G1 F2520 E-4.2
;LAYER_COUNT:118
;LAYER:0
M107
G0 F3600 X58.64 Y94.054 Z0.3
;TYPE:SKIRT
G1 F2520 E0
G1 F2400 X58.944 Y93.915 E0.01668
G1 X59.367 Y93.85 E0.03803
G1 X138.908 Y93.85 E4.00634
G1 X139.24 Y93.89 E4.02303
G1 X139.552 Y94.007 E4.03965
G1 X139.615 Y94.053 E4.04354
G1 X139.777 Y93.906 E4.05446
G1 X140.071 Y93.747 E4.07113
G1 X140.394 Y93.663 E4.08778
G1 X140.584 Y93.65 E4.09728
G1 X140.741 Y93.65 E4.10512
G1 X141.073 Y93.69 E4.1218
G1 X141.385 Y93.807 E4.13843
G1 X141.731 Y94.06 E4.15981
G1 X141.965 Y94.294 E4.17632
G1 X142.171 Y94.557 E4.19299
G1 X142.31 Y94.861 E4.20966
G1 X142.375 Y95.284 E4.23101
G1 X142.375 Y107.1 E4.82052
G1 X144.368 Y107.1 E4.91995
G1 X144.368 Y95.05 E5.52113
G1 X144.408 Y94.718 E5.53781
G1 X144.525 Y94.406 E5.55443
G1 X144.713 Y94.129 E5.57113
G1 X144.961 Y93.906 E5.58777
G1 X145.255 Y93.747 E5.60445
G1 X145.579 Y93.663 E5.62115
G1 X145.768 Y93.65 E5.6306
G1 X148.222 Y93.65 E5.75303
G1 X148.554 Y93.69 E5.76971
G1 X148.866 Y93.807 E5.78634
G1 X149.143 Y93.995 E5.80304
G1 X149.366 Y94.243 E5.81968
G1 X149.525 Y94.537 E5.83635
G1 X149.609 Y94.861 E5.85305
G1 X149.622 Y95.05 E5.8625
G1 X149.623 Y124.95 E7.35422
G1 X149.583 Y125.282 E7.37091
G1 X149.466 Y125.594 E7.38753
G1 X149.278 Y125.871 E7.40423
G1 X149.03 Y126.094 E7.42087
G1 X148.736 Y126.253 E7.43755
G1 X148.412 Y126.337 E7.45424
G1 X148.223 Y126.35 E7.4637
G1 X145.768 Y126.35 E7.58618
G1 X145.436 Y126.31 E7.60286
G1 X145.124 Y126.193 E7.61948
G1 X144.847 Y126.005 E7.63619
G1 X144.624 Y125.757 E7.65283
G1 X144.465 Y125.463 E7.6695
G1 X144.381 Y125.139 E7.6862
G1 X144.368 Y124.95 E7.69565
G1 X144.368 Y112.9 E8.29683
G1 X142.375 Y112.9 E8.39626
G1 X142.375 Y124.716 E8.98576
G1 X142.335 Y125.048 E9.00245
G1 X142.218 Y125.36 E9.01907
G1 X141.965 Y125.706 E9.04045
G1 X141.731 Y125.94 E9.05696
G1 X141.468 Y126.146 E9.07363
G1 X141.164 Y126.285 E9.09031
G1 X140.741 Y126.35 E9.11166
G1 X140.589 Y126.35 E9.11924
G1 X140.257 Y126.31 E9.13593
G1 X139.945 Y126.193 E9.15255
G1 X139.668 Y126.005 E9.16925
G1 X139.621 Y125.952 E9.17279
G1 X139.331 Y126.085 E9.1887
G1 X138.908 Y126.15 E9.21005
G1 X59.367 Y126.15 E13.17837
G1 X59.035 Y126.11 E13.19505
G1 X58.723 Y125.993 E13.21168
G1 X58.377 Y125.74 E13.23306
G1 X58.26 Y125.623 E13.24132
G1 X58.054 Y125.36 E13.25798
G1 X57.915 Y125.056 E13.27466
G1 X57.85 Y124.633 E13.29601
G1 X57.85 Y95.367 E14.7561
G1 X57.89 Y95.035 E14.77278
G1 X58.007 Y94.723 E14.78941
G1 X58.26 Y94.377 E14.81079
G1 X58.377 Y94.26 E14.81905
G1 X58.64 Y94.054 E14.83571
G0 F3600 X58.886 Y94.374
G1 F2400 X59.15 Y94.274 E14.8498
G1 X59.367 Y94.25 E14.86069
G1 X138.908 Y94.25 E18.82901
G1 X139.187 Y94.29 E18.84307
G1 X139.444 Y94.406 E18.85714
G1 X139.615 Y94.543 E18.86807
G1 X139.692 Y94.62 E18.8735
G1 X139.74 Y94.514 E18.87931
G1 X139.923 Y94.299 E18.89339
G1 X140.159 Y94.145 E18.90745
G1 X140.429 Y94.062 E18.92154
G1 X140.584 Y94.05 E18.9293
G1 X140.741 Y94.05 E18.93713
G1 X141.02 Y94.09 E18.95119
G1 X141.277 Y94.206 E18.96526
G1 X141.448 Y94.343 E18.97619
G1 X141.682 Y94.577 E18.9927
G1 X141.851 Y94.803 E19.00678
G1 X141.951 Y95.067 E19.02087
G1 X141.975 Y95.284 E19.03176
G1 X141.975 Y107.5 E19.64122
G1 X144.768 Y107.5 E19.78056
G1 X144.768 Y95.05 E20.40169
G1 X144.808 Y94.771 E20.41575
G1 X144.924 Y94.514 E20.42982
G1 X145.107 Y94.299 E20.44391
G1 X145.343 Y94.145 E20.45797
G1 X145.613 Y94.062 E20.47206
G1 X145.768 Y94.05 E20.47982
G1 X148.222 Y94.05 E20.60225
G1 X148.501 Y94.09 E20.61631
G1 X148.758 Y94.206 E20.63037
G1 X148.973 Y94.389 E20.64446
G1 X149.127 Y94.625 E20.65852
G1 X149.21 Y94.895 E20.67261
G1 X149.222 Y95.05 E20.68037
G1 X149.223 Y124.95 E22.17209
G1 X149.183 Y125.229 E22.18615
G1 X149.067 Y125.486 E22.20021
G1 X148.884 Y125.701 E22.2143
G1 X148.648 Y125.855 E22.22836
G1 X148.378 Y125.938 E22.24245
G1 X148.223 Y125.95 E22.25021
G1 X145.768 Y125.95 E22.37269
G1 X145.489 Y125.91 E22.38675
G1 X145.232 Y125.794 E22.40082
G1 X145.017 Y125.611 E22.4149
G1 X144.863 Y125.375 E22.42896
G1 X144.78 Y125.105 E22.44305
G1 X144.768 Y124.95 E22.45081
G1 X144.768 Y112.5 E23.07194
G1 X141.975 Y112.5 E23.21129
G1 X141.975 Y124.716 E23.82075
G1 X141.935 Y124.995 E23.83481
G1 X141.819 Y125.252 E23.84888
G1 X141.682 Y125.423 E23.85981
G1 X141.448 Y125.657 E23.87632
G1 X141.222 Y125.826 E23.8904
G1 X140.958 Y125.926 E23.90448
G1 X140.741 Y125.95 E23.91537
G1 X140.589 Y125.95 E23.92296
G1 X140.31 Y125.91 E23.93702
G1 X140.053 Y125.794 E23.95108
G1 X139.838 Y125.611 E23.96517
G1 X139.689 Y125.383 E23.97876
G1 X139.615 Y125.457 E23.98398
G1 X139.389 Y125.626 E23.99806
G1 X139.125 Y125.726 E24.01214
G1 X138.908 Y125.75 E24.02304
G1 X59.367 Y125.75 E27.99135
G1 X59.088 Y125.71 E28.00541
G1 X58.831 Y125.594 E28.01948
G1 X58.66 Y125.457 E28.03041
G1 X58.543 Y125.34 E28.03867
G1 X58.374 Y125.114 E28.05275
G1 X58.274 Y124.85 E28.06683
G1 X58.25 Y124.633 E28.07772
G1 X58.25 Y95.367 E29.53781
G1 X58.29 Y95.088 E29.55187
G1 X58.406 Y94.831 E29.56594
G1 X58.543 Y94.66 E29.57687
G1 X58.66 Y94.543 E29.58513
G1 X58.886 Y94.374 E29.5992
G0 F3600 X59.122 Y94.702
G1 F2400 X59.367 Y94.65 E29.6117
G1 X138.908 Y94.65 E33.58002
G1 X139.123 Y94.69 E33.59093
G1 X139.332 Y94.826 E33.60337
G1 X139.449 Y94.943 E33.61162
G1 X139.573 Y95.122 E33.62249
G1 X139.625 Y95.367 E33.63498
G1 X139.625 Y124.633 E35.09507
G1 X139.585 Y124.848 E35.10598
G1 X139.449 Y125.057 E35.11842
G1 X139.332 Y125.174 E35.12667
G1 X139.153 Y125.298 E35.13754
G1 X138.908 Y125.35 E35.15003
G1 X59.367 Y125.35 E39.11835
G1 X59.152 Y125.31 E39.12926
G1 X58.943 Y125.174 E39.1417
G1 X58.826 Y125.057 E39.14996
G1 X58.702 Y124.878 E39.16082
G1 X58.65 Y124.633 E39.17331
G1 X58.65 Y95.367 E40.6334
G1 X58.69 Y95.152 E40.64431
G1 X58.826 Y94.943 E40.65675
G1 X58.943 Y94.826 E40.66501
G1 X59.122 Y94.702 E40.67587
G0 F3600 X59.226 Y95.109
G1 F2400 X59.367 Y95.05 E40.6835
G1 X138.908 Y95.05 E44.65181
G1 X139.049 Y95.109 E44.65944
G1 X139.166 Y95.226 E44.66769
G1 X139.225 Y95.367 E44.67532
G1 X139.225 Y124.633 E46.13541
G1 X139.166 Y124.774 E46.14303
G1 X139.049 Y124.891 E46.15129
G1 X138.908 Y124.95 E46.15891
G1 X59.367 Y124.95 E50.12723
G1 X59.226 Y124.891 E50.13485
G1 X59.109 Y124.774 E50.14311
G1 X59.05 Y124.633 E50.15073
G1 X59.05 Y95.367 E51.61082
G1 X59.109 Y95.226 E51.61845
G1 X59.226 Y95.109 E51.6267
G1 F2520 E47.4267
G0 F3600 X59.226 Y94.585
G0 X139.182 Y94.589
G0 X139.984 Y95.05
G1 F2520 E51.6267
G1 F2400 X140.024 Y94.836 E51.63756
G1 X140.137 Y94.649 E51.64846
G1 X140.31 Y94.516 E51.65935
G1 X140.584 Y94.45 E51.67341
G1 X140.741 Y94.45 E51.68124
G1 X140.956 Y94.49 E51.69215
G1 X141.165 Y94.626 E51.70459
G1 X141.399 Y94.86 E51.7211
G1 X141.523 Y95.039 E51.73197
G1 X141.575 Y95.284 E51.74446
G1 X141.575 Y107.9 E52.37388
G1 X145.168 Y107.9 E52.55313
G1 X145.168 Y95.05 E53.19422
G1 X145.208 Y94.835 E53.20513
G1 X145.321 Y94.649 E53.21599
G1 X145.494 Y94.516 E53.22688
G1 X145.768 Y94.45 E53.24094
G1 X148.222 Y94.45 E53.36337
G1 X148.437 Y94.49 E53.37428
G1 X148.623 Y94.603 E53.38514
G1 X148.756 Y94.776 E53.39602
G1 X148.822 Y95.05 E53.41009
G1 X148.823 Y124.95 E54.9018
G1 X148.783 Y125.165 E54.91271
G1 X148.67 Y125.351 E54.92357
G1 X148.497 Y125.484 E54.93446
G1 X148.223 Y125.55 E54.94852
G1 X145.768 Y125.55 E55.071
G1 X145.553 Y125.51 E55.08191
G1 X145.367 Y125.397 E55.09277
G1 X145.234 Y125.224 E55.10365
G1 X145.168 Y124.95 E55.11772
G1 X145.168 Y112.1 E55.7588
G1 X141.575 Y112.1 E55.93806
G1 X141.575 Y124.716 E56.56747
G1 X141.535 Y124.931 E56.57838
G1 X141.399 Y125.14 E56.59083
G1 X141.165 Y125.374 E56.60734
G1 X140.986 Y125.498 E56.6182
G1 X140.741 Y125.55 E56.63069
G1 X140.589 Y125.55 E56.63828
G1 X140.374 Y125.51 E56.64919
G1 X140.188 Y125.397 E56.66005
G1 X140.055 Y125.224 E56.67093
G1 X139.989 Y124.95 E56.68499
G1 X139.984 Y95.05 E58.17671
G0 F3600 X140.384 Y95.05
G1 F2400 X140.423 Y94.931 E58.18296
G1 X140.584 Y94.85 E58.19195
G1 X140.741 Y94.85 E58.19978
G1 X140.882 Y94.909 E58.20741
G1 X141.116 Y95.143 E58.22392
G1 X141.175 Y95.284 E58.23154
G1 X141.175 Y108.136 E58.87273
G1 X141.339 Y108.3 E58.8843
G1 X145.404 Y108.3 E59.08711
G1 X145.568 Y108.136 E59.09868
G1 X145.568 Y95.05 E59.75154
G1 X145.607 Y94.931 E59.75779
G1 X145.768 Y94.85 E59.76678
G1 X148.222 Y94.85 E59.88921
G1 X148.341 Y94.889 E59.89546
G1 X148.422 Y95.05 E59.90445
G1 X148.423 Y124.95 E61.39617
G1 X148.384 Y125.069 E61.40242
G1 X148.223 Y125.15 E61.41141
G1 X145.768 Y125.15 E61.53389
G1 X145.649 Y125.111 E61.54014
G1 X145.568 Y124.95 E61.54913
G1 X145.568 Y111.864 E62.20199
G1 X145.404 Y111.7 E62.21356
G1 X141.339 Y111.7 E62.41636
G1 X141.175 Y111.864 E62.42794
G1 X141.175 Y124.716 E63.06912
G1 X141.116 Y124.857 E63.07675
G1 X140.882 Y125.091 E63.09326
G1 X140.741 Y125.15 E63.10089
G1 X140.589 Y125.15 E63.10847
G1 X140.47 Y125.111 E63.11472
G1 X140.389 Y124.95 E63.12371
G1 X140.384 Y95.05 E64.61543
G0 F3600 X145.968 Y95.25
;TYPE:SUPPORT
G1 F2400 X148.022 Y95.25 E64.7179
G1 X148.023 Y124.75 E66.18966
G1 X145.968 Y124.75 E66.29219
G1 X145.968 Y111.699 E66.9433
G1 X145.569 Y111.3 E66.97145
G1 X141.174 Y111.3 E67.19072
G1 X140.825 Y111.649 E67.21534
G1 X140.825 Y108.351 E67.37988
G1 X141.174 Y108.7 E67.40451
G1 X145.569 Y108.7 E67.62377
G1 X145.968 Y108.301 E67.65193
G1 X145.968 Y95.25 E68.30304
G0 F3600 X146.128 Y100
G1 F2400 X147.863 Y100 E68.3896
G0 F3600 X147.863 Y105
G1 F2400 X146.128 Y105 E68.47616
G0 F3600 X145 Y108.86
G1 F2400 X145 Y111.14 E68.58991
G0 F3600 X147.863 Y110
G1 F2400 X140.985 Y110 E68.93306
G0 F3600 X146.128 Y115
G1 F2400 X147.863 Y115 E69.01962
G0 F3600 X147.863 Y120
G1 F2400 X146.128 Y120 E69.10618
G1 F2520 E64.90618
G0 F3600 X139.653 Y119.077
G0 X139.609 Y119.072
G0 X87.228 Y111.622
G0 X87.184 Y111.617
G0 X86.916 Y111.579
G1 F2520 E69.10618
G1 F2400 X86.388 Y113.085 E69.18579
G1 X85.547 Y114.424 E69.26468
G1 X84.424 Y115.547 E69.34391
G1 X83.085 Y116.388 E69.4228
G1 X81.579 Y116.916 E69.50242
G1 X80 Y117.094 E69.58169
G1 X78.421 Y116.916 E69.66097
G1 X76.915 Y116.388 E69.74059
G1 X75.576 Y115.547 E69.81948
G1 X74.453 Y114.424 E69.89871
G1 X73.612 Y113.085 E69.9776
G1 X73.084 Y111.579 E70.05721
G1 X72.906 Y110 E70.13649
G1 X73.084 Y108.421 E70.21577
G1 X73.612 Y106.915 E70.29538
G1 X74.453 Y105.576 E70.37427
G1 X75.576 Y104.453 E70.4535
G1 X76.915 Y103.612 E70.53239
G1 X78.421 Y103.084 E70.61201
G1 X80 Y102.906 E70.69128
G1 X81.579 Y103.084 E70.77056
G1 X83.085 Y103.612 E70.85018
G1 X84.424 Y104.453 E70.92907
G1 X85.547 Y105.576 E71.0083
G1 X86.388 Y106.915 E71.08719
G1 X86.916 Y108.421 E71.1668
G1 X87.094 Y110 E71.24608
G1 X86.916 Y111.579 E71.32536
G0 F3600 X83.885 Y110.956
G1 F2400 X84.003 Y110 E71.37341
G1 X83.885 Y109.044 E71.42147
G1 X83.539 Y108.14 E71.46976
G1 X82.993 Y107.351 E71.51763
G1 X82.272 Y106.708 E71.56583
G1 X81.42 Y106.26 E71.61385
G1 X80.477 Y106.029 E71.66229
G1 X79.523 Y106.029 E71.70989
G1 X78.58 Y106.26 E71.75832
G1 X77.728 Y106.708 E71.80635
G1 X77.007 Y107.351 E71.85454
G1 X76.461 Y108.14 E71.90241
G1 X76.115 Y109.044 E71.95071
G1 X75.997 Y110 E71.99876
G1 X76.115 Y110.956 E72.04682
G1 X76.461 Y111.86 E72.09511
G1 X77.007 Y112.649 E72.14298
G1 X77.728 Y113.292 E72.19118
G1 X78.58 Y113.74 E72.2392
G1 X79.523 Y113.971 E72.28764
G1 X80.477 Y113.971 E72.33524
G1 X81.42 Y113.74 E72.38367
G1 X82.272 Y113.292 E72.4317
G1 X82.993 Y112.649 E72.47989
G1 X83.539 Y111.86 E72.52776
G1 X83.885 Y110.956 E72.57606
G0 F3600 X84.164 Y110
G1 F2400 X86.933 Y110 E72.7142
G0 F3600 X85 Y105.255
G1 F2400 X85 Y114.745 E73.18766
G0 F3600 X84.745 Y115
G1 F2400 X75.255 Y115 E73.66112
G0 F3600 X75 Y114.745
G1 F2400 X75 Y105.255 E74.13458
G0 F3600 X75.255 Y105
G1 F2400 X84.745 Y105 E74.60803
G0 F3600 X80 Y105.869
G1 F2400 X80 Y103.067 E74.74783
G0 F3600 X75.836 Y110
G1 F2400 X73.067 Y110 E74.88597
G0 F3600 X80 Y114.131
G1 F2400 X80 Y116.933 E75.02576
G1 F2520 E70.82576
;MESH:thingy_attacher_7.stl
G0 F3600 X83.187 Y116.602
G0 X83.733 Y117.752
G0 X138.355 Y124.08
G0 X138.825 Y124.55
;TYPE:WALL-OUTER
G1 F2520 E75.02576
G1 F2400 X59.45 Y124.55 E78.9858
G1 X59.45 Y95.45 E80.4376
G1 X138.825 Y95.45 E84.39764
G1 X138.825 Y124.55 E85.84944
G0 F3600 X138.625 Y124.55
G0 X138.385 Y124.11
G0 X138.325 Y124.11
G0 X78.077 Y118.425
G0 X76.25 Y117.788
G0 X74.612 Y116.758
G0 X73.242 Y115.388
G0 X72.212 Y113.75
G0 X71.639 Y112.106
G0 X71.303 Y109.944
G0 X71.799 Y110
G1 F2400 X72.005 Y111.825 E85.94107
G1 X72.611 Y113.558 E86.03266
G1 X73.588 Y115.113 E86.12429
G1 X74.887 Y116.412 E86.21594
G1 X76.442 Y117.389 E86.30756
G1 X78.175 Y117.995 E86.39915
G1 X80 Y118.201 E86.49078
G1 X81.825 Y117.995 E86.58241
G1 X83.558 Y117.389 E86.674
G1 X85.113 Y116.412 E86.76562
G1 X86.412 Y115.113 E86.85727
G1 X87.389 Y113.558 E86.94889
G1 X87.995 Y111.825 E87.04049
G1 X88.201 Y110 E87.13211
G1 X87.995 Y108.175 E87.22374
G1 X87.389 Y106.442 E87.31534
G1 X86.412 Y104.887 E87.40696
G1 X85.113 Y103.588 E87.49861
G1 X83.558 Y102.611 E87.59023
G1 X81.825 Y102.005 E87.68182
G1 X80 Y101.799 E87.77345
G1 X78.175 Y102.005 E87.86508
G1 X76.442 Y102.611 E87.95667
G1 X74.887 Y103.588 E88.04829
G1 X73.588 Y104.887 E88.13994
G1 X72.611 Y106.442 E88.23157
G1 X72.005 Y108.175 E88.32316
G1 X71.799 Y110 E88.41479
G0 F3600 X71.821 Y110.198
G0 X71.396 Y110
;TYPE:WALL-INNER
G1 F2400 X71.613 Y111.915 E88.51094
G1 X72.248 Y113.733 E88.60701
G1 X73.273 Y115.364 E88.70312
G1 X74.636 Y116.727 E88.79928
G1 X76.267 Y117.752 E88.89539
G1 X78.085 Y118.387 E88.99146
G1 X80 Y118.604 E89.08761
G1 X81.915 Y118.387 E89.18377
G1 X83.733 Y117.752 E89.27984
G1 X85.364 Y116.727 E89.37595
G1 X86.727 Y115.364 E89.47211
G1 X87.752 Y113.733 E89.56822
G1 X88.387 Y111.915 E89.66429
G1 X88.604 Y110 E89.76044
G1 X88.387 Y108.085 E89.85659
G1 X87.752 Y106.267 E89.95267
G1 X86.727 Y104.636 E90.04877
G1 X85.364 Y103.273 E90.14494
G1 X83.733 Y102.248 E90.24105
G1 X81.915 Y101.613 E90.33712
G1 X80 Y101.396 E90.43327
G1 X78.085 Y101.613 E90.52942
G1 X76.267 Y102.248 E90.6255
G1 X74.636 Y103.273 E90.7216
G1 X73.273 Y104.636 E90.81777
G1 X72.248 Y106.267 E90.91387
G1 X71.613 Y108.085 E91.00995
G1 X71.396 Y110 E91.1061
G0 F3600 X70.993 Y110
G1 F2400 X71.221 Y112.005 E91.20677
G1 X71.885 Y113.908 E91.30733
G1 X72.958 Y115.615 E91.40792
G1 X74.385 Y117.042 E91.5086
G1 X76.092 Y118.115 E91.60919
G1 X77.995 Y118.779 E91.70975
G1 X80 Y119.007 E91.81042
G1 X82.005 Y118.779 E91.91109
G1 X83.908 Y118.115 E92.01165
G1 X85.615 Y117.042 E92.11224
G1 X87.042 Y115.615 E92.21292
G1 X88.115 Y113.908 E92.31351
G1 X88.779 Y112.005 E92.41407
G1 X89.007 Y110 E92.51474
G1 X88.779 Y107.995 E92.61542
G1 X88.115 Y106.092 E92.71597
G1 X87.042 Y104.385 E92.81656
G1 X85.615 Y102.958 E92.91724
G1 X83.908 Y101.885 E93.01783
G1 X82.005 Y101.221 E93.11839
G1 X80 Y100.993 E93.21906
G1 X77.995 Y101.221 E93.31974
G1 X76.092 Y101.885 E93.42029
G1 X74.385 Y102.958 E93.52088
G1 X72.958 Y104.385 E93.62156
G1 X71.885 Y106.092 E93.72215
G1 X71.221 Y107.995 E93.82271
G1 X70.993 Y110 E93.92338
G0 F3600 X71.575 Y111.923
G0 X72.212 Y113.75
G0 X73.242 Y115.388
G0 X74.612 Y116.758
G0 X76.25 Y117.788
G0 X78.077 Y118.425
G0 X138.355 Y124.08
G0 X138.425 Y124.15
G1 F2400 X59.85 Y124.15 E97.8435
G1 X59.85 Y95.85 E99.2554
G1 X138.425 Y95.85 E103.17552
G1 X138.425 Y124.15 E104.58741
G0 F3600 X138.025 Y123.75
G1 F2400 X60.25 Y123.75 E108.46762
G1 X60.25 Y96.25 E109.8396
G1 X138.025 Y96.25 E113.71981
G1 X138.025 Y123.75 E115.0918
G0 F3600 X137.635 Y123.36
;TYPE:SKIN
G1 F2400 X60.64 Y123.36 E118.93309
G1 X60.64 Y96.64 E120.26616
G1 X137.635 Y96.64 E124.10745
G1 X137.635 Y123.36 E125.44052
G0 F3600 X89.161 Y112.093
G1 F2400 X89.399 Y110 E125.54561
