;FLAVOR:Marlin
;TIME:13044
;Filament used: 33.5856m
;Layer height: 0.3
;Generated with Cura_SteamEngine 3.6.0
M140 S60
M105
M190 S60
M104 S210
M105
M109 S210
M82 ;absolute extrusion mode
G21 ;metric values
G90 ;absolute positioning
M82 ;set extruder to absolute mode
M107 ;start with the fan off
G28 X0 Y0 ;move X/Y to min endstops
G28 Z0 ;move Z to min endstops
G1 Z15.0 F9000 ;move the platform down 15mm
G92 E0 ;zero the extruded length
G1 F200 E3 ;extrude 3mm of feed stock
G92 E0 ;zero the extruded length again
G1 F9000
;Put printing message on LCD screen
M117 Printing...
G92 E0
G1 F2520 E-6.2
;LAYER_COUNT:31
;LAYER:0
M107
G0 F3600 X27.721 Y47.699 Z0.3
;TYPE:SKIRT
G1 F2520 E0
G1 F2400 X28.015 Y47.54 E0.01668
G1 X28.339 Y47.456 E0.03337
G1 X28.528 Y47.443 E0.04283
G1 X191.471 Y47.444 E8.17208
G1 X191.803 Y47.484 E8.18877
G1 X192.115 Y47.601 E8.20539
G1 X192.392 Y47.789 E8.22209
G1 X192.615 Y48.037 E8.23873
G1 X192.774 Y48.331 E8.25541
G1 X192.858 Y48.655 E8.27211
G1 X192.871 Y48.844 E8.28156
G1 X192.872 Y171.157 E14.38378
G1 X192.832 Y171.489 E14.40046
G1 X192.715 Y171.801 E14.41709
G1 X192.527 Y172.078 E14.43379
G1 X192.279 Y172.301 E14.45043
G1 X191.985 Y172.46 E14.4671
G1 X191.661 Y172.544 E14.4838
G1 X191.472 Y172.557 E14.49325
G1 X28.529 Y172.556 E22.62251
G1 X28.197 Y172.516 E22.6392
G1 X27.885 Y172.399 E22.65582
G1 X27.608 Y172.211 E22.67252
G1 X27.385 Y171.963 E22.68916
G1 X27.226 Y171.669 E22.70584
G1 X27.142 Y171.345 E22.72254
G1 X27.129 Y171.156 E22.73199
G1 X27.128 Y48.843 E28.83421
G1 X27.168 Y48.511 E28.85089
G1 X27.285 Y48.199 E28.86752
G1 X27.473 Y47.922 E28.88422
G1 X27.721 Y47.699 E28.90086
G0 F3600 X27.867 Y48.092
G1 F2400 X28.103 Y47.938 E28.91492
G1 X28.373 Y47.855 E28.92901
G1 X28.528 Y47.843 E28.93676
G1 X191.471 Y47.844 E37.06602
G1 X191.75 Y47.884 E37.08009
G1 X192.007 Y48 E37.09415
G1 X192.222 Y48.183 E37.10824
G1 X192.376 Y48.419 E37.1223
G1 X192.459 Y48.689 E37.13639
G1 X192.471 Y48.844 E37.14415
G1 X192.472 Y171.157 E43.24637
G1 X192.432 Y171.436 E43.26043
G1 X192.316 Y171.693 E43.2745
G1 X192.133 Y171.908 E43.28858
G1 X191.897 Y172.062 E43.30264
G1 X191.627 Y172.145 E43.31673
G1 X191.472 Y172.157 E43.32449
G1 X28.529 Y172.156 E51.45375
G1 X28.25 Y172.116 E51.46781
G1 X27.993 Y172 E51.48188
G1 X27.778 Y171.817 E51.49596
G1 X27.624 Y171.581 E51.51002
G1 X27.541 Y171.311 E51.52411
G1 X27.529 Y171.156 E51.53187
G1 X27.528 Y48.843 E57.63409
G1 X27.568 Y48.564 E57.64815
G1 X27.684 Y48.307 E57.66222
G1 X27.867 Y48.092 E57.67631
G0 F3600 X28.254 Y48.309
G1 F2400 X28.528 Y48.243 E57.69037
G1 X191.471 Y48.244 E65.81963
G1 X191.686 Y48.284 E65.83054
G1 X191.872 Y48.397 E65.84139
G1 X192.005 Y48.57 E65.85228
G1 X192.071 Y48.844 E65.86634
G1 X192.072 Y171.157 E71.96856
G1 X192.032 Y171.372 E71.97947
G1 X191.919 Y171.558 E71.99033
G1 X191.746 Y171.691 E72.00122
G1 X191.472 Y171.757 E72.01528
G1 X28.529 Y171.756 E80.14454
G1 X28.314 Y171.716 E80.15545
G1 X28.128 Y171.603 E80.16631
G1 X27.995 Y171.43 E80.17719
G1 X27.929 Y171.156 E80.19125
G1 X27.928 Y48.843 E86.29347
G1 X27.968 Y48.628 E86.30438
G1 X28.081 Y48.442 E86.31524
G1 X28.254 Y48.309 E86.32613
G0 F3600 X28.367 Y48.724
G1 F2400 X28.528 Y48.643 E86.33512
G1 X191.471 Y48.644 E94.46438
G1 X191.59 Y48.683 E94.47063
G1 X191.671 Y48.844 E94.47962
G1 X191.672 Y171.157 E100.58184
G1 X191.633 Y171.276 E100.58809
G1 X191.472 Y171.357 E100.59708
G1 X28.529 Y171.356 E108.72634
G1 X28.41 Y171.317 E108.73259
G1 X28.329 Y171.156 E108.74158
G1 X28.328 Y48.843 E114.8438
G1 X28.367 Y48.724 E114.85005
;MESH:display_2.stl
G0 F3600 X28.928 Y49.043
;TYPE:WALL-OUTER
G1 F2400 X191.271 Y49.044 E122.94937
G1 X191.272 Y170.757 E129.02166
G1 X191.272 Y170.957 E129.03164
G1 X191.072 Y170.957 E129.0381
G1 X28.729 Y170.956 E137.13742
G1 X28.728 Y49.243 E143.20971
G1 X28.728 Y49.043 E143.21969
G1 X28.928 Y49.043 E143.22615
G0 F3600 X29.128 Y49.043
G0 X29.169 Y49.484
G0 X29.229 Y49.485
G0 X32.163 Y165.265
G0 X31.982 Y165.73
G1 F2400 X31.55 Y165.679 E143.24785
G1 X31.119 Y165.73 E143.2695
G1 X30.712 Y165.885 E143.29123
G1 X30.355 Y166.131 E143.31286
G1 X30.067 Y166.457 E143.33456
G1 X29.866 Y166.842 E143.35623
G1 X29.762 Y167.263 E143.37786
G1 X29.762 Y167.697 E143.39952
G1 X29.866 Y168.118 E143.42115
G1 X30.067 Y168.503 E143.44282
G1 X30.355 Y168.829 E143.46452
G1 X30.712 Y169.075 E143.48615
G1 X31.119 Y169.23 E143.50788
G1 X31.55 Y169.281 E143.52953
G1 X31.981 Y169.23 E143.55118
G1 X32.388 Y169.075 E143.57291
G1 X32.745 Y168.829 E143.59454
G1 X33.033 Y168.503 E143.61624
G1 X33.234 Y168.118 E143.63791
G1 X33.338 Y167.697 E143.65955
G1 X33.338 Y167.263 E143.6812
G1 X33.234 Y166.842 E143.70283
G1 X33.039 Y166.468 E143.72388
G1 X32.756 Y166.143 E143.74538
G1 X32.401 Y165.893 E143.76704
G1 X31.982 Y165.73 E143.78947
G0 F3600 X31.784 Y165.707
G0 X32.08 Y165.339
;TYPE:WALL-INNER
G1 F2400 X31.55 Y165.276 E143.8161
G1 X31.023 Y165.339 E143.84258
G1 X30.525 Y165.528 E143.86915
G1 X30.088 Y165.829 E143.89562
G1 X29.735 Y166.229 E143.92224
G1 X29.525 Y166.629 E143.94478
G1 X29.489 Y166.699 E143.94871
G1 X29.362 Y167.214 E143.97517
G1 X29.362 Y167.746 E144.00171
G1 X29.489 Y168.261 E144.02817
G1 X29.525 Y168.331 E144.0321
G1 X29.735 Y168.731 E144.05464
G1 X30.088 Y169.131 E144.08126
G1 X30.525 Y169.432 E144.10773
G1 X31.023 Y169.621 E144.1343
G1 X31.55 Y169.684 E144.16078
G1 X32.077 Y169.621 E144.18726
G1 X32.575 Y169.432 E144.21384
G1 X33.012 Y169.131 E144.24031
G1 X33.365 Y168.731 E144.26693
G1 X33.611 Y168.261 E144.29339
G1 X33.738 Y167.746 E144.31986
G1 X33.738 Y167.214 E144.3464
G1 X33.611 Y166.7 E144.37281
G1 X33.372 Y166.241 E144.39863
G1 X33.026 Y165.844 E144.4249
G1 X32.591 Y165.538 E144.45144
G1 X32.08 Y165.339 E144.4788
G0 F3600 X32.104 Y165.242
G0 X189.063 Y165.265
G0 X188.882 Y165.73
;TYPE:WALL-OUTER
G1 F2400 X188.45 Y165.679 E144.5005
G1 X188.019 Y165.73 E144.52215
G1 X187.612 Y165.885 E144.54388
G1 X187.255 Y166.131 E144.56551
G1 X186.967 Y166.457 E144.58721
G1 X186.766 Y166.842 E144.60888
G1 X186.662 Y167.263 E144.63051
G1 X186.662 Y167.697 E144.65217
G1 X186.766 Y168.118 E144.6738
G1 X186.967 Y168.503 E144.69547
G1 X187.255 Y168.829 E144.71717
G1 X187.612 Y169.075 E144.7388
G1 X188.019 Y169.23 E144.76053
G1 X188.45 Y169.281 E144.78218
G1 X188.881 Y169.23 E144.80383
G1 X189.288 Y169.075 E144.82556
G1 X189.645 Y168.829 E144.84719
G1 X189.933 Y168.503 E144.86889
G1 X190.134 Y168.118 E144.89056
G1 X190.238 Y167.697 E144.9122
G1 X190.238 Y167.263 E144.93385
G1 X190.134 Y166.842 E144.95548
G1 X189.939 Y166.468 E144.97653
G1 X189.656 Y166.143 E144.99803
G1 X189.301 Y165.893 E145.01969
G1 X188.882 Y165.73 E145.04212
G0 F3600 X188.684 Y165.707
G0 X188.98 Y165.339
;TYPE:WALL-INNER
G1 F2400 X188.45 Y165.276 E145.06875
G1 X187.923 Y165.339 E145.09523
G1 X187.425 Y165.528 E145.1218
G1 X186.988 Y165.829 E145.14827
G1 X186.635 Y166.229 E145.17489
G1 X186.389 Y166.699 E145.20136
G1 X186.262 Y167.214 E145.22782
G1 X186.262 Y167.746 E145.25436
G1 X186.389 Y168.261 E145.28082
G1 X186.635 Y168.731 E145.30729
G1 X186.988 Y169.131 E145.33391
G1 X187.425 Y169.432 E145.36038
G1 X187.923 Y169.621 E145.38695
G1 X188.45 Y169.684 E145.41343
G1 X188.977 Y169.621 E145.43991
G1 X189.475 Y169.432 E145.46649
G1 X189.912 Y169.131 E145.49296
G1 X190.265 Y168.731 E145.51958
G1 X190.475 Y168.331 E145.54212
G1 X190.511 Y168.261 E145.54604
G1 X190.638 Y167.746 E145.57251
G1 X190.638 Y167.214 E145.59905
G1 X190.511 Y166.7 E145.62546
G1 X190.475 Y166.63 E145.62939
G1 X190.272 Y166.241 E145.65128
G1 X189.926 Y165.844 E145.67755
G1 X189.491 Y165.538 E145.70409
G1 X188.98 Y165.339 E145.73145
G0 F3600 X189.004 Y165.242
G0 X190.677 Y52.25
G0 X190.548 Y51.726
G0 X190.305 Y51.259
G0 X189.952 Y50.855
G0 X189.063 Y50.305
G0 X188.882 Y50.77
;TYPE:WALL-OUTER
G1 F2400 X188.45 Y50.719 E145.75315
G1 X188.019 Y50.77 E145.7748
G1 X187.612 Y50.925 E145.79653
G1 X187.255 Y51.171 E145.81816
G1 X186.967 Y51.497 E145.83986
G1 X186.766 Y51.882 E145.86153
G1 X186.662 Y52.303 E145.88316
G1 X186.662 Y52.737 E145.90482
G1 X186.766 Y53.158 E145.92645
G1 X186.967 Y53.543 E145.94812
G1 X187.255 Y53.869 E145.96982
G1 X187.612 Y54.115 E145.99145
G1 X188.019 Y54.27 E146.01318
G1 X188.45 Y54.321 E146.03483
G1 X188.881 Y54.27 E146.05648
G1 X189.288 Y54.115 E146.07821
G1 X189.645 Y53.869 E146.09984
G1 X189.933 Y53.543 E146.12154
G1 X190.134 Y53.158 E146.14321
G1 X190.238 Y52.737 E146.16485
G1 X190.238 Y52.303 E146.1865
G1 X190.134 Y51.882 E146.20813
G1 X189.939 Y51.508 E146.22918
G1 X189.656 Y51.183 E146.25068
G1 X189.301 Y50.933 E146.27234
G1 X188.882 Y50.77 E146.29477
G0 F3600 X188.684 Y50.747
G0 X188.98 Y50.379
;TYPE:WALL-INNER
G1 F2400 X188.45 Y50.316 E146.3214
G1 X187.923 Y50.379 E146.34788
G1 X187.425 Y50.568 E146.37445
G1 X186.988 Y50.869 E146.40092
G1 X186.635 Y51.269 E146.42754
G1 X186.389 Y51.739 E146.45401
G1 X186.262 Y52.254 E146.48047
G1 X186.262 Y52.786 E146.50701
G1 X186.389 Y53.301 E146.53347
G1 X186.635 Y53.771 E146.55994
G1 X186.988 Y54.171 E146.58656
G1 X187.425 Y54.472 E146.61303
G1 X187.923 Y54.661 E146.6396
G1 X188.45 Y54.724 E146.66608
G1 X188.977 Y54.661 E146.69256
G1 X189.475 Y54.472 E146.71914
G1 X189.912 Y54.171 E146.74561
G1 X190.265 Y53.771 E146.77223
G1 X190.475 Y53.371 E146.79477
G1 X190.511 Y53.301 E146.79869
G1 X190.638 Y52.786 E146.82516
G1 X190.638 Y52.254 E146.8517
G1 X190.511 Y51.74 E146.87811
G1 X190.475 Y51.67 E146.88204
G1 X190.272 Y51.281 E146.90393
G1 X189.926 Y50.884 E146.9302
G1 X189.491 Y50.578 E146.95674
G1 X188.98 Y50.379 E146.9841
G0 F3600 X189.004 Y50.282
G0 X187.914 Y50.341
G0 X187.407 Y50.533
G0 X187.155 Y50.706
G0 X131.855 Y102.832
G0 X132.031 Y103.299
;TYPE:WALL-OUTER
G1 F2400 X131.636 Y103.45 E147.00519
G1 X131.288 Y103.689 E147.02626
G1 X131.008 Y104.006 E147.04736
G1 X130.813 Y104.378 E147.06831
G1 X130.711 Y104.789 E147.08944
G1 X130.711 Y105.211 E147.11049
G1 X130.813 Y105.621 E147.13157
G1 X131.008 Y105.995 E147.15261
G1 X131.289 Y106.311 E147.17371
G1 X131.636 Y106.55 E147.19473
G1 X132.031 Y106.701 E147.21583
G1 X132.45 Y106.751 E147.23688
G1 X132.869 Y106.701 E147.25793
G1 X133.264 Y106.55 E147.27903
G1 X133.611 Y106.311 E147.30005
G1 X133.892 Y105.995 E147.32115
G1 X134.087 Y105.621 E147.34219
G1 X134.189 Y105.211 E147.36327
G1 X134.189 Y104.789 E147.38432
G1 X134.087 Y104.378 E147.40545
G1 X133.892 Y104.006 E147.4264
G1 X133.612 Y103.689 E147.44751
G1 X133.264 Y103.45 E147.46857
G1 X132.869 Y103.299 E147.48966
G1 X132.45 Y103.249 E147.51072
G1 X132.031 Y103.299 E147.53177
G0 F3600 X131.844 Y103.37
G0 X131.934 Y102.908
;TYPE:WALL-INNER
G1 F2400 X131.449 Y103.093 E147.55767
G1 X131.021 Y103.387 E147.58357
G1 X130.676 Y103.777 E147.60955
G1 X130.436 Y104.235 E147.63535
G1 X130.311 Y104.74 E147.6613
G1 X130.311 Y105.26 E147.68724
G1 X130.436 Y105.764 E147.71315
G1 X130.676 Y106.224 E147.73904
G1 X131.022 Y106.613 E147.76501
G1 X131.448 Y106.907 E147.79083
G1 X131.934 Y107.092 E147.81678
G1 X132.45 Y107.154 E147.84271
G1 X132.966 Y107.092 E147.86863
G1 X133.452 Y106.907 E147.89458
G1 X133.878 Y106.613 E147.9204
G1 X134.224 Y106.224 E147.94637
G1 X134.464 Y105.764 E147.97226
G1 X134.589 Y105.26 E147.99817
G1 X134.589 Y104.74 E148.02411
G1 X134.464 Y104.235 E148.05006
G1 X134.224 Y103.777 E148.07586
G1 X133.879 Y103.387 E148.10184
G1 X133.451 Y103.093 E148.12774
G1 X132.966 Y102.908 E148.15364
G1 X132.45 Y102.846 E148.17957
G1 X131.934 Y102.908 E148.2055
G0 F3600 X131.837 Y102.517
G1 F2400 X131.262 Y102.736 E148.2362
G1 X130.754 Y103.085 E148.26694
G1 X130.344 Y103.548 E148.2978
G1 X130.059 Y104.092 E148.32844
G1 X129.911 Y104.691 E148.35922
G1 X129.911 Y105.309 E148.39005
G1 X130.059 Y105.907 E148.42079
G1 X130.344 Y106.453 E148.45152
G1 X130.755 Y106.915 E148.48236
G1 X131.261 Y107.264 E148.51303
G1 X131.838 Y107.483 E148.54382
G1 X132.45 Y107.557 E148.57458
G1 X133.062 Y107.483 E148.60533
G1 X133.639 Y107.264 E148.63612
G1 X134.145 Y106.915 E148.66679
G1 X134.556 Y106.453 E148.69764
G1 X134.841 Y105.907 E148.72837
G1 X134.989 Y105.309 E148.7591
G1 X134.989 Y104.691 E148.78993
G1 X134.841 Y104.092 E148.82072
G1 X134.556 Y103.548 E148.85136
G1 X134.146 Y103.085 E148.88221
G1 X133.638 Y102.736 E148.91296
G1 X133.063 Y102.517 E148.94366
G1 X132.45 Y102.443 E148.97446
G1 X131.837 Y102.517 E149.00527
G0 F3600 X141.855 Y102.832
G0 X142.031 Y103.299
;TYPE:WALL-OUTER
G1 F2400 X141.636 Y103.45 E149.02636
G1 X141.288 Y103.689 E149.04743
G1 X141.008 Y104.006 E149.06853
G1 X140.813 Y104.378 E149.08948
G1 X140.711 Y104.789 E149.11061
G1 X140.711 Y105.211 E149.13166
G1 X140.813 Y105.621 E149.15274
G1 X141.008 Y105.995 E149.17378
G1 X141.289 Y106.311 E149.19488
G1 X141.636 Y106.55 E149.2159
G1 X142.031 Y106.701 E149.237
G1 X142.45 Y106.751 E149.25805
G1 X142.869 Y106.701 E149.2791
G1 X143.264 Y106.55 E149.3002
G1 X143.611 Y106.311 E149.32122
G1 X143.892 Y105.995 E149.34232
G1 X144.087 Y105.621 E149.36336
G1 X144.189 Y105.211 E149.38444
G1 X144.189 Y104.789 E149.40549
G1 X144.087 Y104.378 E149.42662
G1 X143.892 Y104.006 E149.44757
G1 X143.612 Y103.689 E149.46868
G1 X143.264 Y103.45 E149.48974
G1 X142.869 Y103.299 E149.51083
G1 X142.45 Y103.249 E149.53189
G1 X142.031 Y103.299 E149.55294
G0 F3600 X141.844 Y103.37
G0 X141.934 Y102.908
;TYPE:WALL-INNER
G1 F2400 X141.449 Y103.093 E149.57884
G1 X141.021 Y103.387 E149.60474
G1 X140.676 Y103.777 E149.63072
G1 X140.436 Y104.235 E149.65652
G1 X140.311 Y104.74 E149.68247
G1 X140.311 Y105.26 E149.70841
G1 X140.436 Y105.764 E149.73432
G1 X140.676 Y106.224 E149.76021
G1 X141.022 Y106.613 E149.78618
G1 X141.448 Y106.907 E149.812
G1 X141.934 Y107.092 E149.83795
G1 X142.45 Y107.154 E149.86388
G1 X142.966 Y107.092 E149.8898
G1 X143.452 Y106.907 E149.91575
G1 X143.878 Y106.613 E149.94157
G1 X144.224 Y106.224 E149.96754
G1 X144.464 Y105.764 E149.99343
G1 X144.589 Y105.26 E150.01934
G1 X144.589 Y104.74 E150.04528
G1 X144.464 Y104.235 E150.07123
G1 X144.224 Y103.777 E150.09703
G1 X143.879 Y103.387 E150.12301
G1 X143.451 Y103.093 E150.14891
G1 X142.966 Y102.908 E150.17481
G1 X142.45 Y102.846 E150.20074
G1 X141.934 Y102.908 E150.22667
G0 F3600 X141.837 Y102.517
G1 F2400 X141.262 Y102.736 E150.25737
G1 X140.754 Y103.085 E150.28811
G1 X140.344 Y103.548 E150.31897
G1 X140.059 Y104.092 E150.34961
G1 X139.911 Y104.691 E150.38039
G1 X139.911 Y105.309 E150.41122
G1 X140.059 Y105.907 E150.44196
G1 X140.344 Y106.453 E150.47269
G1 X140.755 Y106.915 E150.50354
G1 X141.261 Y107.264 E150.5342
G1 X141.838 Y107.483 E150.56499
G1 X142.45 Y107.557 E150.59575
G1 X143.062 Y107.483 E150.6265
G1 X143.639 Y107.264 E150.65729
G1 X144.145 Y106.915 E150.68796
G1 X144.556 Y106.453 E150.71881
G1 X144.841 Y105.907 E150.74954
G1 X144.989 Y105.309 E150.78027
G1 X144.989 Y104.691 E150.8111
G1 X144.841 Y104.092 E150.84189
G1 X144.556 Y103.548 E150.87253
G1 X144.146 Y103.085 E150.90338
G1 X143.638 Y102.736 E150.93413
G1 X143.063 Y102.517 E150.96483
G1 X142.45 Y102.443 E150.99563
G1 X141.837 Y102.517 E151.02644
G0 F3600 X151.855 Y102.832
G0 X152.031 Y103.299
;TYPE:WALL-OUTER
G1 F2400 X151.636 Y103.45 E151.04753
G1 X151.288 Y103.689 E151.0686
G1 X151.008 Y104.006 E151.0897
G1 X150.813 Y104.378 E151.11065
G1 X150.711 Y104.789 E151.13178
G1 X150.711 Y105.211 E151.15283
G1 X150.813 Y105.621 E151.17391
G1 X151.008 Y105.995 E151.19495
G1 X151.289 Y106.311 E151.21605
G1 X151.636 Y106.55 E151.23707
G1 X152.031 Y106.701 E151.25817
G1 X152.45 Y106.751 E151.27922
G1 X152.869 Y106.701 E151.30027
G1 X153.264 Y106.55 E151.32137
G1 X153.611 Y106.311 E151.34239
G1 X153.892 Y105.995 E151.36349
G1 X154.087 Y105.621 E151.38453
G1 X154.189 Y105.211 E151.40561
G1 X154.189 Y104.789 E151.42666
G1 X154.087 Y104.378 E151.44779
G1 X153.892 Y104.006 E151.46874
G1 X153.612 Y103.689 E151.48985
G1 X153.264 Y103.45 E151.51091
G1 X152.869 Y103.299 E151.532
G1 X152.45 Y103.249 E151.55306
G1 X152.031 Y103.299 E151.57411
G0 F3600 X151.844 Y103.37
G0 X151.934 Y102.908
;TYPE:WALL-INNER
G1 F2400 X151.449 Y103.093 E151.60001
G1 X151.021 Y103.387 E151.62591
G1 X150.676 Y103.777 E151.65189
G1 X150.436 Y104.235 E151.67769
G1 X150.311 Y104.74 E151.70364
G1 X150.311 Y105.26 E151.72958
G1 X150.436 Y105.764 E151.75549
