;FLAVOR:Marlin
;TIME:2115
;Filament used: 1.28563m
;Layer height: 0.1
;Generated with Cura_SteamEngine 3.6.0
M140 S60
M105
M190 S60
M104 S210
M105
M109 S210
M82 ;absolute extrusion mode
G21 ;metric values
G90 ;absolute positioning
M82 ;set extruder to absolute mode
M107 ;start with the fan off
G28 X0 Y0 ;move X/Y to min endstops
G28 Z0 ;move Z to min endstops
G1 Z15.0 F9000 ;move the platform down 15mm
G92 E0 ;zero the extruded length
G1 F200 E3 ;extrude 3mm of feed stock
G92 E0 ;zero the extruded length again
G1 F9000
;Put printing message on LCD screen
M117 Printing...
G92 E0
G1 F2520 E-4.2
;LAYER_COUNT:105
;LAYER:0
M107
G0 F3600 X103.523 Y99.191 Z0.3
;TYPE:SKIRT
G1 F2520 E0
G1 F1260 X103.664 Y99.06 E0.0096
G1 X104.509 Y98.374 E0.0639
G1 X104.665 Y98.264 E0.07343
G1 X105.601 Y97.696 E0.12805
G1 X105.77 Y97.609 E0.13753
G1 X106.766 Y97.177 E0.1917
G1 X106.949 Y97.112 E0.20138
G1 X108.027 Y96.813 E0.2572
G1 X108.213 Y96.775 E0.26667
G1 X109.26 Y96.633 E0.31938
G1 X109.445 Y96.62 E0.32863
G1 X110.515 Y96.618 E0.38202
G1 X110.704 Y96.63 E0.39146
G1 X111.809 Y96.778 E0.44708
G1 X112.002 Y96.818 E0.45692
G1 X113.069 Y97.118 E0.51222
G1 X113.25 Y97.183 E0.52181
G1 X114.243 Y97.616 E0.57586
G1 X114.412 Y97.703 E0.58534
G1 X115.349 Y98.274 E0.64008
G1 X115.504 Y98.384 E0.64956
G1 X116.346 Y99.069 E0.70372
G1 X116.486 Y99.2 E0.71328
G1 X117.239 Y100.007 E0.76835
G1 X117.361 Y100.158 E0.77803
G1 X117.979 Y101.039 E0.83172
G1 X118.076 Y101.199 E0.84106
G1 X118.584 Y102.18 E0.89617
G1 X118.66 Y102.356 E0.90574
G1 X119.021 Y103.374 E0.95962
G1 X119.073 Y103.558 E0.96916
G1 X119.296 Y104.634 E1.02399
G1 X119.322 Y104.821 E1.03341
G1 X119.397 Y105.906 E1.08767
G1 X119.4 Y106.003 E1.09251
G1 X119.4 Y113.996 E1.49128
G1 X119.397 Y114.092 E1.49607
G1 X119.322 Y115.182 E1.55058
G1 X119.296 Y115.369 E1.56
G1 X119.079 Y116.42 E1.61354
G1 X119.029 Y116.602 E1.62296
G1 X118.669 Y117.625 E1.67706
G1 X118.594 Y117.797 E1.68642
G1 X118.102 Y118.759 E1.74033
G1 X118.005 Y118.922 E1.74979
G1 X117.39 Y119.805 E1.80348
G1 X117.272 Y119.952 E1.81288
G1 X116.543 Y120.745 E1.86662
G1 X116.405 Y120.876 E1.87612
G1 X115.573 Y121.565 E1.93001
G1 X115.421 Y121.675 E1.93937
G1 X114.496 Y122.252 E1.99376
G1 X114.316 Y122.347 E2.00392
G1 X113.32 Y122.783 E2.05816
G1 X113.001 Y122.879 E2.07478
G1 X112.756 Y122.9 E2.08705
G1 X107.182 Y122.887 E2.36514
G1 X106.85 Y122.846 E2.38183
G1 X106.609 Y122.763 E2.39454
G1 X105.657 Y122.333 E2.44666
G1 X105.491 Y122.244 E2.45605
G1 X104.567 Y121.666 E2.51043
G1 X104.414 Y121.555 E2.51986
G1 X103.583 Y120.864 E2.57378
G1 X103.446 Y120.734 E2.5832
G1 X102.719 Y119.941 E2.63687
G1 X102.601 Y119.793 E2.64632
G1 X101.987 Y118.908 E2.70006
G1 X101.89 Y118.745 E2.70952
G1 X101.4 Y117.783 E2.76338
G1 X101.326 Y117.611 E2.77272
G1 X100.967 Y116.587 E2.82686
G1 X100.916 Y116.404 E2.83634
G1 X100.701 Y115.352 E2.88991
G1 X100.676 Y115.167 E2.89922
G1 X100.603 Y114.092 E2.95297
G1 X100.6 Y113.997 E2.95772
G1 X100.6 Y106.004 E3.35649
G1 X100.603 Y105.906 E3.36138
G1 X100.68 Y104.806 E3.41639
G1 X100.706 Y104.619 E3.42581
G1 X100.929 Y103.546 E3.48049
G1 X100.981 Y103.361 E3.49008
G1 X101.344 Y102.343 E3.544
G1 X101.421 Y102.167 E3.55358
G1 X101.93 Y101.188 E3.60863
G1 X102.028 Y101.027 E3.61803
G1 X102.65 Y100.145 E3.67188
G1 X102.771 Y99.996 E3.68146
G1 X103.523 Y99.191 E3.73641
G0 F3600 X103.815 Y99.464
G1 F1260 X103.916 Y99.371 E3.74326
G1 X104.761 Y98.685 E3.79756
G1 X104.872 Y98.606 E3.80436
G1 X105.808 Y98.038 E3.85898
G1 X105.929 Y97.976 E3.86577
G1 X106.925 Y97.544 E3.91993
G1 X107.056 Y97.497 E3.92687
G1 X108.134 Y97.198 E3.98269
G1 X108.267 Y97.171 E3.98946
G1 X109.314 Y97.029 E4.04217
G1 X109.446 Y97.02 E4.04877
G1 X110.516 Y97.018 E4.10215
G1 X110.651 Y97.027 E4.1089
G1 X111.756 Y97.175 E4.16453
G1 X111.894 Y97.203 E4.17155
G1 X112.961 Y97.503 E4.22685
G1 X113.09 Y97.549 E4.23368
G1 X114.083 Y97.982 E4.28773
G1 X114.203 Y98.045 E4.29449
G1 X115.14 Y98.616 E4.34923
G1 X115.251 Y98.694 E4.356
G1 X116.093 Y99.379 E4.41015
G1 X116.193 Y99.473 E4.417
G1 X116.946 Y100.28 E4.47207
G1 X117.034 Y100.388 E4.47902
G1 X117.652 Y101.269 E4.53271
G1 X117.721 Y101.383 E4.53935
G1 X118.229 Y102.364 E4.59447
G1 X118.283 Y102.49 E4.60131
G1 X118.644 Y103.508 E4.65519
G1 X118.681 Y103.639 E4.66199
G1 X118.904 Y104.715 E4.71681
G1 X118.923 Y104.849 E4.72356
G1 X118.998 Y105.934 E4.77782
G1 X119 Y106.003 E4.78126
G1 X119 Y113.996 E5.18004
G1 X118.998 Y114.065 E5.18348
G1 X118.923 Y115.155 E5.23799
G1 X118.904 Y115.288 E5.24469
G1 X118.687 Y116.339 E5.29823
G1 X118.651 Y116.469 E5.30496
G1 X118.291 Y117.492 E5.35907
G1 X118.238 Y117.615 E5.36575
G1 X117.746 Y118.577 E5.41966
G1 X117.677 Y118.694 E5.42643
G1 X117.062 Y119.577 E5.48012
G1 X116.977 Y119.682 E5.48686
G1 X116.248 Y120.475 E5.5406
G1 X116.15 Y120.568 E5.54734
G1 X115.318 Y121.257 E5.60123
G1 X115.209 Y121.335 E5.60792
G1 X114.284 Y121.912 E5.66231
G1 X114.156 Y121.98 E5.66954
G1 X113.16 Y122.416 E5.72379
G1 X112.757 Y122.5 E5.74432
G1 X107.183 Y122.487 E6.02241
G1 X106.773 Y122.398 E6.04334
G1 X105.821 Y121.968 E6.09546
G1 X105.703 Y121.905 E6.10213
G1 X104.779 Y121.327 E6.15651
G1 X104.67 Y121.248 E6.16322
G1 X103.839 Y120.557 E6.21714
G1 X103.741 Y120.464 E6.22388
G1 X103.014 Y119.671 E6.27756
G1 X102.929 Y119.565 E6.28433
G1 X102.315 Y118.68 E6.33807
G1 X102.246 Y118.564 E6.34481
G1 X101.756 Y117.602 E6.39867
G1 X101.703 Y117.479 E6.40535
G1 X101.344 Y116.455 E6.45949
G1 X101.308 Y116.324 E6.46626
G1 X101.093 Y115.272 E6.51983
G1 X101.075 Y115.14 E6.52648
G1 X101.002 Y114.065 E6.58024
G1 X101 Y113.997 E6.58363
G1 X101 Y106.004 E6.9824
G1 X101.002 Y105.934 E6.9859
G1 X101.079 Y104.834 E7.04091
G1 X101.098 Y104.701 E7.04761
G1 X101.321 Y103.628 E7.10229
G1 X101.358 Y103.495 E7.10918
G1 X101.721 Y102.477 E7.1631
G1 X101.776 Y102.352 E7.16991
G1 X102.285 Y101.373 E7.22496
G1 X102.355 Y101.258 E7.23168
G1 X102.977 Y100.376 E7.28552
G1 X103.063 Y100.269 E7.29237
G1 X103.815 Y99.464 E7.34733
G0 F3600 X104.108 Y99.737
G1 F1260 X104.168 Y99.681 E7.35142
G1 X105.013 Y98.995 E7.40572
G1 X105.08 Y98.948 E7.40981
G1 X106.016 Y98.38 E7.46443
G1 X106.088 Y98.343 E7.46847
G1 X107.084 Y97.911 E7.52263
G1 X107.163 Y97.883 E7.52681
G1 X108.241 Y97.584 E7.58263
G1 X108.32 Y97.567 E7.58666
G1 X109.367 Y97.425 E7.63937
G1 X109.447 Y97.42 E7.64337
G1 X110.517 Y97.418 E7.69675
G1 X110.598 Y97.423 E7.7008
G1 X111.703 Y97.571 E7.75642
G1 X111.785 Y97.588 E7.7606
G1 X112.852 Y97.888 E7.8159
G1 X112.93 Y97.916 E7.82003
G1 X113.923 Y98.349 E7.87408
G1 X113.995 Y98.387 E7.87814
G1 X114.932 Y98.958 E7.93288
G1 X114.999 Y99.005 E7.93696
G1 X115.841 Y99.69 E7.99112
G1 X115.901 Y99.746 E7.99521
G1 X116.654 Y100.553 E8.05028
G1 X116.706 Y100.617 E8.05439
G1 X117.324 Y101.498 E8.10808
G1 X117.366 Y101.567 E8.11211
G1 X117.874 Y102.548 E8.16723
G1 X117.906 Y102.623 E8.17129
G1 X118.267 Y103.641 E8.22518
G1 X118.29 Y103.72 E8.22929
G1 X118.513 Y104.796 E8.28411
G1 X118.524 Y104.877 E8.28819
G1 X118.599 Y105.962 E8.34245
G1 X118.6 Y106.003 E8.34449
G1 X118.6 Y113.996 E8.74327
G1 X118.599 Y114.037 E8.74531
G1 X118.524 Y115.127 E8.79982
G1 X118.513 Y115.207 E8.80385
G1 X118.296 Y116.258 E8.85739
G1 X118.274 Y116.336 E8.86143
G1 X117.914 Y117.359 E8.91554
G1 X117.882 Y117.433 E8.91956
G1 X117.39 Y118.395 E8.97347
G1 X117.348 Y118.465 E8.97754
G1 X116.733 Y119.348 E9.03123
G1 X116.683 Y119.411 E9.03524
G1 X115.954 Y120.204 E9.08898
G1 X115.895 Y120.26 E9.09304
G1 X115.063 Y120.949 E9.14693
G1 X114.998 Y120.996 E9.15093
G1 X114.073 Y121.573 E9.20532
G1 X113.996 Y121.614 E9.20968
G1 X113 Y122.05 E9.26392
G1 X112.758 Y122.1 E9.27625
G1 X107.184 Y122.087 E9.55434
G1 X106.938 Y122.034 E9.56689
G1 X105.986 Y121.604 E9.61901
G1 X105.915 Y121.566 E9.62302
G1 X104.991 Y120.988 E9.6774
G1 X104.925 Y120.94 E9.68147
G1 X104.094 Y120.249 E9.73539
G1 X104.036 Y120.193 E9.73941
G1 X103.309 Y119.4 E9.79309
G1 X103.258 Y119.337 E9.79713
G1 X102.644 Y118.452 E9.85087
G1 X102.602 Y118.382 E9.85494
G1 X102.112 Y117.42 E9.9088
G1 X102.081 Y117.347 E9.91276
G1 X101.722 Y116.323 E9.96689
G1 X101.7 Y116.244 E9.97099
G1 X101.485 Y115.192 E10.02456
G1 X101.474 Y115.113 E10.02853
G1 X101.401 Y114.038 E10.08229
G1 X101.4 Y113.997 E10.08434
G1 X101.4 Y106.004 E10.48311
G1 X101.401 Y105.962 E10.4852
G1 X101.478 Y104.862 E10.54022
G1 X101.49 Y104.782 E10.54425
G1 X101.713 Y103.709 E10.59893
G1 X101.735 Y103.629 E10.60307
G1 X102.098 Y102.611 E10.65699
G1 X102.131 Y102.536 E10.66108
G1 X102.64 Y101.557 E10.71613
G1 X102.682 Y101.488 E10.72016
G1 X103.304 Y100.606 E10.774
G1 X103.356 Y100.542 E10.77812
G1 X104.108 Y99.737 E10.83308
G0 F3600 X104.4 Y100.01
G1 F1260 X104.42 Y99.992 E10.83442
G1 X105.265 Y99.306 E10.88872
G1 X105.287 Y99.29 E10.89008
G1 X106.223 Y98.722 E10.9447
G1 X106.247 Y98.71 E10.94604
G1 X107.243 Y98.278 E11.0002
G1 X107.27 Y98.268 E11.00164
G1 X108.348 Y97.969 E11.05745
G1 X108.374 Y97.964 E11.05877
G1 X109.421 Y97.822 E11.11148
G1 X109.448 Y97.82 E11.11283
G1 X110.518 Y97.818 E11.16622
G1 X110.545 Y97.82 E11.16757
G1 X111.65 Y97.968 E11.22319
G1 X111.677 Y97.973 E11.22456
G1 X112.744 Y98.273 E11.27986
G1 X112.77 Y98.283 E11.28124
G1 X113.763 Y98.716 E11.33529
G1 X113.787 Y98.728 E11.33663
G1 X114.724 Y99.299 E11.39137
G1 X114.746 Y99.315 E11.39273
G1 X115.588 Y100 E11.44688
G1 X115.608 Y100.019 E11.44826
G1 X116.361 Y100.826 E11.50333
G1 X116.379 Y100.847 E11.50471
G1 X116.997 Y101.728 E11.55839
G1 X117.011 Y101.751 E11.55974
G1 X117.519 Y102.732 E11.61485
G1 X117.529 Y102.757 E11.6162
G1 X117.89 Y103.775 E11.67008
G1 X117.898 Y103.801 E11.67144
G1 X118.121 Y104.877 E11.72626
G1 X118.125 Y104.904 E11.72762
G1 X118.2 Y105.989 E11.78188
G1 X118.2 Y114.01 E12.18205
G1 X118.125 Y115.1 E12.23656
G1 X118.121 Y115.126 E12.23788
G1 X117.904 Y116.177 E12.29142
G1 X117.897 Y116.203 E12.29276
G1 X117.537 Y117.226 E12.34687
G1 X117.526 Y117.251 E12.34823
G1 X117.034 Y118.213 E12.40213
G1 X117.02 Y118.236 E12.40348
G1 X116.405 Y119.119 E12.45716
G1 X116.388 Y119.14 E12.45851
G1 X115.659 Y119.933 E12.51225
G1 X115.64 Y119.952 E12.51359
G1 X114.808 Y120.641 E12.56749
G1 X114.786 Y120.657 E12.56884
G1 X113.861 Y121.234 E12.62323
G1 X113.835 Y121.247 E12.62468
G1 X112.839 Y121.683 E12.67893
G1 X112.759 Y121.7 E12.68301
G1 X107.185 Y121.687 E12.9611
G1 X107.103 Y121.669 E12.96528
G1 X106.151 Y121.239 E13.0174
G1 X106.127 Y121.227 E13.01874
G1 X105.203 Y120.649 E13.07311
G1 X105.181 Y120.633 E13.07447
G1 X104.35 Y119.942 E13.12839
G1 X104.331 Y119.923 E13.12973
G1 X103.604 Y119.13 E13.1834
G1 X103.587 Y119.109 E13.18475
G1 X102.973 Y118.224 E13.23849
G1 X102.959 Y118.201 E13.23983
G1 X102.469 Y117.239 E13.29369
G1 X102.458 Y117.214 E13.29506
G1 X102.099 Y116.19 E13.34919
G1 X102.092 Y116.164 E13.35054
G1 X101.877 Y115.112 E13.40411
G1 X101.873 Y115.086 E13.40542
G1 X101.8 Y114.011 E13.45917
G1 X101.8 Y105.99 E13.85934
G1 X101.877 Y104.89 E13.91436
G1 X101.881 Y104.863 E13.91572
G1 X102.104 Y103.79 E13.97039
G1 X102.112 Y103.764 E13.97175
G1 X102.475 Y102.746 E14.02567
G1 X102.486 Y102.721 E14.02704
G1 X102.995 Y101.742 E14.08208
G1 X103.009 Y101.719 E14.08343
G1 X103.631 Y100.837 E14.13727
G1 X103.648 Y100.815 E14.13866
G1 X104.4 Y100.01 E14.19362
G1 F2520 E9.99362
;MESH:usb_aux_holder.stl
G0 F3600 X105.737 Y99.976
G0 X111.479 Y98.851
G0 X111.575 Y98.36
;TYPE:WALL-OUTER
G1 F2520 E14.19362
G1 F1260 X112.617 Y98.653 E14.24762
G1 X113.586 Y99.074 E14.30033
G1 X114.5 Y99.629 E14.35368
G1 X115.321 Y100.297 E14.40648
G1 X116.054 Y101.082 E14.46007
G1 X116.66 Y101.942 E14.51255
G1 X117.156 Y102.898 E14.56629
G1 X117.509 Y103.89 E14.61882
G1 X117.726 Y104.937 E14.67216
G1 X117.8 Y106.014 E14.72602
G1 X117.8 Y113.986 E15.12375
G1 X117.728 Y115.053 E15.1771
G1 X117.517 Y116.079 E15.22936
G1 X117.167 Y117.076 E15.28207
G1 X116.689 Y118.012 E15.33451
G1 X116.088 Y118.876 E15.38702
G1 X115.38 Y119.647 E15.43924
G1 X114.567 Y120.322 E15.49196
G1 X113.669 Y120.883 E15.54478
G1 X112.737 Y121.3 E15.59572
G1 X107.248 Y121.296 E15.86957
G1 X106.331 Y120.883 E15.91975
G1 X105.433 Y120.322 E15.97257
G1 X104.62 Y119.647 E16.02529
G1 X103.912 Y118.876 E16.07751
G1 X103.311 Y118.012 E16.13002
G1 X102.833 Y117.076 E16.18245
G1 X102.483 Y116.079 E16.23517
G1 X102.272 Y115.053 E16.28743
G1 X102.2 Y113.986 E16.34078
G1 X102.2 Y106.014 E16.73851
G1 X102.274 Y104.937 E16.79237
G1 X102.491 Y103.89 E16.84571
G1 X102.844 Y102.898 E16.89824
G1 X103.34 Y101.942 E16.95198
G1 X103.946 Y101.082 E17.00446
G1 X104.679 Y100.297 E17.05805
G1 X105.5 Y99.629 E17.11085
G1 X106.414 Y99.074 E17.1642
G1 X107.383 Y98.653 E17.21691
G1 X108.436 Y98.359 E17.27145
G1 X109.453 Y98.22 E17.32266
G1 X110.5 Y98.217 E17.3749
G1 X111.575 Y98.36 E17.429
G0 F3600 X111.767 Y98.414
G0 X111.647 Y98.836
G0 X111.629 Y98.894
G0 X107.15 Y102.341
G0 X106.566 Y102.878
G0 X106.052 Y103.556
G0 X105.671 Y104.323
G0 X105.437 Y105.147
G0 X105.361 Y105.971
G0 X105.361 Y114.029
G0 X105.437 Y114.853
G0 X105.569 Y115.319
G0 X105.981 Y116.433
G0 X106.428 Y116.212
G1 F1260 X106.901 Y116.835 E17.46803
G1 X107.429 Y117.319 E17.50376
G1 X107.543 Y117.402 E17.5108
G1 X108.079 Y117.734 E17.54225
G1 X108.175 Y117.782 E17.54761
G1 X108.819 Y118.03 E17.58204
G1 X108.96 Y118.065 E17.58928
G1 X109.497 Y118.166 E17.61654
G1 X109.668 Y118.187 E17.62514
G1 X110.387 Y118.183 E17.66101
G1 X111.101 Y118.053 E17.69722
G1 X111.246 Y118.007 E17.70481
G1 X111.797 Y117.795 E17.73426
G1 X111.904 Y117.743 E17.7402
G1 X112.55 Y117.339 E17.77821
G1 X113.106 Y116.829 E17.81585
G1 X113.533 Y116.264 E17.85118
G1 X113.587 Y116.18 E17.85617
G1 X113.917 Y115.518 E17.89307
G1 X114.129 Y114.772 E17.93176
G1 X114.2 Y114.009 E17.96999
G1 X114.197 Y105.963 E18.37141
G1 X114.129 Y105.228 E18.40823
G1 X113.917 Y104.482 E18.44693
G1 X113.572 Y103.788 E18.48559
G1 X113.102 Y103.167 E18.52445
G1 X112.507 Y102.629 E18.56447
G1 X111.889 Y102.248 E18.60069
G1 X111.776 Y102.197 E18.60687
G1 X111.231 Y101.987 E18.63601
G1 X111.119 Y101.952 E18.64187
G1 X110.44 Y101.824 E18.67634
G1 X110.263 Y101.812 E18.68519
G1 X109.733 Y101.811 E18.71163
G1 X109.556 Y101.823 E18.72048
G1 X108.878 Y101.953 E18.75492
G1 X108.768 Y101.987 E18.76067
G1 X108.129 Y102.238 E18.79492
G1 X107.519 Y102.613 E18.83064
G1 X107.431 Y102.679 E18.83613
G1 X106.892 Y103.174 E18.87264
G1 X106.428 Y103.788 E18.91104
G1 X106.083 Y104.482 E18.9497
G1 X105.871 Y105.228 E18.98839
G1 X105.8 Y105.991 E19.02662
G1 X105.8 Y114.009 E19.42664
G1 X105.871 Y114.772 E19.46487
G1 X106.083 Y115.518 E19.50357
G1 X106.428 Y116.212 E19.54223
G0 F3600 X106.548 Y116.371
G0 X106.087 Y116.424
;TYPE:WALL-INNER
G1 F1260 X106.604 Y117.106 E19.58493
G1 X107.175 Y117.629 E19.62356
G1 X107.32 Y117.734 E19.63249
G1 X107.884 Y118.084 E19.66561
G1 X108.013 Y118.148 E19.67279
G1 X108.698 Y118.412 E19.70942
G1 X108.875 Y118.456 E19.71852
G1 X109.436 Y118.561 E19.74699
G1 X109.645 Y118.587 E19.7575
G1 X110.424 Y118.583 E19.79636
G1 X111.198 Y118.442 E19.83561
G1 X111.378 Y118.385 E19.84503
G1 X111.957 Y118.162 E19.87599
G1 X112.098 Y118.093 E19.88382
G1 X112.793 Y117.659 E19.9247
G1 X113.403 Y117.099 E19.96601
G1 X113.861 Y116.493 E20.00391
G1 X113.935 Y116.378 E20.01073
G1 X114.292 Y115.663 E20.0506
G1 X114.524 Y114.846 E20.09297
G1 X114.6 Y114.027 E20.13401
G1 X114.597 Y105.944 E20.53727
G1 X114.524 Y105.154 E20.57685
G1 X114.292 Y104.337 E20.61922
G1 X113.914 Y103.576 E20.66162
G1 X113.398 Y102.896 E20.7042
G1 X112.748 Y102.308 E20.74793
G1 X112.077 Y101.894 E20.78727
G1 X111.93 Y101.828 E20.79531
G1 X111.363 Y101.609 E20.82563
G1 X111.216 Y101.563 E20.83332
G1 X110.491 Y101.427 E20.87012
G1 X110.277 Y101.412 E20.88082
G1 X109.72 Y101.411 E20.90861
G1 X109.505 Y101.426 E20.91936
G1 X108.781 Y101.564 E20.95613
G1 X108.636 Y101.609 E20.96371
G1 X107.95 Y101.879 E21.00049
G1 X107.294 Y102.282 E21.0389
G1 X107.175 Y102.371 E21.04631
G1 X106.595 Y102.904 E21.08561
G1 X106.086 Y103.577 E21.12771
G1 X105.708 Y104.337 E21.17005
G1 X105.476 Y105.154 E21.21243
G1 X105.4 Y105.972 E21.25341
G1 X105.4 Y114.028 E21.65533
G1 X105.476 Y114.846 E21.69631
G1 X105.708 Y115.663 E21.73869
G1 X106.087 Y116.424 E21.7811
