;FLAVOR:Marlin
;TIME:14393
;Filament used: 31.5257m
;Layer height: 0.3
;Generated with Cura_SteamEngine 3.6.0
M140 S60
M105
M190 S60
M104 S210
M105
M109 S210
M82 ;absolute extrusion mode
G21 ;metric values
G90 ;absolute positioning
M82 ;set extruder to absolute mode
M107 ;start with the fan off
G28 X0 Y0 ;move X/Y to min endstops
G28 Z0 ;move Z to min endstops
G1 Z15.0 F9000 ;move the platform down 15mm
G92 E0 ;zero the extruded length
G1 F200 E3 ;extrude 3mm of feed stock
G92 E0 ;zero the extruded length again
G1 F9000
;Put printing message on LCD screen
M117 Printing...
G92 E0
G1 F2520 E-4.2
;LAYER_COUNT:118
;LAYER:0
M107
G0 F3600 X46.581 Y69.639 Z0.3
;TYPE:SKIRT
G1 F2520 E0
G1 F2400 X46.894 Y69.522 E0.01667
G1 X47.225 Y69.483 E0.0333
G1 X47.557 Y69.523 E0.04998
G1 X47.77 Y69.594 E0.06118
G1 X48.255 Y69.8 E0.08747
G1 X48.437 Y69.905 E0.09796
G1 X48.533 Y69.849 E0.1035
G1 X48.849 Y69.753 E0.11998
G1 X49.766 Y69.591 E0.16643
G1 X50.01 Y69.57 E0.17865
G1 X133.912 Y69.571 E4.36454
G1 X133.913 Y69.56 E4.36509
G1 X133.9 Y69.371 E4.37454
G1 X133.9 Y50.034 E5.33927
G1 X133.94 Y49.702 E5.35595
G1 X134.057 Y49.39 E5.37258
G1 X134.31 Y49.044 E5.39396
G1 X134.544 Y48.81 E5.41047
G1 X134.807 Y48.604 E5.42714
G1 X135.111 Y48.465 E5.44382
G1 X135.534 Y48.4 E5.46517
G1 X169.966 Y48.4 E7.18299
G1 X170.298 Y48.44 E7.19967
G1 X170.61 Y48.557 E7.21629
G1 X170.956 Y48.81 E7.23768
G1 X171.19 Y49.044 E7.25419
G1 X171.396 Y49.307 E7.27086
G1 X171.535 Y49.611 E7.28753
G1 X171.6 Y50.034 E7.30888
G1 X171.6 Y68.773 E8.24378
G1 X171.798 Y68.993 E8.25854
G1 X171.957 Y69.287 E8.27522
G1 X172.041 Y69.611 E8.29192
G1 X172.044 Y69.654 E8.29407
G1 X172.19 Y69.592 E8.30198
G1 X172.511 Y69.499 E8.31865
G1 X172.844 Y69.484 E8.33528
G1 X173.172 Y69.549 E8.35197
G1 X173.475 Y69.69 E8.36864
G1 X173.845 Y70.023 E8.39347
G1 X174.281 Y70.586 E8.429
G1 X174.452 Y70.872 E8.44563
G1 X174.537 Y71.122 E8.4588
G1 X174.66 Y71.644 E8.48555
G1 X174.697 Y71.965 E8.50168
G1 X174.7 Y168.002 E13.29298
G1 X174.673 Y168.277 E13.30677
G1 X174.576 Y168.762 E13.33144
G1 X174.472 Y169.079 E13.34809
G1 X174.364 Y169.269 E13.35899
G1 X173.94 Y169.899 E13.39688
G1 X173.722 Y170.152 E13.41354
G1 X173.45 Y170.346 E13.43021
G1 X173.14 Y170.47 E13.44686
G1 X172.809 Y170.517 E13.46354
G1 X172.477 Y170.484 E13.48019
G1 X172.242 Y170.41 E13.49248
G1 X171.751 Y170.206 E13.51901
G1 X171.558 Y170.097 E13.53006
G1 X171.462 Y170.153 E13.53561
G1 X171.151 Y170.247 E13.55182
G1 X170.234 Y170.409 E13.59828
G1 X169.99 Y170.43 E13.61049
G1 X49.993 Y170.429 E19.59717
G1 X49.701 Y170.398 E19.61182
G1 X48.617 Y170.167 E19.66711
G1 X48.458 Y170.113 E19.67549
G1 X48.422 Y170.14 E19.67774
G1 X48.268 Y170.217 E19.68633
G1 X47.804 Y170.413 E19.71146
G1 X47.483 Y170.505 E19.72812
G1 X47.149 Y170.519 E19.74479
G1 X46.821 Y170.453 E19.76149
G1 X46.519 Y170.311 E19.77814
G1 X46.258 Y170.102 E19.79482
G1 X46.123 Y169.942 E19.80526
G1 X45.661 Y169.301 E19.84468
G1 X45.5 Y169.008 E19.86136
G1 X45.425 Y168.759 E19.87433
G1 X45.327 Y168.273 E19.89907
G1 X45.299 Y167.996 E19.91296
G1 X45.303 Y71.962 E24.70412
G1 X45.34 Y71.642 E24.72019
G1 X45.461 Y71.127 E24.74658
G1 X45.576 Y70.813 E24.76326
G1 X45.681 Y70.638 E24.77344
G1 X46.08 Y70.074 E24.80791
G1 X46.304 Y69.827 E24.82455
G1 X46.581 Y69.639 E24.84125
G0 F3600 X46.844 Y69.958
G1 F2400 X47.117 Y69.889 E24.8553
G1 X47.399 Y69.899 E24.86938
G1 X47.614 Y69.963 E24.88057
G1 X48.099 Y70.169 E24.90686
G1 X48.34 Y70.314 E24.92089
G1 X48.413 Y70.393 E24.92625
G1 X48.487 Y70.336 E24.93091
G1 X48.733 Y70.199 E24.94496
G1 X48.919 Y70.147 E24.9546
G1 X49.836 Y69.985 E25.00106
G1 X50.01 Y69.97 E25.00977
G1 X134.3 Y69.971 E29.21501
G1 X134.3 Y69.669 E29.23008
G1 X134.318 Y69.544 E29.23638
G1 X134.312 Y69.525 E29.23738
G1 X134.3 Y69.371 E29.24508
G1 X134.3 Y50.034 E30.20981
G1 X134.34 Y49.755 E30.22387
G1 X134.456 Y49.498 E30.23794
G1 X134.593 Y49.327 E30.24887
G1 X134.827 Y49.093 E30.26538
G1 X135.053 Y48.924 E30.27946
G1 X135.317 Y48.824 E30.29354
G1 X135.534 Y48.8 E30.30443
G1 X169.966 Y48.8 E32.02225
G1 X170.245 Y48.84 E32.03632
G1 X170.502 Y48.956 E32.05038
G1 X170.673 Y49.093 E32.06131
G1 X170.907 Y49.327 E32.07782
G1 X171.076 Y49.553 E32.0919
G1 X171.176 Y49.817 E32.10599
G1 X171.2 Y50.034 E32.11688
G1 X171.2 Y68.965 E33.06135
G1 X171.405 Y69.139 E33.07477
G1 X171.559 Y69.375 E33.08883
G1 X171.642 Y69.645 E33.10292
G1 X171.654 Y69.8 E33.11067
G1 X171.654 Y70.301 E33.13567
G1 X171.643 Y70.38 E33.13965
G1 X171.652 Y70.387 E33.14022
G1 X171.755 Y70.266 E33.14814
G1 X172.024 Y70.097 E33.16399
G1 X172.346 Y69.96 E33.18145
G1 X172.619 Y69.887 E33.19555
G1 X172.901 Y69.893 E33.20962
G1 X173.17 Y69.978 E33.2237
G1 X173.405 Y70.135 E33.2378
G1 X173.529 Y70.268 E33.24687
G1 X173.965 Y70.831 E33.2824
G1 X174.104 Y71.076 E33.29645
G1 X174.147 Y71.214 E33.30366
G1 X174.27 Y71.736 E33.33042
G1 X174.297 Y71.965 E33.34192
G1 X174.3 Y168.002 E38.13323
G1 X174.281 Y168.198 E38.14305
G1 X174.184 Y168.683 E38.16773
G1 X174.033 Y169.045 E38.18729
G1 X173.609 Y169.675 E38.22518
G1 X173.42 Y169.885 E38.23928
G1 X173.18 Y170.033 E38.25334
G1 X172.908 Y170.109 E38.26743
G1 X172.626 Y170.105 E38.2815
G1 X172.395 Y170.04 E38.29348
G1 X171.904 Y169.836 E38.32
G1 X171.662 Y169.693 E38.33403
G1 X171.584 Y169.61 E38.33971
G1 X171.51 Y169.666 E38.34434
G1 X171.263 Y169.803 E38.35843
G1 X171.081 Y169.853 E38.36785
G1 X170.164 Y170.015 E38.4143
G1 X169.99 Y170.03 E38.42302
G1 X49.993 Y170.029 E44.40969
G1 X49.785 Y170.007 E44.42013
G1 X48.701 Y169.776 E44.47542
G1 X48.436 Y169.679 E44.4895
G1 X48.402 Y169.654 E44.49161
G1 X48.112 Y169.848 E44.50901
G1 X47.648 Y170.044 E44.53414
G1 X47.375 Y170.116 E44.54823
G1 X47.093 Y170.109 E44.5623
G1 X46.824 Y170.024 E44.57638
G1 X46.59 Y169.866 E44.59046
G1 X46.448 Y169.708 E44.60106
G1 X45.986 Y169.067 E44.64048
G1 X45.855 Y168.817 E44.65456
G1 X45.817 Y168.68 E44.66166
G1 X45.719 Y168.194 E44.68639
G1 X45.699 Y167.996 E44.69632
G1 X45.703 Y71.962 E49.48747
G1 X45.73 Y71.733 E49.49898
G1 X45.851 Y71.218 E49.52537
G1 X46.008 Y70.869 E49.54446
G1 X46.407 Y70.305 E49.57893
G1 X46.6 Y70.1 E49.59298
G1 X46.844 Y69.958 E49.60706
G0 F3600 X46.889 Y70.384
G1 F2400 X47.09 Y70.298 E49.61797
G1 X47.308 Y70.289 E49.62886
G1 X47.458 Y70.331 E49.63663
G1 X47.943 Y70.537 E49.66292
G1 X48.125 Y70.657 E49.67379
G1 X48.251 Y70.835 E49.68467
G1 X48.291 Y70.989 E49.69261
G1 X48.729 Y70.655 E49.72009
G1 X48.989 Y70.541 E49.73425
G1 X49.906 Y70.379 E49.78071
G1 X50.01 Y70.37 E49.78592
G1 X134.724 Y70.371 E54.01232
G1 X134.7 Y70.271 E54.01745
G1 X134.7 Y69.669 E54.04748
G1 X134.731 Y69.501 E54.05601
G1 X134.7 Y69.371 E54.06267
G1 X134.7 Y50.034 E55.0274
G1 X134.74 Y49.819 E55.03831
G1 X134.876 Y49.61 E55.05075
G1 X135.11 Y49.376 E55.06726
G1 X135.289 Y49.252 E55.07812
G1 X135.534 Y49.2 E55.09062
G1 X169.966 Y49.2 E56.80844
G1 X170.181 Y49.24 E56.81935
G1 X170.39 Y49.376 E56.83179
G1 X170.624 Y49.61 E56.8483
G1 X170.748 Y49.789 E56.85916
G1 X170.8 Y50.034 E56.87166
G1 X170.8 Y69.227 E57.8292
G1 X170.869 Y69.24 E57.83271
G1 X171.055 Y69.353 E57.84356
G1 X171.188 Y69.526 E57.85445
G1 X171.254 Y69.8 E57.86851
G1 X171.254 Y70.301 E57.89351
G1 X171.214 Y70.516 E57.90442
G1 X171.161 Y70.604 E57.90954
G1 X171.215 Y70.615 E57.91229
G1 X171.417 Y70.698 E57.92319
G1 X171.515 Y70.778 E57.9295
G1 X171.816 Y71.079 E57.95073
G1 X171.816 Y71.017 E57.95383
G1 X171.856 Y70.802 E57.96474
G1 X171.969 Y70.616 E57.9756
G1 X172.181 Y70.465 E57.98858
G1 X172.503 Y70.328 E58.00604
G1 X172.716 Y70.28 E58.01693
G1 X172.932 Y70.312 E58.02783
G1 X173.122 Y70.419 E58.03871
G1 X173.212 Y70.513 E58.0452
G1 X173.648 Y71.076 E58.08072
G1 X173.758 Y71.305 E58.0934
G1 X173.881 Y71.827 E58.12015
G1 X173.897 Y71.965 E58.12709
G1 X173.9 Y168.002 E62.91839
G1 X173.888 Y168.12 E62.92431
G1 X173.791 Y168.605 E62.94898
G1 X173.701 Y168.822 E62.9607
G1 X173.277 Y169.452 E62.99859
G1 X173.124 Y169.608 E63.00949
G1 X172.926 Y169.699 E63.02036
G1 X172.708 Y169.713 E63.03126
G1 X172.549 Y169.671 E63.03947
G1 X172.058 Y169.467 E63.06599
G1 X171.875 Y169.348 E63.07688
G1 X171.747 Y169.172 E63.08774
G1 X171.705 Y169.018 E63.0957
G1 X171.269 Y169.347 E63.12295
G1 X171.011 Y169.459 E63.13699
G1 X170.094 Y169.621 E63.18344
G1 X169.99 Y169.63 E63.18865
G1 X49.993 Y169.629 E69.17533
G1 X49.868 Y169.616 E69.1816
G1 X48.784 Y169.385 E69.23689
G1 X48.582 Y169.301 E69.24781
G1 X48.495 Y169.232 E69.25335
G1 X48.303 Y169.048 E69.26661
G1 X48.258 Y169.199 E69.27448
G1 X48.125 Y169.372 E69.28536
G1 X47.956 Y169.48 E69.29537
G1 X47.492 Y169.676 E69.3205
G1 X47.279 Y169.723 E69.33138
G1 X47.064 Y169.69 E69.34223
G1 X46.874 Y169.583 E69.35311
G1 X46.772 Y169.474 E69.36056
G1 X46.31 Y168.833 E69.39998
G1 X46.209 Y168.601 E69.4126
G1 X46.111 Y168.115 E69.43734
G1 X46.099 Y167.996 E69.4433
G1 X46.103 Y71.962 E74.23446
G1 X46.119 Y71.825 E74.24134
G1 X46.24 Y71.31 E74.26773
G1 X46.334 Y71.1 E74.27921
G1 X46.733 Y70.536 E74.31368
G1 X46.889 Y70.384 E74.32455
G0 F3600 X47.16 Y70.693
G1 F2400 X47.301 Y70.699 E74.33159
G1 X47.786 Y70.905 E74.35788
G1 X47.88 Y70.987 E74.3641
G1 X47.907 Y71.109 E74.37033
G1 X47.872 Y71.203 E74.37534
G1 X47.559 Y71.652 E74.40264
G1 X47.481 Y72.034 E74.4221
G1 X47.483 Y167.985 E79.20911
G1 X47.572 Y168.377 E79.22917
G1 X47.885 Y168.81 E79.25582
G1 X47.923 Y168.929 E79.26205
G1 X47.883 Y169.047 E79.26827
G1 X47.801 Y169.111 E79.27346
G1 X47.337 Y169.307 E79.29859
G1 X47.212 Y169.317 E79.30484
G1 X47.097 Y169.24 E79.31175
G1 X46.635 Y168.599 E79.35117
G1 X46.601 Y168.522 E79.35537
G1 X46.503 Y168.036 E79.3801
G1 X46.499 Y167.996 E79.38211
G1 X46.503 Y71.962 E84.17327
G1 X46.508 Y71.916 E84.17557
G1 X46.629 Y71.401 E84.20197
G1 X46.661 Y71.331 E84.20581
G1 X47.06 Y70.767 E84.24027
G1 X47.16 Y70.693 E84.24648
G1 F2520 E80.04648
G0 F3600 X48.435 Y71.382
G1 F2520 E84.24648
G1 F2400 X48.972 Y70.973 E84.28016
G1 X49.058 Y70.935 E84.28485
G1 X49.975 Y70.773 E84.33131
G1 X50.01 Y70.77 E84.33306
G1 X170.006 Y70.772 E90.31968
G1 X170.047 Y70.776 E90.32174
G1 X171.132 Y71.006 E90.37707
G1 X171.232 Y71.061 E90.38277
G1 X171.612 Y71.441 E90.40958
G1 X171.661 Y71.52 E90.41422
G1 X171.802 Y71.954 E90.43698
G1 X171.812 Y72.016 E90.44011
G1 X171.807 Y168.013 E95.22942
G1 X171.795 Y168.082 E95.23292
G1 X171.63 Y168.533 E95.25688
G1 X171.563 Y168.624 E95.26252
G1 X171.028 Y169.028 E95.29596
G1 X170.942 Y169.065 E95.30063
G1 X170.025 Y169.227 E95.34709
G1 X169.99 Y169.23 E95.34884
G1 X49.993 Y169.229 E101.33552
G1 X49.951 Y169.225 E101.33762
G1 X48.867 Y168.994 E101.39292
G1 X48.771 Y168.943 E101.39834
G1 X48.419 Y168.607 E101.42262
G1 X48.369 Y168.531 E101.42716
G1 X48.204 Y168.085 E101.45088
G1 X48.192 Y168.016 E101.45438
G1 X48.187 Y72.017 E106.24379
G1 X48.199 Y71.95 E106.24718
G1 X48.368 Y71.474 E106.27238
G1 X48.435 Y71.382 E106.27806
G1 F2520 E102.07806
G0 F3600 X48.118 Y71.039
G0 X48.608 Y70.591
G0 X49.816 Y70.335
G0 X135.1 Y69.669
G1 F2520 E106.27806
G1 F2400 X135.139 Y69.55 E106.28431
G1 X135.18 Y69.53 E106.28658
G1 X135.1 Y69.371 E106.29546
G1 X135.1 Y50.034 E107.26019
G1 X135.159 Y49.893 E107.26782
G1 X135.393 Y49.659 E107.28433
G1 X135.534 Y49.6 E107.29195
G1 X169.966 Y49.6 E109.00977
G1 X170.107 Y49.659 E109.0174
G1 X170.341 Y49.893 E109.03391
G1 X170.4 Y50.034 E109.04153
G1 X170.4 Y69.389 E110.00716
G1 X170.369 Y69.484 E110.01214
G1 X170.508 Y69.542 E110.01966
G1 X170.566 Y69.6 E110.02375
G1 X170.654 Y69.6 E110.02814
G1 X170.773 Y69.639 E110.03439
G1 X170.854 Y69.8 E110.04338
G1 X170.854 Y70.301 E110.06837
G1 X170.815 Y70.42 E110.07462
G1 X170.654 Y70.501 E110.08361
G1 X135.3 Y70.471 E111.84743
G1 X135.181 Y70.432 E111.85368
G1 X135.1 Y70.271 E111.86267
G1 X135.1 Y69.669 E111.8927
G1 F2520 E107.6927
G0 F3600 X170.066 Y70.308
G0 X171.09 Y70.49
G0 X172.216 Y71.017
G1 F2520 E111.8927
G1 F2400 X172.255 Y70.898 E111.89895
G1 X172.338 Y70.833 E111.90421
G1 X172.66 Y70.696 E111.92167
G1 X172.784 Y70.685 E111.92788
G1 X172.896 Y70.758 E111.93455
G1 X173.332 Y71.321 E111.97008
G1 X173.369 Y71.397 E111.97429
G1 X173.492 Y71.919 E112.00105
G1 X173.497 Y71.965 E112.00336
G1 X173.5 Y168.002 E116.79466
G1 X173.496 Y168.041 E116.79662
G1 X173.399 Y168.526 E116.8213
G1 X173.369 Y168.599 E116.82523
G1 X172.945 Y169.229 E116.86312
G1 X172.846 Y169.305 E116.86935
G1 X172.702 Y169.302 E116.87653
G1 X172.211 Y169.098 E116.90306
G1 X172.117 Y169.016 E116.90928
G1 X172.089 Y168.894 E116.91553
G1 X172.124 Y168.798 E116.92062
G1 X172.443 Y168.344 E116.94831
G1 X172.518 Y167.968 E116.96743
G1 X172.516 Y72.014 E121.7546
G1 X172.428 Y71.619 E121.77479
G1 X172.25 Y71.352 E121.7908
G1 X172.216 Y71.241 E121.79659
G1 X172.216 Y71.017 E121.80777
G0 F3600 X170 Y69.172
;TYPE:SUPPORT
G1 F2400 X135.5 Y69.171 E123.52898
G1 X135.5 Y50.116 E124.47964
G1 X135.616 Y50 E124.48782
G1 X169.884 Y50 E126.19746
G1 X170 Y50.116 E126.20564
G1 X170 Y69.172 E127.15635
G0 F3600 X169.84 Y66.67
G1 F2400 X135.66 Y66.67 E128.8616
G0 F3600 X140.007 Y69.011
G1 F2400 X140.007 Y50.16 E129.80208
G0 F3600 X135.66 Y53.336
G1 F2400 X169.84 Y53.336 E131.50732
G0 F3600 X166.675 Y50.16
G1 F2400 X166.675 Y69.011 E132.4478
G0 F3600 X160.008 Y69.011
G1 F2400 X160.008 Y50.16 E133.38828
G0 F3600 X153.341 Y50.16
G1 F2400 X153.341 Y69.011 E134.32876
G0 F3600 X146.674 Y69.011
G1 F2400 X146.674 Y50.16 E135.26924
G0 F3600 X135.66 Y60.003
G1 F2400 X169.84 Y60.003 E136.97449
G1 F2520 E132.77449
G0 F3600 X158.182 Y70.345
G0 X158.15 Y70.374
G0 X118.755 Y105.329
G0 X118.722 Y105.358
G0 X118.519 Y105.54
G1 F2520 E136.97449
G1 F2400 X118.615 Y105.678 E136.98288
G1 X118.673 Y105.832 E136.99109
G1 X118.693 Y106 E136.99953
G1 X118.674 Y106.163 E137.00772
G1 X118.61 Y106.325 E137.01641
G1 X118.509 Y106.468 E137.02514
G1 X118.389 Y106.573 E137.0331
G1 X118.245 Y106.648 E137.0412
G1 X118.082 Y106.688 E137.04957
G1 X117.918 Y106.688 E137.05775
G1 X117.753 Y106.647 E137.06623
G1 X117.607 Y106.571 E137.07445
G1 X117.481 Y106.46 E137.08282
G1 X117.385 Y106.322 E137.09121
G1 X117.327 Y106.168 E137.09942
G1 X117.307 Y106 E137.10786
G1 X117.327 Y105.832 E137.1163
G1 X117.385 Y105.678 E137.12451
G1 X117.481 Y105.54 E137.1329
G1 X117.607 Y105.429 E137.14128
G1 X117.753 Y105.353 E137.14949
G1 X117.918 Y105.312 E137.15797
G1 X118.082 Y105.312 E137.16615
G1 X118.247 Y105.353 E137.17463
G1 X118.393 Y105.429 E137.18285
G1 X118.519 Y105.54 E137.19122
G1 F2520 E132.99122
G0 F3600 X118.506 Y106.818
G0 X118.506 Y106.862
G0 X118.083 Y153.996
G0 X118.083 Y154.04
G0 X118.082 Y154.312
G1 F2520 E137.19122
G1 F2400 X118.247 Y154.353 E137.19971
G1 X118.393 Y154.429 E137.20792
G1 X118.519 Y154.54 E137.21629
G1 X118.615 Y154.678 E137.22468
G1 X118.673 Y154.832 E137.23289
G1 X118.693 Y155 E137.24133
G1 X118.674 Y155.163 E137.24952
G1 X118.61 Y155.325 E137.25821
G1 X118.509 Y155.468 E137.26694
G1 X118.389 Y155.573 E137.2749
G1 X118.245 Y155.648 E137.283
G1 X118.082 Y155.688 E137.29137
G1 X117.918 Y155.688 E137.29955
G1 X117.753 Y155.647 E137.30804
G1 X117.607 Y155.571 E137.31625
G1 X117.481 Y155.46 E137.32463
G1 X117.385 Y155.322 E137.33301
G1 X117.327 Y155.168 E137.34122
G1 X117.307 Y155 E137.34966
G1 X117.327 Y154.832 E137.3581
G1 X117.385 Y154.678 E137.36631
G1 X117.481 Y154.54 E137.3747
G1 X117.607 Y154.429 E137.38308
G1 X117.753 Y154.353 E137.39129
G1 X117.918 Y154.312 E137.39977
G1 X118.082 Y154.312 E137.40795
G1 F2520 E133.20795
G0 F3600 X117.317 Y154.321
G0 X117.273 Y154.321
G0 X61.008 Y154.995
G0 X60.964 Y154.995
G0 X60.693 Y155
G1 F2520 E137.40795
G1 F2400 X60.674 Y155.163 E137.41614
G1 X60.61 Y155.325 E137.42483
G1 X60.509 Y155.468 E137.43357
G1 X60.389 Y155.573 E137.44152
G1 X60.245 Y155.648 E137.44962
G1 X60.082 Y155.688 E137.45799
G1 X59.918 Y155.688 E137.46618
G1 X59.753 Y155.647 E137.47466
G1 X59.607 Y155.571 E137.48287
G1 X59.481 Y155.46 E137.49125
G1 X59.385 Y155.322 E137.49964
G1 X59.327 Y155.168 E137.50785
G1 X59.307 Y155 E137.51629
G1 X59.327 Y154.832 E137.52473
G1 X59.385 Y154.678 E137.53294
G1 X59.481 Y154.54 E137.54132
G1 X59.607 Y154.429 E137.5497
G1 X59.753 Y154.353 E137.55791
G1 X59.918 Y154.312 E137.56639
G1 X60.082 Y154.312 E137.57458
G1 X60.247 Y154.353 E137.58306
G1 X60.393 Y154.429 E137.59127
