;FLAVOR:Marlin
;TIME:5851
;Filament used: 18.1404m
;Layer height: 0.3
;Generated with Cura_SteamEngine 3.6.0
M140 S60
M105
M190 S60
M104 S210
M105
M109 S210
M82 ;absolute extrusion mode
G21 ;metric values
G90 ;absolute positioning
M82 ;set extruder to absolute mode
M107 ;start with the fan off
G28 X0 Y0 ;move X/Y to min endstops
G28 Z0 ;move Z to min endstops
G1 Z15.0 F9000 ;move the platform down 15mm
G92 E0 ;zero the extruded length
G1 F200 E3 ;extrude 3mm of feed stock
G92 E0 ;zero the extruded length again
G1 F9000
;Put printing message on LCD screen
M117 Printing...
G92 E0
G1 F1500 E-4.2
;LAYER_COUNT:155
;LAYER:0
M107
G0 F3600 X93.244 Y60.048 Z0.3
;TYPE:SKIRT
G1 F1500 E0
G1 F1800 X93.691 Y59.451 E0.05284
G1 X94.933 Y57.947 E0.19102
G1 X95.466 Y57.365 E0.24693
G1 X96.012 Y56.874 E0.29895
G1 X97.531 Y55.633 E0.43791
G1 X98.167 Y55.165 E0.49385
G1 X98.809 Y54.783 E0.54677
G1 X100.548 Y53.86 E0.68625
G1 X101.264 Y53.526 E0.74222
G1 X101.963 Y53.279 E0.79474
G1 X103.832 Y52.718 E0.93299
G1 X104.598 Y52.53 E0.98886
G1 X105.311 Y52.426 E1.03991
G1 X107.233 Y52.237 E1.17673
G1 X107.996 Y52.2 E1.23085
G1 X112.004 Y52.2 E1.51479
G1 X112.768 Y52.238 E1.56898
G1 X114.708 Y52.429 E1.70708
G1 X115.489 Y52.546 E1.76303
G1 X116.197 Y52.723 E1.81473
G1 X118.07 Y53.288 E1.95333
G1 X118.813 Y53.554 E2.00924
G1 X119.49 Y53.875 E2.06232
G1 X121.219 Y54.798 E2.20117
G1 X121.896 Y55.205 E2.25713
G1 X122.492 Y55.647 E2.30969
G1 X124.008 Y56.89 E2.44858
G1 X124.592 Y57.421 E2.5045
G1 X125.083 Y57.963 E2.55631
G1 X126.33 Y59.477 E2.69526
G1 X126.8 Y60.111 E2.75118
G1 X127.182 Y60.749 E2.80386
G1 X128.109 Y62.477 E2.94278
G1 X128.447 Y63.191 E2.99874
G1 X128.699 Y63.895 E3.05172
G1 X129.268 Y65.766 E3.19026
G1 X129.459 Y66.532 E3.24619
G1 X129.567 Y67.262 E3.29847
G1 X129.762 Y69.221 E3.43794
G1 X129.8 Y69.994 E3.49276
G1 X129.8 Y150.004 E9.161
G1 X129.762 Y150.773 E9.21554
G1 X129.568 Y152.73 E9.35487
G1 X129.45 Y153.511 E9.41082
G1 X129.269 Y154.228 E9.46321
G1 X128.701 Y156.098 E9.60167
G1 X128.434 Y156.841 E9.6576
G1 X128.114 Y157.513 E9.71033
G1 X127.191 Y159.237 E9.84887
G1 X126.784 Y159.913 E9.90477
G1 X126.341 Y160.508 E9.95732
G1 X125.094 Y162.025 E10.09644
G1 X124.562 Y162.609 E10.15241
G1 X124.02 Y163.098 E10.20412
G1 X122.51 Y164.339 E10.34259
G1 X121.876 Y164.809 E10.3985
G1 X121.234 Y165.192 E10.45146
G1 X119.505 Y166.116 E10.59034
G1 X118.791 Y166.453 E10.64628
G1 X118.093 Y166.701 E10.69875
G1 X116.217 Y167.27 E10.83764
G1 X115.451 Y167.461 E10.89356
G1 X114.718 Y167.568 E10.94604
G1 X112.769 Y167.76 E11.08479
G1 X112.005 Y167.798 E11.13898
G1 X100.995 Y167.799 E11.91897
G1 X100.077 Y167.745 E11.98412
G1 X99.401 Y167.665 E12.03234
G1 X98.623 Y167.533 E12.08825
G1 X97.706 Y167.269 E12.15585
G1 X97.073 Y167.044 E12.20344
G1 X96.343 Y166.742 E12.25941
G1 X95.504 Y166.279 E12.3273
G1 X94.937 Y165.919 E12.37488
G1 X94.293 Y165.462 E12.43082
G1 X93.568 Y164.814 E12.49971
G1 X93.097 Y164.337 E12.5472
G1 X92.571 Y163.748 E12.60315
G1 X92.032 Y162.99 E12.66904
G1 X91.679 Y162.425 E12.71624
G1 X91.295 Y161.735 E12.77218
G1 X90.918 Y160.827 E12.84183
G1 X90.697 Y160.184 E12.89
G1 X90.478 Y159.425 E12.94596
G1 X90.321 Y158.513 E13.01152
G1 X90.248 Y157.858 E13.05821
G1 X90.2 Y156.994 E13.11952
G1 X90.202 Y69.978 E19.28408
G1 X90.241 Y69.194 E19.3397
G1 X90.439 Y67.234 E19.47926
G1 X90.559 Y66.453 E19.53523
G1 X90.743 Y65.729 E19.58816
G1 X91.316 Y63.862 E19.72651
G1 X91.586 Y63.12 E19.78245
G1 X91.903 Y62.457 E19.83451
G1 X92.835 Y60.724 E19.97391
G1 X93.244 Y60.048 E20.02989
G0 F3600 X93.587 Y60.255
G1 F1800 X93.999 Y59.706 E20.07851
G1 X95.241 Y58.202 E20.2167
G1 X95.761 Y57.635 E20.2712
G1 X96.265 Y57.183 E20.31916
G1 X97.784 Y55.942 E20.45812
G1 X98.404 Y55.487 E20.5126
G1 X98.997 Y55.137 E20.56139
G1 X100.736 Y54.214 E20.70086
G1 X101.433 Y53.889 E20.75535
G1 X102.078 Y53.662 E20.80379
G1 X103.947 Y53.101 E20.94203
G1 X104.694 Y52.919 E20.9965
G1 X105.35 Y52.825 E21.04345
G1 X107.272 Y52.636 E21.18027
G1 X107.996 Y52.6 E21.23162
G1 X112.004 Y52.6 E21.51556
G1 X112.729 Y52.636 E21.56699
G1 X114.669 Y52.827 E21.70509
G1 X115.43 Y52.942 E21.75962
G1 X116.081 Y53.106 E21.80718
G1 X117.954 Y53.671 E21.94577
G1 X118.678 Y53.931 E22.00027
G1 X119.302 Y54.228 E22.04923
G1 X121.031 Y55.151 E22.18808
G1 X121.69 Y55.548 E22.24258
G1 X122.238 Y55.957 E22.29103
G1 X123.754 Y57.2 E22.42991
G1 X124.323 Y57.718 E22.48442
G1 X124.774 Y58.217 E22.53207
G1 X126.021 Y59.731 E22.67103
G1 X126.478 Y60.35 E22.72554
G1 X126.83 Y60.938 E22.77409
G1 X127.757 Y62.666 E22.91301
G1 X128.085 Y63.362 E22.96752
G1 X128.316 Y64.011 E23.01632
G1 X128.885 Y65.882 E23.15487
G1 X129.07 Y66.628 E23.20932
G1 X129.169 Y67.302 E23.25758
G1 X129.364 Y69.261 E23.39705
G1 X129.4 Y69.994 E23.44904
G1 X129.4 Y150.004 E29.11727
G1 X129.364 Y150.734 E29.16905
G1 X129.17 Y152.691 E29.30837
G1 X129.054 Y153.451 E29.36284
G1 X128.887 Y154.112 E29.41114
G1 X128.319 Y155.982 E29.54959
G1 X128.057 Y156.705 E29.60407
G1 X127.762 Y157.324 E29.65265
G1 X126.839 Y159.048 E29.79119
G1 X126.441 Y159.706 E29.84567
G1 X126.032 Y160.254 E29.89411
G1 X124.785 Y161.771 E30.03323
G1 X124.266 Y162.339 E30.08774
G1 X123.767 Y162.789 E30.13534
G1 X122.257 Y164.03 E30.27381
G1 X121.638 Y164.487 E30.32832
G1 X121.046 Y164.839 E30.37711
G1 X119.317 Y165.763 E30.516
G1 X118.621 Y166.09 E30.57047
G1 X117.977 Y166.318 E30.61887
G1 X116.101 Y166.887 E30.75775
G1 X115.354 Y167.072 E30.81227
G1 X114.678 Y167.17 E30.86067
G1 X112.729 Y167.362 E30.99941
G1 X112.005 Y167.398 E31.05076
G1 X100.995 Y167.399 E31.83076
G1 X100.124 Y167.348 E31.89257
G1 X99.448 Y167.268 E31.94079
G1 X98.69 Y167.138 E31.99528
G1 X97.84 Y166.892 E32.05796
G1 X97.207 Y166.667 E32.10556
G1 X96.496 Y166.372 E32.16009
G1 X95.719 Y165.941 E32.22304
G1 X95.152 Y165.581 E32.27062
G1 X94.525 Y165.136 E32.32509
G1 X93.852 Y164.533 E32.38911
G1 X93.381 Y164.056 E32.4366
G1 X92.87 Y163.482 E32.49104
G1 X92.371 Y162.778 E32.55217
G1 X92.018 Y162.213 E32.59937
G1 X91.645 Y161.54 E32.65388
G1 X91.296 Y160.697 E32.71852
G1 X91.075 Y160.054 E32.76669
G1 X90.863 Y159.315 E32.82115
G1 X90.719 Y158.469 E32.88195
G1 X90.646 Y157.814 E32.92864
G1 X90.6 Y156.994 E32.98682
G1 X90.602 Y69.978 E39.15139
G1 X90.639 Y69.234 E39.20416
G1 X90.837 Y67.274 E39.34372
G1 X90.954 Y66.514 E39.3982
G1 X91.126 Y65.847 E39.447
G1 X91.699 Y63.98 E39.58535
G1 X91.962 Y63.257 E39.63986
G1 X92.256 Y62.646 E39.68789
G1 X93.188 Y60.913 E39.8273
G1 X93.587 Y60.255 E39.88181
G0 F3600 X93.929 Y60.464
G1 F1800 X94.308 Y59.961 E39.92643
G1 X95.55 Y58.457 E40.06461
G1 X96.056 Y57.906 E40.11761
G1 X96.518 Y57.493 E40.16151
G1 X98.037 Y56.252 E40.30047
G1 X98.641 Y55.81 E40.3535
G1 X99.184 Y55.49 E40.39815
G1 X100.923 Y54.567 E40.53762
G1 X101.602 Y54.252 E40.59065
G1 X102.193 Y54.046 E40.63499
G1 X104.062 Y53.485 E40.77323
G1 X104.789 Y53.308 E40.82624
G1 X105.389 Y53.223 E40.86917
G1 X107.311 Y53.034 E41.00599
G1 X107.996 Y53 E41.05458
G1 X112.004 Y53 E41.33852
G1 X112.69 Y53.034 E41.38718
G1 X114.63 Y53.225 E41.52528
G1 X115.369 Y53.338 E41.57824
G1 X115.966 Y53.489 E41.62187
G1 X117.839 Y54.054 E41.76047
G1 X118.542 Y54.308 E41.81342
G1 X119.114 Y54.581 E41.85832
G1 X120.843 Y55.504 E41.99717
G1 X121.483 Y55.891 E42.05016
G1 X121.984 Y56.266 E42.09449
G1 X123.5 Y57.509 E42.23338
G1 X124.053 Y58.013 E42.28638
G1 X124.465 Y58.472 E42.33008
G1 X125.712 Y59.986 E42.46904
G1 X126.156 Y60.588 E42.52203
G1 X126.477 Y61.127 E42.56647
G1 X127.404 Y62.855 E42.70539
G1 X127.722 Y63.532 E42.75838
G1 X127.933 Y64.127 E42.80311
G1 X128.502 Y65.998 E42.94165
G1 X128.681 Y66.725 E42.99469
G1 X128.771 Y67.342 E43.03887
G1 X128.966 Y69.301 E43.17834
G1 X129 Y69.994 E43.22749
G1 X129 Y150.004 E48.89572
G1 X128.966 Y150.695 E48.94474
G1 X128.772 Y152.652 E49.08406
G1 X128.658 Y153.391 E49.13703
G1 X128.504 Y153.995 E49.18119
G1 X127.936 Y155.865 E49.31965
G1 X127.68 Y156.569 E49.37271
G1 X127.409 Y157.135 E49.41717
G1 X126.486 Y158.859 E49.55571
G1 X126.098 Y159.499 E49.60873
G1 X125.723 Y160 E49.65307
G1 X124.476 Y161.517 E49.79219
G1 X123.97 Y162.069 E49.84524
G1 X123.513 Y162.48 E49.88878
G1 X122.003 Y163.721 E50.02724
G1 X121.4 Y164.164 E50.08025
G1 X120.857 Y164.487 E50.12501
G1 X119.128 Y165.411 E50.2639
G1 X118.451 Y165.728 E50.31686
G1 X117.861 Y165.936 E50.36117
G1 X115.985 Y166.505 E50.50006
G1 X115.258 Y166.683 E50.55308
G1 X114.639 Y166.772 E50.59739
G1 X112.69 Y166.964 E50.73613
G1 X112.005 Y166.998 E50.78472
G1 X100.995 Y166.999 E51.56471
G1 X100.171 Y166.95 E51.62319
G1 X99.495 Y166.87 E51.67141
G1 X98.758 Y166.743 E51.7244
G1 X97.974 Y166.515 E51.78224
G1 X97.341 Y166.29 E51.82983
G1 X96.65 Y166.002 E51.88287
G1 X95.933 Y165.603 E51.941
G1 X95.366 Y165.243 E51.98858
G1 X94.757 Y164.809 E52.04156
G1 X94.137 Y164.252 E52.1006
G1 X93.666 Y163.775 E52.14809
G1 X93.17 Y163.216 E52.20104
G1 X92.71 Y162.566 E52.25745
G1 X92.357 Y162.001 E52.30465
G1 X91.996 Y161.346 E52.35763
G1 X91.674 Y160.567 E52.41735
G1 X91.453 Y159.924 E52.46551
G1 X91.248 Y159.205 E52.51848
G1 X91.116 Y158.424 E52.5746
G1 X91.043 Y157.769 E52.62129
G1 X91 Y156.994 E52.67627
G1 X91.002 Y69.978 E58.84084
G1 X91.037 Y69.274 E58.89078
G1 X91.235 Y67.314 E59.03034
G1 X91.35 Y66.575 E59.08332
G1 X91.508 Y65.964 E59.12803
G1 X92.081 Y64.097 E59.26639
G1 X92.338 Y63.395 E59.31935
G1 X92.608 Y62.835 E59.36339
G1 X93.54 Y61.102 E59.50279
G1 X93.929 Y60.464 E59.55573
G0 F3600 X94.271 Y60.672
G1 F1800 X94.616 Y60.215 E59.5963
G1 X95.858 Y58.711 E59.73448
G1 X96.351 Y58.178 E59.78592
G1 X96.771 Y57.803 E59.8258
G1 X98.29 Y56.562 E59.96476
G1 X98.877 Y56.134 E60.01623
G1 X99.372 Y55.843 E60.05691
G1 X101.111 Y54.92 E60.19639
G1 X101.77 Y54.616 E60.2478
G1 X102.308 Y54.429 E60.28815
G1 X104.177 Y53.868 E60.42639
G1 X104.883 Y53.697 E60.47786
G1 X105.428 Y53.621 E60.51684
G1 X107.35 Y53.432 E60.65366
G1 X107.996 Y53.4 E60.69948
G1 X112.004 Y53.4 E60.98342
G1 X112.651 Y53.432 E61.02932
G1 X114.591 Y53.623 E61.16742
G1 X115.309 Y53.734 E61.21889
G1 X115.85 Y53.872 E61.25844
G1 X117.723 Y54.437 E61.39704
G1 X118.406 Y54.685 E61.44852
G1 X118.925 Y54.934 E61.4893
G1 X120.654 Y55.857 E61.62815
G1 X121.275 Y56.233 E61.67958
G1 X121.731 Y56.575 E61.71996
G1 X123.247 Y57.818 E61.85884
G1 X123.782 Y58.309 E61.91029
G1 X124.156 Y58.726 E61.94997
G1 X125.403 Y60.24 E62.08893
G1 X125.834 Y60.825 E62.1404
G1 X126.125 Y61.316 E62.18084
G1 X127.052 Y63.044 E62.31976
G1 X127.36 Y63.702 E62.37123
G1 X127.55 Y64.244 E62.41192
G1 X128.119 Y66.115 E62.55046
G1 X128.292 Y66.82 E62.60189
G1 X128.373 Y67.381 E62.64204
G1 X128.568 Y69.34 E62.78151
G1 X128.6 Y69.994 E62.8279
G1 X128.6 Y150.004 E68.49614
G1 X128.568 Y150.655 E68.54231
G1 X128.374 Y152.612 E68.68163
G1 X128.262 Y153.33 E68.73311
G1 X128.121 Y153.879 E68.77327
G1 X127.553 Y155.749 E68.91172
G1 X127.304 Y156.432 E68.96323
G1 X127.057 Y156.946 E69.00363
G1 X126.134 Y158.67 E69.14216
G1 X125.756 Y159.291 E69.19367
G1 X125.414 Y159.746 E69.23399
G1 X124.167 Y161.263 E69.37311
G1 X123.675 Y161.798 E69.4246
G1 X123.259 Y162.171 E69.46419
G1 X121.749 Y163.412 E69.60265
G1 X121.163 Y163.842 E69.65415
G1 X120.669 Y164.134 E69.6948
G1 X118.94 Y165.058 E69.83368
G1 X118.281 Y165.365 E69.88519
G1 X117.745 Y165.553 E69.92543
G1 X115.869 Y166.122 E70.06431
G1 X115.163 Y166.294 E70.11579
G1 X114.6 Y166.374 E70.15607
G1 X112.651 Y166.566 E70.29482
G1 X112.005 Y166.598 E70.34064
G1 X100.995 Y166.599 E71.12063
G1 X100.218 Y166.553 E71.17577
G1 X99.542 Y166.473 E71.224
G1 X98.827 Y166.348 E71.27542
G1 X98.108 Y166.138 E71.32849
G1 X97.475 Y165.913 E71.37608
G1 X96.805 Y165.632 E71.42755
G1 X96.147 Y165.266 E71.48089
G1 X95.58 Y164.906 E71.52847
G1 X94.989 Y164.483 E71.57996
G1 X94.422 Y163.971 E71.63408
G1 X93.951 Y163.494 E71.68157
G1 X93.47 Y162.95 E71.73302
G1 X93.05 Y162.354 E71.78467
G1 X92.697 Y161.789 E71.83187
G1 X92.346 Y161.153 E71.88333
G1 X92.052 Y160.437 E71.93816
G1 X91.831 Y159.794 E71.98633
G1 X91.633 Y159.095 E72.0378
G1 X91.514 Y158.38 E72.08915
G1 X91.441 Y157.725 E72.13584
G1 X91.4 Y156.994 E72.18771
G1 X91.402 Y69.978 E78.35228
G1 X91.435 Y69.315 E78.39931
G1 X91.633 Y67.355 E78.53887
G1 X91.746 Y66.637 E78.59036
G1 X91.89 Y66.082 E78.63098
G1 X92.463 Y64.215 E78.76934
G1 X92.714 Y63.533 E78.82082
G1 X92.96 Y63.025 E78.86081
G1 X93.892 Y61.292 E79.00021
G1 X94.271 Y60.672 E79.05169
G0 F3600 X94.613 Y60.881
G1 F1800 X94.924 Y60.47 E79.0882
G1 X96.166 Y58.966 E79.22638
G1 X96.645 Y58.45 E79.27626
G1 X97.024 Y58.113 E79.31219
G1 X98.543 Y56.872 E79.45115
G1 X99.113 Y56.458 E79.50106
G1 X99.559 Y56.197 E79.53767
G1 X101.298 Y55.274 E79.67714
G1 X101.938 Y54.979 E79.72707
G1 X102.423 Y54.812 E79.76341
G1 X104.292 Y54.251 E79.90165
G1 X104.976 Y54.087 E79.95148
G1 X105.467 Y54.019 E79.9866
G1 X107.389 Y53.83 E80.12342
G1 X107.996 Y53.8 E80.16647
G1 X112.004 Y53.8 E80.45042
G1 X112.611 Y53.83 E80.49347
G1 X114.551 Y54.021 E80.63157
G1 X115.247 Y54.129 E80.68147
G1 X115.735 Y54.255 E80.71718
G1 X117.608 Y54.82 E80.85577
G1 X118.269 Y55.061 E80.90562
G1 X118.737 Y55.287 E80.94244
G1 X120.466 Y56.21 E81.08129
G1 X121.067 Y56.576 E81.13114
G1 X121.477 Y56.885 E81.16751
G1 X122.993 Y58.128 E81.30639
G1 X123.511 Y58.604 E81.35623
G1 X123.848 Y58.98 E81.392
G1 X125.095 Y60.494 E81.53096
G1 X125.511 Y61.062 E81.58084
G1 X125.772 Y61.505 E81.61726
G1 X126.699 Y63.233 E81.75618
G1 X126.997 Y63.871 E81.80607
G1 X127.168 Y64.36 E81.84277
G1 X127.737 Y66.231 E81.98131
G1 X127.903 Y66.915 E82.03118
G1 X127.975 Y67.421 E82.06738
G1 X128.17 Y69.38 E82.20685
G1 X128.2 Y69.994 E82.2504
G1 X128.2 Y150.004 E87.91864
G1 X128.17 Y150.616 E87.96205
G1 X127.976 Y152.573 E88.10137
G1 X127.867 Y153.268 E88.15121
G1 X127.738 Y153.763 E88.18745
G1 X127.17 Y155.633 E88.3259
G1 X126.928 Y156.294 E88.37577
G1 X126.704 Y156.757 E88.41221
G1 X125.781 Y158.481 E88.55075
G1 X125.414 Y159.082 E88.60063
G1 X125.105 Y159.492 E88.637
G1 X123.858 Y161.009 E88.77612
G1 X123.38 Y161.527 E88.82606
G1 X123.005 Y161.862 E88.86168
G1 X121.495 Y163.103 E89.00015
G1 X120.926 Y163.518 E89.05004
G1 X120.48 Y163.781 E89.08672
G1 X118.751 Y164.705 E89.22561
G1 X118.113 Y165.001 E89.27543
G1 X117.629 Y165.17 E89.31175
G1 X115.753 Y165.739 E89.45063
G1 X115.068 Y165.905 E89.50057
G1 X114.561 Y165.976 E89.53683
G1 X112.612 Y166.168 E89.67558
G1 X112.005 Y166.198 E89.71863
G1 X100.995 Y166.199 E90.49863
G1 X100.265 Y166.156 E90.55043
G1 X99.589 Y166.076 E90.59866
G1 X98.896 Y165.954 E90.64851
G1 X98.241 Y165.761 E90.69688
G1 X97.608 Y165.536 E90.74447
G1 X96.96 Y165.263 E90.79429
G1 X96.362 Y164.928 E90.84285
G1 X95.795 Y164.568 E90.89043
G1 X95.223 Y164.158 E90.94029
G1 X94.706 Y163.69 E90.98969
G1 X94.235 Y163.213 E91.03718
G1 X93.77 Y162.685 E91.08703
G1 X93.389 Y162.142 E91.13402
G1 X93.036 Y161.577 E91.18122
G1 X92.697 Y160.96 E91.23109
G1 X92.431 Y160.307 E91.28104
G1 X92.21 Y159.664 E91.32921
G1 X92.019 Y158.987 E91.37904
G1 X91.911 Y158.336 E91.42579
G1 X91.838 Y157.681 E91.47248
G1 X91.8 Y156.994 E91.52123
G1 X91.802 Y69.978 E97.6858
G1 X91.833 Y69.355 E97.72999
G1 X92.031 Y67.395 E97.86955
G1 X92.142 Y66.7 E97.91941
G1 X92.273 Y66.199 E97.9561
G1 X92.846 Y64.332 E98.09445
G1 X93.09 Y63.672 E98.1443
G1 X93.313 Y63.214 E98.18039
G1 X94.245 Y61.481 E98.31979
G1 X94.613 Y60.881 E98.36965
G0 F3600 X94.954 Y61.091
G1 F1800 X95.233 Y60.725 E98.40226
G1 X96.475 Y59.221 E98.54044
G1 X96.938 Y58.722 E98.58867
G1 X97.277 Y58.422 E98.62074
G1 X98.796 Y57.181 E98.7597
G1 X99.348 Y56.782 E98.80795
G1 X99.747 Y56.55 E98.84065
G1 X101.486 Y55.627 E98.98012
G1 X102.105 Y55.344 E99.02834
G1 X102.538 Y55.195 E99.06078
G1 X104.407 Y54.634 E99.19902
G1 X105.069 Y54.477 E99.24722
G1 X105.506 Y54.417 E99.27847
G1 X107.428 Y54.228 E99.41529
G1 X107.996 Y54.2 E99.45558
G1 X112.004 Y54.2 E99.73952
G1 X112.572 Y54.228 E99.77981
G1 X114.512 Y54.419 E99.91791
G1 X115.185 Y54.525 E99.96618
G1 X115.619 Y54.638 E99.99795
G1 X117.492 Y55.203 E100.13655
G1 X118.131 Y55.438 E100.18478
G1 X118.548 Y55.639 E100.21758
G1 X120.277 Y56.562 E100.35643
G1 X120.858 Y56.918 E100.4047
G1 X121.223 Y57.194 E100.43712
G1 X122.739 Y58.437 E100.576
