;FLAVOR:Marlin
;TIME:3474
;Filament used: 9.67687m
;Layer height: 0.3
;Generated with Cura_SteamEngine 3.6.0
M140 S60
M105
M190 S60
M104 S210
M105
M109 S210
M82 ;absolute extrusion mode
G21 ;metric values
G90 ;absolute positioning
M82 ;set extruder to absolute mode
M107 ;start with the fan off
G28 X0 Y0 ;move X/Y to min endstops
G28 Z0 ;move Z to min endstops
G1 Z15.0 F9000 ;move the platform down 15mm
G92 E0 ;zero the extruded length
G1 F200 E3 ;extrude 3mm of feed stock
G92 E0 ;zero the extruded length again
G1 F9000
;Put printing message on LCD screen
M117 Printing...
G92 E0
G1 F1500 E-4.2
;LAYER_COUNT:116
;LAYER:0
M107
G0 F3600 X51.521 Y117.435 Z0.3
;TYPE:SKIRT
G1 F1500 E0
G1 F1800 X109.821 Y83.774 E4.76921
G1 X110.428 Y83.458 E4.81769
G1 X111.856 Y82.793 E4.92929
G1 X112.588 Y82.496 E4.98525
G1 X113.126 Y82.331 E5.02512
G1 X114.645 Y81.923 E5.13654
G1 X115.417 Y81.757 E5.19248
G1 X115.995 Y81.685 E5.23375
G1 X117.566 Y81.549 E5.34546
G1 X118.232 Y81.52 E5.39269
G1 X135.001 Y81.505 E6.58067
G1 X135.79 Y81.544 E6.63664
G1 X136.57 Y81.663 E6.69253
G1 X137.335 Y81.86 E6.7485
G1 X138.076 Y82.134 E6.80447
G1 X138.785 Y82.481 E6.86039
G1 X139.456 Y82.898 E6.91636
G1 X140.081 Y83.38 E6.97227
G1 X140.654 Y83.923 E7.0282
G1 X141.169 Y84.522 E7.08416
G1 X141.776 Y85.427 E7.16136
G1 X143.928 Y89.182 E7.46797
G1 X144.424 Y89.892 E7.52933
G1 X144.815 Y90.282 E7.56845
G1 X145.264 Y90.597 E7.60731
G1 X145.755 Y90.826 E7.64569
G1 X146.289 Y90.969 E7.68485
G1 X147.171 Y91.046 E7.74758
G1 X164.06 Y91.047 E8.94406
G1 X164.849 Y91.087 E9.00003
G1 X165.63 Y91.207 E9.05601
G1 X166.747 Y91.524 E9.13827
G1 X167.363 Y91.75 E9.18475
G1 X168.089 Y92.059 E9.24065
G1 X168.781 Y92.441 E9.29665
G1 X169.43 Y92.89 E9.35255
G1 X170.031 Y93.402 E9.40849
G1 X170.577 Y93.973 E9.46446
G1 X171.063 Y94.595 E9.52038
G1 X171.375 Y95.077 E9.56105
G1 X171.78 Y95.756 E9.61706
G1 X172.15 Y96.454 E9.67303
G1 X172.447 Y97.186 E9.729
G1 X172.668 Y97.944 E9.78493
G1 X172.812 Y98.72 E9.84084
G1 X172.881 Y99.754 E9.91426
G1 X172.88 Y104.005 E10.21542
G1 X172.84 Y104.793 E10.27132
G1 X172.72 Y105.574 E10.32729
G1 X172.522 Y106.339 E10.38328
G1 X172.136 Y107.328 E10.45849
G1 X171.898 Y107.833 E10.49804
G1 X171.525 Y108.53 E10.55404
G1 X171.084 Y109.185 E10.60998
G1 X170.454 Y109.925 E10.67883
G1 X170.288 Y110.097 E10.69577
G1 X169.712 Y110.636 E10.75165
G1 X169.084 Y111.115 E10.80761
G1 X168.411 Y111.528 E10.86355
G1 X167.373 Y111.999 E10.9443
G1 X166.757 Y112.226 E10.99081
G1 X166.003 Y112.461 E11.04676
G1 X165.229 Y112.619 E11.10272
G1 X164.06 Y112.707 E11.18577
G1 X131.14 Y112.709 E13.51796
G1 X130.352 Y112.669 E13.57386
G1 X129.571 Y112.55 E13.62983
G1 X128.807 Y112.352 E13.68574
G1 X127.79 Y111.953 E13.76313
G1 X127.279 Y111.71 E13.80322
G1 X126.584 Y111.335 E13.85917
G1 X125.931 Y110.892 E13.91507
G1 X125.478 Y110.523 E13.95646
G1 X125.163 Y110.246 E13.98618
G1 X124.597 Y109.696 E14.04209
G1 X124.09 Y109.09 E14.09806
G1 X123.554 Y108.281 E14.16682
G1 X122.308 Y106.117 E14.34372
G1 X121.799 Y105.39 E14.40659
G1 X121.42 Y105.01 E14.44461
G1 X120.967 Y104.693 E14.48378
G1 X120.474 Y104.463 E14.52232
G1 X119.94 Y104.32 E14.56149
G1 X119.311 Y104.265 E14.60622
G1 X119.114 Y104.278 E14.6202
G1 X118.394 Y104.446 E14.67258
G1 X117.485 Y104.858 E14.74328
G1 X61.666 Y137.11 E19.31037
G1 X60.963 Y137.47 E19.36632
G1 X60.228 Y137.757 E19.42222
G1 X59.467 Y137.968 E19.47817
G1 X58.688 Y138.101 E19.53415
G1 X57.9 Y138.155 E19.59011
G1 X57.111 Y138.129 E19.64604
G1 X56.329 Y138.023 E19.70194
G1 X55.561 Y137.838 E19.75791
G1 X54.816 Y137.577 E19.81383
G1 X54.101 Y137.242 E19.86977
G1 X53.423 Y136.836 E19.92575
G1 X52.79 Y136.364 E19.98169
G1 X52.208 Y135.831 E20.0376
G1 X51.683 Y135.241 E20.09355
G1 X51.22 Y134.601 E20.14951
G1 X50.987 Y134.217 E20.18133
G1 X48.212 Y129.346 E20.57849
G1 X47.856 Y128.641 E20.63444
G1 X47.573 Y127.904 E20.69037
G1 X47.367 Y127.141 E20.74636
G1 X47.216 Y126.139 E20.81814
G1 X47.169 Y125.58 E20.85788
G1 X47.143 Y124.79 E20.91388
G1 X47.197 Y124.002 E20.96984
G1 X47.381 Y123.011 E21.04124
G1 X47.439 Y122.782 E21.05798
G1 X47.671 Y122.027 E21.11394
G1 X47.979 Y121.3 E21.16987
G1 X48.358 Y120.607 E21.22583
G1 X48.999 Y119.714 E21.3037
G1 X49.42 Y119.207 E21.35039
G1 X49.955 Y118.626 E21.40634
G1 X50.545 Y118.102 E21.46224
G1 X51.521 Y117.435 E21.54599
G0 F3600 X51.721 Y117.781
G1 F1800 X110.021 Y84.12 E26.3152
G1 X110.597 Y83.821 E26.36118
G1 X112.025 Y83.156 E26.47277
G1 X112.738 Y82.868 E26.52725
G1 X113.229 Y82.717 E26.56364
G1 X114.748 Y82.309 E26.67507
G1 X115.501 Y82.149 E26.72961
G1 X116.03 Y82.084 E26.76737
G1 X117.601 Y81.948 E26.87908
G1 X118.232 Y81.92 E26.92382
G1 X135.001 Y81.905 E28.11181
G1 X135.77 Y81.944 E28.16636
G1 X136.529 Y82.063 E28.22079
G1 X137.273 Y82.26 E28.27531
G1 X137.992 Y82.533 E28.3298
G1 X138.679 Y82.88 E28.38432
G1 X139.326 Y83.295 E28.43878
G1 X139.926 Y83.776 E28.49326
G1 X140.474 Y84.316 E28.54776
G1 X140.962 Y84.911 E28.60228
G1 X141.429 Y85.626 E28.66278
G1 X143.59 Y89.397 E28.97069
G1 X144.117 Y90.151 E29.03586
G1 X144.556 Y90.589 E29.07979
G1 X145.06 Y90.943 E29.12342
G1 X145.623 Y91.205 E29.16742
G1 X146.213 Y91.363 E29.21069
G1 X147.159 Y91.446 E29.27796
G1 X164.06 Y91.447 E30.4753
G1 X164.829 Y91.487 E30.52985
G1 X165.588 Y91.607 E30.58429
G1 X166.609 Y91.9 E30.65954
G1 X167.225 Y92.126 E30.70602
G1 X167.932 Y92.428 E30.76049
G1 X168.604 Y92.802 E30.81497
G1 X169.234 Y93.243 E30.86945
G1 X169.815 Y93.748 E30.92399
G1 X170.34 Y94.31 E30.97847
G1 X170.803 Y94.924 E31.03295
G1 X171.031 Y95.282 E31.06302
G1 X171.436 Y95.961 E31.11903
G1 X171.795 Y96.641 E31.17351
G1 X172.082 Y97.355 E31.22802
G1 X172.293 Y98.095 E31.28254
G1 X172.426 Y98.852 E31.33699
G1 X172.481 Y99.754 E31.40101
G1 X172.48 Y104.005 E31.70217
G1 X172.44 Y104.773 E31.75665
G1 X172.32 Y105.533 E31.81116
G1 X172.122 Y106.276 E31.86563
G1 X171.774 Y107.158 E31.9328
G1 X171.536 Y107.663 E31.97235
G1 X171.172 Y108.341 E32.02687
G1 X170.74 Y108.977 E32.08134
G1 X170.167 Y109.647 E32.14379
G1 X170.001 Y109.819 E32.16073
G1 X169.438 Y110.344 E32.21526
G1 X168.825 Y110.808 E32.26973
G1 X168.166 Y111.205 E32.32423
G1 X167.235 Y111.624 E32.39656
G1 X166.619 Y111.851 E32.44307
G1 X165.884 Y112.079 E32.49759
G1 X165.13 Y112.229 E32.55205
G1 X164.06 Y112.307 E32.62806
G1 X131.14 Y112.309 E34.96024
G1 X130.372 Y112.269 E35.01473
G1 X129.613 Y112.15 E35.06915
G1 X128.869 Y111.952 E35.1237
G1 X127.962 Y111.592 E35.19283
G1 X127.451 Y111.349 E35.23291
G1 X126.775 Y110.983 E35.28737
G1 X126.14 Y110.549 E35.34186
G1 X125.742 Y110.223 E35.37831
G1 X125.427 Y109.946 E35.40803
G1 X124.877 Y109.409 E35.46248
G1 X124.385 Y108.817 E35.51702
G1 X123.901 Y108.081 E35.57942
G1 X122.646 Y105.901 E35.75762
G1 X122.113 Y105.14 E35.82344
G1 X121.672 Y104.699 E35.86763
G1 X121.166 Y104.344 E35.91142
G1 X120.611 Y104.085 E35.95481
G1 X120.015 Y103.926 E35.99851
G1 X119.313 Y103.864 E36.04843
G1 X119.057 Y103.881 E36.06661
G1 X118.264 Y104.066 E36.1243
G1 X117.294 Y104.506 E36.19975
G1 X61.466 Y136.763 E40.76757
G1 X60.781 Y137.113 E40.82206
G1 X60.063 Y137.39 E40.87658
G1 X59.321 Y137.59 E40.93103
G1 X58.561 Y137.713 E40.98557
G1 X57.794 Y137.756 E41.03999
G1 X57.025 Y137.719 E41.09453
G1 X56.265 Y137.603 E41.149
G1 X55.521 Y137.408 E41.20349
G1 X54.801 Y137.137 E41.25799
G1 X54.113 Y136.793 E41.31248
G1 X53.465 Y136.379 E41.36696
G1 X52.863 Y135.9 E41.42146
G1 X52.314 Y135.362 E41.47591
G1 X51.824 Y134.769 E41.53041
G1 X51.334 Y134.019 E41.59388
G1 X48.559 Y129.148 E41.99103
G1 X48.214 Y128.461 E42.04549
G1 X47.941 Y127.741 E42.10004
G1 X47.745 Y126.998 E42.15448
G1 X47.615 Y126.105 E42.21841
G1 X47.568 Y125.546 E42.25815
G1 X47.543 Y124.777 E42.31266
G1 X47.599 Y124.01 E42.36714
G1 X47.769 Y123.109 E42.4321
G1 X47.827 Y122.88 E42.44884
G1 X48.054 Y122.145 E42.50333
G1 X48.356 Y121.438 E42.5578
G1 X48.73 Y120.766 E42.61228
G1 X49.307 Y119.97 E42.68193
G1 X49.728 Y119.463 E42.72862
G1 X50.249 Y118.897 E42.78312
G1 X50.827 Y118.389 E42.83763
G1 X51.721 Y117.781 E42.91423
G0 F3600 X51.921 Y118.128
G1 F1800 X110.221 Y84.467 E47.68343
G1 X110.766 Y84.183 E47.72697
G1 X112.194 Y83.518 E47.83857
G1 X112.888 Y83.239 E47.89156
G1 X113.333 Y83.104 E47.9245
G1 X114.852 Y82.696 E48.03593
G1 X115.584 Y82.54 E48.08895
G1 X116.064 Y82.482 E48.1232
G1 X117.635 Y82.346 E48.23492
G1 X118.233 Y82.32 E48.27732
G1 X135.002 Y82.305 E49.46531
G1 X135.749 Y82.344 E49.5183
G1 X136.487 Y82.463 E49.57126
G1 X137.209 Y82.66 E49.62428
G1 X137.906 Y82.933 E49.67731
G1 X138.569 Y83.278 E49.73026
G1 X139.192 Y83.693 E49.78329
G1 X139.767 Y84.171 E49.83626
G1 X140.287 Y84.709 E49.88927
G1 X140.748 Y85.298 E49.94226
G1 X141.082 Y85.825 E49.98646
G1 X143.25 Y89.609 E50.29541
G1 X143.811 Y90.411 E50.36475
G1 X144.296 Y90.895 E50.41329
G1 X144.862 Y91.292 E50.46227
G1 X145.482 Y91.581 E50.51073
G1 X146.148 Y91.759 E50.55957
G1 X147.136 Y91.846 E50.62983
G1 X164.06 Y91.847 E51.8288
G1 X164.807 Y91.887 E51.8818
G1 X165.546 Y92.007 E51.93484
G1 X166.471 Y92.275 E52.00306
G1 X167.087 Y92.501 E52.04955
G1 X167.775 Y92.796 E52.10258
G1 X168.427 Y93.163 E52.15558
G1 X169.036 Y93.597 E52.20856
G1 X169.595 Y94.093 E52.26151
G1 X170.099 Y94.647 E52.31456
G1 X170.688 Y95.487 E52.38725
G1 X171.093 Y96.166 E52.44326
G1 X171.441 Y96.828 E52.49624
G1 X171.717 Y97.524 E52.54928
G1 X171.917 Y98.244 E52.60222
G1 X172.039 Y98.983 E52.65528
G1 X172.081 Y99.754 E52.70999
G1 X172.08 Y104.005 E53.01114
G1 X172.04 Y104.752 E53.06414
G1 X171.92 Y105.49 E53.11711
G1 X171.722 Y106.212 E53.17015
G1 X171.412 Y106.987 E53.22928
G1 X171.174 Y107.492 E53.26883
G1 X170.819 Y108.151 E53.32186
G1 X170.397 Y108.768 E53.37482
G1 X169.879 Y109.369 E53.43103
G1 X169.713 Y109.541 E53.44796
G1 X169.165 Y110.051 E53.501
G1 X168.567 Y110.499 E53.55393
G1 X167.923 Y110.881 E53.60698
G1 X167.096 Y111.248 E53.67107
G1 X166.48 Y111.475 E53.71758
G1 X165.766 Y111.696 E53.77053
G1 X165.031 Y111.839 E53.82358
G1 X164.06 Y111.907 E53.89254
G1 X131.14 Y111.909 E56.22473
G1 X130.393 Y111.869 E56.27772
G1 X129.655 Y111.75 E56.33068
G1 X128.933 Y111.552 E56.38372
G1 X128.134 Y111.231 E56.44472
G1 X127.623 Y110.988 E56.48481
G1 X126.965 Y110.631 E56.53784
G1 X126.35 Y110.206 E56.5908
G1 X126.006 Y109.923 E56.62236
G1 X125.691 Y109.646 E56.65208
G1 X125.157 Y109.122 E56.70508
G1 X124.681 Y108.545 E56.75807
G1 X124.248 Y107.882 E56.81417
G1 X122.984 Y105.686 E56.99367
G1 X122.42 Y104.881 E57.06331
G1 X121.929 Y104.389 E57.11255
G1 X121.372 Y104 E57.16068
G1 X120.747 Y103.708 E57.20955
G1 X120.08 Y103.53 E57.25846
G1 X119.322 Y103.463 E57.31237
G1 X118.995 Y103.484 E57.33558
G1 X118.134 Y103.685 E57.39822
G1 X117.12 Y104.146 E57.47713
G1 X61.266 Y136.417 E62.04703
G1 X60.599 Y136.756 E62.10004
G1 X59.9 Y137.022 E62.15302
G1 X59.176 Y137.212 E62.20605
G1 X58.437 Y137.324 E62.259
G1 X57.689 Y137.356 E62.31204
G1 X56.943 Y137.308 E62.365
G1 X56.206 Y137.18 E62.41799
G1 X55.486 Y136.975 E62.47103
G1 X54.793 Y136.694 E62.52401
G1 X54.134 Y136.341 E62.57697
G1 X53.516 Y135.919 E62.62998
G1 X52.946 Y135.434 E62.68301
G1 X52.432 Y134.891 E62.73598
G1 X51.978 Y134.296 E62.789
G1 X51.682 Y133.821 E62.82865
G1 X48.907 Y128.95 E63.2258
G1 X48.572 Y128.281 E63.2788
G1 X48.31 Y127.58 E63.33182
G1 X48.125 Y126.856 E63.38476
G1 X48.014 Y126.071 E63.44093
G1 X47.967 Y125.512 E63.48067
G1 X47.944 Y124.765 E63.53361
G1 X48.001 Y124.019 E63.58662
G1 X48.156 Y123.207 E63.64518
G1 X48.214 Y122.978 E63.66192
G1 X48.436 Y122.264 E63.71489
G1 X48.734 Y121.577 E63.76794
G1 X49.102 Y120.927 E63.82086
G1 X49.615 Y120.225 E63.88245
G1 X50.036 Y119.718 E63.92914
G1 X50.544 Y119.169 E63.98213
G1 X51.107 Y118.677 E64.0351
G1 X51.921 Y118.128 E64.10465
G0 F3600 X52.121 Y118.474
G1 F1800 X110.421 Y84.813 E68.87386
G1 X110.935 Y84.546 E68.9149
G1 X112.363 Y83.881 E69.02649
G1 X113.037 Y83.611 E69.07793
G1 X113.437 Y83.49 E69.10754
G1 X114.956 Y83.082 E69.21896
G1 X115.667 Y82.932 E69.27044
G1 X116.099 Y82.881 E69.30126
G1 X117.67 Y82.745 E69.41297
G1 X118.233 Y82.72 E69.4529
G1 X135.002 Y82.705 E70.64088
G1 X135.727 Y82.744 E70.69232
G1 X136.444 Y82.863 E70.74381
G1 X137.143 Y83.06 E70.79526
G1 X137.816 Y83.332 E70.84668
G1 X138.456 Y83.677 E70.89819
G1 X139.053 Y84.09 E70.94962
G1 X139.602 Y84.566 E71.00109
G1 X140.095 Y85.1 E71.05258
G1 X140.526 Y85.684 E71.104
G1 X140.735 Y86.024 E71.13228
G1 X142.912 Y89.824 E71.44253
G1 X143.501 Y90.667 E71.51539
G1 X144.041 Y91.205 E71.56939
G1 X144.659 Y91.638 E71.62285
G1 X145.35 Y91.961 E71.67689
G1 X146.073 Y92.154 E71.7299
G1 X147.124 Y92.246 E71.80464
G1 X164.06 Y92.247 E73.00446
G1 X164.786 Y92.287 E73.05597
G1 X165.502 Y92.406 E73.10739
G1 X166.333 Y92.651 E73.16876
G1 X166.949 Y92.877 E73.21525
G1 X167.616 Y93.164 E73.26669
G1 X168.248 Y93.523 E73.31818
G1 X168.836 Y93.949 E73.36962
G1 X169.374 Y94.437 E73.42108
G1 X169.855 Y94.982 E73.47258
G1 X170.344 Y95.692 E73.53365
G1 X170.749 Y96.371 E73.58966
G1 X171.086 Y97.014 E73.64109
G1 X171.351 Y97.691 E73.6926
G1 X171.539 Y98.392 E73.74401
G1 X171.65 Y99.11 E73.79548
G1 X171.681 Y99.754 E73.84116
G1 X171.68 Y104.005 E74.14232
G1 X171.64 Y104.73 E74.19376
G1 X171.52 Y105.446 E74.24519
G1 X171.323 Y106.145 E74.29664
G1 X171.05 Y106.817 E74.34803
G1 X170.812 Y107.322 E74.38758
G1 X170.467 Y107.961 E74.43902
G1 X170.053 Y108.558 E74.49049
G1 X169.591 Y109.091 E74.54046
G1 X169.425 Y109.263 E74.5574
G1 X168.893 Y109.757 E74.60883
G1 X168.309 Y110.19 E74.66033
G1 X167.682 Y110.556 E74.71176
G1 X166.958 Y110.873 E74.76776
G1 X166.342 Y111.1 E74.81427
G1 X165.648 Y111.313 E74.8657
G1 X164.934 Y111.449 E74.91719
G1 X164.06 Y111.507 E74.97924
G1 X131.14 Y111.509 E77.31143
G1 X130.415 Y111.469 E77.36287
G1 X129.699 Y111.35 E77.41429
G1 X129 Y111.152 E77.46576
G1 X128.306 Y110.869 E77.51885
G1 X127.795 Y110.626 E77.55894
G1 X127.157 Y110.279 E77.61039
G1 X126.561 Y109.863 E77.66188
G1 X126.271 Y109.622 E77.6886
G1 X125.956 Y109.345 E77.71831
G1 X125.437 Y108.836 E77.76981
G1 X124.978 Y108.274 E77.82122
G1 X124.594 Y107.682 E77.87121
G1 X123.324 Y105.476 E78.05154
G1 X122.724 Y104.619 E78.12565
G1 X122.188 Y104.082 E78.1794
G1 X121.571 Y103.651 E78.23272
G1 X120.884 Y103.33 E78.28644
G1 X120.155 Y103.135 E78.3399
G1 X119.324 Y103.062 E78.399
G1 X118.932 Y103.088 E78.42683
G1 X118.007 Y103.304 E78.49413
G1 X116.94 Y103.788 E78.57713
G1 X61.066 Y136.071 E83.14869
G1 X60.418 Y136.399 E83.20014
G1 X59.738 Y136.654 E83.25159
G1 X59.034 Y136.833 E83.30305
G1 X58.314 Y136.933 E83.35455
G1 X57.588 Y136.954 E83.406
G1 X56.864 Y136.894 E83.45747
G1 X56.151 Y136.756 E83.50892
G1 X55.458 Y136.54 E83.56034
G1 X54.792 Y136.249 E83.61183
G1 X54.163 Y135.887 E83.66325
G1 X53.577 Y135.458 E83.7147
G1 X53.041 Y134.967 E83.76619
G1 X52.563 Y134.42 E83.81766
G1 X52.029 Y133.623 E83.88562
G1 X49.254 Y128.752 E84.28277
G1 X48.93 Y128.102 E84.33423
G1 X48.679 Y127.42 E84.38571
G1 X48.505 Y126.715 E84.43715
G1 X48.412 Y126.038 E84.48556
G1 X48.365 Y125.479 E84.52531
G1 X48.344 Y124.753 E84.57676
G1 X48.403 Y124.029 E84.62822
G1 X48.544 Y123.306 E84.68041
G1 X48.602 Y123.077 E84.69714
G1 X48.819 Y122.383 E84.74866
G1 X49.111 Y121.718 E84.80011
G1 X49.474 Y121.089 E84.85156
G1 X49.922 Y120.481 E84.90506
G1 X50.343 Y119.974 E84.95175
G1 X50.837 Y119.441 E85.00323
G1 X51.387 Y118.966 E85.05472
G1 X52.121 Y118.474 E85.11732
G0 F3600 X52.321 Y118.821
G1 F1800 X110.621 Y85.16 E89.88653
G1 X111.104 Y84.909 E89.92509
G1 X112.532 Y84.244 E90.03668
G1 X113.186 Y83.983 E90.08657
G1 X113.541 Y83.876 E90.11284
G1 X115.06 Y83.468 E90.22426
G1 X115.749 Y83.325 E90.27412
G1 X116.133 Y83.279 E90.30151
G1 X117.704 Y83.143 E90.41323
G1 X118.233 Y83.12 E90.45074
G1 X135.002 Y83.105 E91.63872
G1 X135.705 Y83.144 E91.6886
G1 X136.399 Y83.263 E91.73849
G1 X137.075 Y83.46 E91.78837
G1 X137.725 Y83.732 E91.83829
G1 X138.339 Y84.076 E91.88815
G1 X138.91 Y84.487 E91.93799
G1 X139.431 Y84.96 E91.98784
G1 X139.895 Y85.49 E92.03774
G1 X140.388 Y86.223 E92.10032
G1 X142.574 Y90.039 E92.41188
G1 X143.194 Y90.926 E92.48855
G1 X143.781 Y91.511 E92.54726
G1 X144.457 Y91.985 E92.60575
G1 X145.213 Y92.337 E92.66483
G1 X146.009 Y92.55 E92.72321
