;FLAVOR:Marlin
;TIME:7497
;Filament used: 19.1054m
;Layer height: 0.3
;Generated with Cura_SteamEngine 3.6.0
M140 S60
M105
M190 S60
M104 S210
M105
M109 S210
M82 ;absolute extrusion mode
G21 ;metric values
G90 ;absolute positioning
M82 ;set extruder to absolute mode
M107 ;start with the fan off
G28 X0 Y0 ;move X/Y to min endstops
G28 Z0 ;move Z to min endstops
G1 Z15.0 F9000 ;move the platform down 15mm
G92 E0 ;zero the extruded length
G1 F200 E3 ;extrude 3mm of feed stock
G92 E0 ;zero the extruded length again
G1 F9000
;Put printing message on LCD screen
M117 Printing...
G92 E0
G1 F1500 E-4.2
;LAYER_COUNT:215
;LAYER:0
M107
G0 F3600 X71.102 Y73.882 Z0.3
;TYPE:SKIRT
G1 F1500 E0
G1 F1800 X71.616 Y73.449 E0.04761
G1 X72.168 Y73.023 E0.09701
G1 X72.816 Y72.573 E0.1529
G1 X73.507 Y72.191 E0.20884
G1 X74.362 Y71.834 E0.27448
G1 X74.72 Y71.709 E0.30134
G1 X75.478 Y71.487 E0.3573
G1 X76.254 Y71.342 E0.41322
G1 X77.041 Y71.277 E0.46917
G1 X77.939 Y71.3 E0.5328
G1 X78.815 Y71.373 E0.59508
G1 X79.597 Y71.478 E0.65098
G1 X80.365 Y71.662 E0.70692
G1 X81.111 Y71.923 E0.76292
G1 X82.067 Y72.391 E0.83832
G1 X156.543 Y115.39 E6.93074
G1 X157.206 Y115.819 E6.98669
G1 X157.822 Y116.313 E7.04263
G1 X158.385 Y116.866 E7.09854
G1 X158.835 Y117.402 E7.14812
G1 X159.434 Y118.184 E7.2179
G1 X159.882 Y118.834 E7.27383
G1 X160.262 Y119.527 E7.32982
G1 X160.57 Y120.254 E7.38575
G1 X160.802 Y121.008 E7.44164
G1 X160.958 Y121.783 E7.49765
G1 X161.034 Y122.569 E7.55359
G1 X161.03 Y123.358 E7.60949
G1 X160.986 Y123.862 E7.64533
G1 X160.865 Y124.864 E7.71683
G1 X160.731 Y125.642 E7.77276
G1 X160.518 Y126.403 E7.82874
G1 X160.23 Y127.138 E7.88467
G1 X159.877 Y127.828 E7.93958
G1 X150.379 Y144.284 E9.28564
G1 X149.95 Y144.947 E9.34158
G1 X149.456 Y145.564 E9.39758
G1 X148.902 Y146.127 E9.45353
G1 X148.104 Y146.769 E9.52609
G1 X147.235 Y147.379 E9.60131
G1 X146.567 Y147.8 E9.65725
G1 X145.859 Y148.15 E9.7132
G1 X145.12 Y148.428 E9.76913
G1 X144.356 Y148.629 E9.8251
G1 X143.576 Y148.752 E9.88104
G1 X142.788 Y148.795 E9.93695
G1 X141.627 Y148.713 E10.0194
G1 X140.709 Y148.579 E10.08513
G1 X139.935 Y148.426 E10.14102
G1 X139.18 Y148.195 E10.19696
G1 X138.452 Y147.889 E10.2529
G1 X137.936 Y147.616 E10.29426
G1 X63.459 Y104.619 E16.38667
G1 X62.796 Y104.19 E16.44262
G1 X62.18 Y103.696 E16.49856
G1 X61.617 Y103.143 E16.55446
G1 X61.169 Y102.61 E16.60379
G1 X60.745 Y102.057 E16.65316
G1 X60.297 Y101.407 E16.70908
G1 X59.917 Y100.715 E16.76501
G1 X59.577 Y99.901 E16.82751
G1 X59.451 Y99.543 E16.8544
G1 X59.227 Y98.785 E16.91039
G1 X59.081 Y98.009 E16.96633
G1 X59.014 Y97.223 E17.02222
G1 X59.037 Y96.296 E17.08791
G1 X59.111 Y95.42 E17.15019
G1 X59.217 Y94.638 E17.2061
G1 X59.402 Y93.87 E17.26206
G1 X59.663 Y93.125 E17.31799
G1 X60.128 Y92.177 E17.39279
G1 X69.626 Y75.724 E18.73867
G1 X70.055 Y75.061 E18.79461
G1 X70.548 Y74.445 E18.85051
G1 X71.102 Y73.882 E18.90646
G0 F3600 X71.417 Y74.136
G1 F1800 X71.86 Y73.766 E18.94735
G1 X72.412 Y73.34 E18.99675
G1 X73.044 Y72.902 E19.05123
G1 X73.719 Y72.532 E19.10576
G1 X74.494 Y72.212 E19.16516
G1 X74.852 Y72.087 E19.19202
G1 X75.59 Y71.871 E19.2465
G1 X76.347 Y71.733 E19.30101
G1 X77.114 Y71.675 E19.3555
G1 X77.906 Y71.699 E19.41164
G1 X78.782 Y71.772 E19.47391
G1 X79.544 Y71.875 E19.52839
G1 X80.291 Y72.057 E19.58286
G1 X81.015 Y72.316 E19.63733
G1 X81.867 Y72.737 E19.70466
G1 X156.343 Y115.736 E25.79708
G1 X156.988 Y116.155 E25.85157
G1 X157.587 Y116.638 E25.90608
G1 X158.131 Y117.181 E25.96053
G1 X158.518 Y117.645 E26.00334
G1 X159.117 Y118.427 E26.07312
G1 X159.552 Y119.061 E26.12759
G1 X159.919 Y119.737 E26.18209
G1 X160.214 Y120.447 E26.23655
G1 X160.434 Y121.184 E26.29104
G1 X160.576 Y121.94 E26.34554
G1 X160.639 Y122.707 E26.40006
G1 X160.589 Y123.814 E26.47856
G1 X160.468 Y124.816 E26.55006
G1 X160.336 Y125.574 E26.60457
G1 X160.126 Y126.314 E26.65907
G1 X159.841 Y127.028 E26.71353
G1 X159.53 Y127.628 E26.76141
G1 X150.032 Y144.084 E28.10747
G1 X149.613 Y144.729 E28.16196
G1 X149.13 Y145.328 E28.21647
G1 X148.587 Y145.873 E28.27097
G1 X147.875 Y146.442 E28.33554
G1 X147.006 Y147.052 E28.41076
G1 X146.354 Y147.46 E28.46525
G1 X145.663 Y147.799 E28.51977
G1 X144.941 Y148.064 E28.57426
G1 X144.196 Y148.253 E28.62871
G1 X143.435 Y148.364 E28.68319
G1 X142.666 Y148.394 E28.73771
G1 X141.685 Y148.317 E28.80743
G1 X140.767 Y148.183 E28.87315
G1 X140.013 Y148.033 E28.92761
G1 X139.278 Y147.805 E28.98213
G1 X138.571 Y147.502 E29.03662
G1 X138.136 Y147.27 E29.07155
G1 X63.659 Y104.273 E35.16396
G1 X63.014 Y103.854 E35.21845
G1 X62.416 Y103.371 E35.27291
G1 X61.871 Y102.828 E35.32741
G1 X61.486 Y102.367 E35.36996
G1 X61.062 Y101.814 E35.41933
G1 X60.627 Y101.18 E35.4738
G1 X60.259 Y100.504 E35.52833
G1 X59.955 Y99.768 E35.58474
G1 X59.829 Y99.41 E35.61163
G1 X59.611 Y98.672 E35.66615
G1 X59.472 Y97.916 E35.7206
G1 X59.412 Y97.149 E35.7751
G1 X59.435 Y96.33 E35.83315
G1 X59.509 Y95.454 E35.89543
G1 X59.614 Y94.692 E35.94992
G1 X59.797 Y93.945 E36.00441
G1 X60.056 Y93.221 E36.05888
G1 X60.474 Y92.377 E36.12561
G1 X69.972 Y75.924 E37.47148
G1 X70.391 Y75.279 E37.52597
G1 X70.874 Y74.681 E37.58043
G1 X71.417 Y74.136 E37.63493
G0 F3600 X71.731 Y74.391
G1 F1800 X72.104 Y74.082 E37.66925
G1 X72.656 Y73.656 E37.71864
G1 X73.272 Y73.232 E37.77162
G1 X73.93 Y72.875 E37.82466
G1 X74.625 Y72.589 E37.8779
G1 X74.983 Y72.464 E37.90476
G1 X75.702 Y72.256 E37.95779
G1 X76.438 Y72.125 E38.01075
G1 X77.185 Y72.074 E38.06379
G1 X77.872 Y72.097 E38.11249
G1 X78.748 Y72.17 E38.17476
G1 X79.489 Y72.272 E38.22775
G1 X80.215 Y72.452 E38.28074
G1 X80.918 Y72.709 E38.33377
G1 X81.667 Y73.084 E38.39311
G1 X156.143 Y116.083 E44.48553
G1 X156.77 Y116.491 E44.53853
G1 X157.35 Y116.964 E44.59155
G1 X157.876 Y117.495 E44.6445
G1 X158.2 Y117.888 E44.68059
G1 X158.799 Y118.67 E44.75037
G1 X159.222 Y119.288 E44.80343
G1 X159.576 Y119.947 E44.85642
G1 X159.858 Y120.639 E44.90936
G1 X160.064 Y121.359 E44.96241
G1 X160.192 Y122.095 E45.01534
G1 X160.241 Y122.842 E45.06837
G1 X160.192 Y123.766 E45.13392
G1 X160.071 Y124.768 E45.20543
G1 X159.941 Y125.505 E45.25844
G1 X159.734 Y126.224 E45.31145
G1 X159.451 Y126.916 E45.36442
G1 X159.184 Y127.428 E45.40532
G1 X149.686 Y143.884 E46.75138
G1 X149.278 Y144.511 E46.80438
G1 X148.805 Y145.091 E46.8574
G1 X148.273 Y145.617 E46.9104
G1 X147.645 Y146.114 E46.96714
G1 X146.776 Y146.724 E47.04235
G1 X146.141 Y147.121 E47.09541
G1 X145.468 Y147.447 E47.14839
G1 X144.764 Y147.7 E47.20138
G1 X144.037 Y147.876 E47.25437
G1 X143.296 Y147.974 E47.30733
G1 X142.548 Y147.992 E47.36033
G1 X141.743 Y147.922 E47.41758
G1 X140.825 Y147.788 E47.4833
G1 X140.092 Y147.64 E47.53628
G1 X139.378 Y147.415 E47.58931
G1 X138.693 Y147.116 E47.64226
G1 X138.336 Y146.923 E47.67101
G1 X63.859 Y103.926 E53.76343
G1 X63.232 Y103.518 E53.81642
G1 X62.652 Y103.045 E53.86944
G1 X62.126 Y102.514 E53.92239
G1 X61.804 Y102.123 E53.95828
G1 X61.38 Y101.57 E54.00764
G1 X60.957 Y100.953 E54.06064
G1 X60.603 Y100.294 E54.11364
G1 X60.332 Y99.635 E54.16412
G1 X60.206 Y99.277 E54.191
G1 X59.996 Y98.559 E54.244
G1 X59.863 Y97.823 E54.29699
G1 X59.81 Y97.077 E54.34997
G1 X59.834 Y96.364 E54.40051
G1 X59.908 Y95.488 E54.46279
G1 X60.011 Y94.747 E54.51579
G1 X60.192 Y94.021 E54.5688
G1 X60.449 Y93.319 E54.62176
G1 X60.821 Y92.577 E54.68056
G1 X70.319 Y76.124 E56.02644
G1 X70.727 Y75.497 E56.07943
G1 X71.199 Y74.918 E56.13235
G1 X71.731 Y74.391 E56.1854
G0 F3600 X72.044 Y74.649
G1 F1800 X72.349 Y74.399 E56.21334
G1 X72.901 Y73.973 E56.26274
G1 X73.499 Y73.562 E56.31415
G1 X74.139 Y73.218 E56.36562
G1 X74.757 Y72.967 E56.41288
G1 X75.115 Y72.842 E56.43974
G1 X75.813 Y72.641 E56.4912
G1 X76.529 Y72.517 E56.54268
G1 X77.254 Y72.473 E56.59413
G1 X77.839 Y72.496 E56.63561
G1 X78.715 Y72.569 E56.69788
G1 X79.435 Y72.669 E56.74938
G1 X80.139 Y72.847 E56.80083
G1 X80.819 Y73.102 E56.85228
G1 X81.467 Y73.43 E56.90373
G1 X155.943 Y116.429 E62.99615
G1 X156.551 Y116.826 E63.04759
G1 X157.112 Y117.288 E63.09908
G1 X157.619 Y117.809 E63.15058
G1 X157.883 Y118.132 E63.18013
G1 X158.482 Y118.914 E63.24992
G1 X158.891 Y119.514 E63.30136
G1 X159.232 Y120.155 E63.3528
G1 X159.5 Y120.83 E63.40425
G1 X159.693 Y121.53 E63.45569
G1 X159.807 Y122.248 E63.50719
G1 X159.842 Y122.973 E63.55862
G1 X159.794 Y123.718 E63.6115
G1 X159.673 Y124.72 E63.68301
G1 X159.547 Y125.435 E63.73444
G1 X159.342 Y126.132 E63.78591
G1 X159.062 Y126.803 E63.83742
G1 X158.837 Y127.228 E63.87149
G1 X149.339 Y143.684 E65.21755
G1 X148.942 Y144.292 E65.26899
G1 X148.48 Y144.853 E65.32047
G1 X147.96 Y145.36 E65.37193
G1 X147.415 Y145.787 E65.42097
G1 X146.546 Y146.397 E65.49619
G1 X145.929 Y146.781 E65.54768
G1 X145.274 Y147.095 E65.59914
G1 X144.589 Y147.335 E65.65056
G1 X143.881 Y147.498 E65.70203
G1 X143.16 Y147.583 E65.75346
G1 X142.433 Y147.587 E65.80496
G1 X141.801 Y147.526 E65.84994
G1 X140.883 Y147.392 E65.91567
G1 X140.171 Y147.247 E65.96715
G1 X139.479 Y147.026 E66.01861
G1 X138.536 Y146.577 E66.0926
G1 X64.059 Y103.58 E72.18501
G1 X63.451 Y103.183 E72.23646
G1 X62.89 Y102.721 E72.28794
G1 X62.384 Y102.2 E72.33939
G1 X62.121 Y101.88 E72.36874
G1 X61.697 Y101.327 E72.41811
G1 X61.288 Y100.727 E72.46955
G1 X60.947 Y100.086 E72.52099
G1 X60.709 Y99.502 E72.56566
G1 X60.583 Y99.144 E72.59255
G1 X60.38 Y98.447 E72.64398
G1 X60.255 Y97.731 E72.69547
G1 X60.209 Y97.006 E72.74694
G1 X60.232 Y96.397 E72.79011
G1 X60.306 Y95.521 E72.85239
G1 X60.407 Y94.802 E72.90383
G1 X60.587 Y94.098 E72.95531
G1 X60.842 Y93.418 E73.00676
G1 X61.167 Y92.777 E73.05767
G1 X70.665 Y76.324 E74.40355
G1 X71.062 Y75.716 E74.45499
G1 X71.524 Y75.155 E74.50648
G1 X72.044 Y74.649 E74.55788
G0 F3600 X71.848 Y75.394
G1 F1800 X72.593 Y74.716 E74.62924
G1 X73.145 Y74.29 E74.67864
G1 X73.726 Y73.892 E74.72853
G1 X74.348 Y73.563 E74.77838
G1 X74.889 Y73.345 E74.8197
G1 X75.247 Y73.22 E74.84656
G1 X75.924 Y73.026 E74.89646
G1 X76.618 Y72.91 E74.9463
G1 X77.321 Y72.873 E74.99618
G1 X77.806 Y72.894 E75.03057
G1 X78.682 Y72.967 E75.09284
G1 X79.379 Y73.066 E75.14272
G1 X80.06 Y73.242 E75.19255
G1 X80.718 Y73.495 E75.24249
G1 X81.267 Y73.777 E75.28621
G1 X155.743 Y116.776 E81.37863
G1 X156.332 Y117.162 E81.42852
G1 X156.873 Y117.612 E81.47838
G1 X157.565 Y118.375 E81.55135
G1 X158.164 Y119.157 E81.62114
G1 X158.56 Y119.739 E81.67101
G1 X158.887 Y120.362 E81.72085
G1 X159.141 Y121.019 E81.77075
G1 X159.319 Y121.7 E81.82062
G1 X159.419 Y122.397 E81.8705
G1 X159.44 Y123.101 E81.9204
G1 X159.397 Y123.67 E81.96082
G1 X159.276 Y124.672 E82.03233
G1 X159.152 Y125.365 E82.0822
G1 X158.951 Y126.04 E82.1321
G1 X158.674 Y126.687 E82.18196
G1 X158.491 Y127.028 E82.20937
G1 X148.993 Y143.484 E83.55543
G1 X148.607 Y144.073 E83.60532
G1 X148.157 Y144.614 E83.65517
G1 X147.648 Y145.101 E83.70508
G1 X147.185 Y145.46 E83.74659
G1 X146.316 Y146.07 E83.8218
G1 X145.718 Y146.441 E83.87166
G1 X145.081 Y146.742 E83.92157
G1 X144.415 Y146.968 E83.9714
G1 X143.727 Y147.118 E84.02128
G1 X143.027 Y147.189 E84.07113
G1 X142.323 Y147.18 E84.12101
G1 X141.858 Y147.13 E84.15414
G1 X140.94 Y146.996 E84.21986
G1 X140.251 Y146.855 E84.26968
G1 X139.581 Y146.637 E84.3196
G1 X138.736 Y146.23 E84.38605
G1 X64.259 Y103.233 E90.47846
G1 X63.67 Y102.847 E90.52835
G1 X63.129 Y102.397 E90.5782
G1 X62.439 Y101.636 E90.65097
G1 X62.015 Y101.083 E90.70034
G1 X61.619 Y100.501 E90.75021
G1 X61.291 Y99.878 E90.80009
G1 X61.087 Y99.369 E90.83894
G1 X60.961 Y99.011 E90.86582
G1 X60.765 Y98.335 E90.91569
G1 X60.647 Y97.641 E90.96556
G1 X60.609 Y96.938 E91.01544
G1 X60.631 Y96.431 E91.05139
G1 X60.705 Y95.555 E91.11367
G1 X60.804 Y94.858 E91.16354
G1 X60.981 Y94.177 E91.21339
G1 X61.235 Y93.52 E91.26329
G1 X61.513 Y92.977 E91.30651
G1 X71.011 Y76.524 E92.65238
G1 X71.397 Y75.936 E92.70221
G1 X71.848 Y75.394 E92.75217
G0 F3600 X72.171 Y75.635
G1 F1800 X72.837 Y75.032 E92.81581
G1 X73.389 Y74.606 E92.86521
G1 X73.952 Y74.223 E92.91345
G1 X74.556 Y73.908 E92.96171
G1 X75.021 Y73.722 E92.99719
G1 X75.379 Y73.597 E93.02405
G1 X76.034 Y73.411 E93.07229
G1 X76.706 Y73.303 E93.12051
G1 X77.386 Y73.274 E93.16873
G1 X77.773 Y73.293 E93.19618
G1 X78.649 Y73.366 E93.25845
G1 X79.323 Y73.462 E93.30668
G1 X79.981 Y73.637 E93.35492
G1 X80.614 Y73.887 E93.40313
G1 X81.067 Y74.123 E93.43932
G1 X155.543 Y117.122 E99.53174
G1 X156.112 Y117.497 E99.58002
G1 X156.633 Y117.935 E99.62824
G1 X157.247 Y118.618 E99.6933
G1 X157.846 Y119.4 E99.76309
G1 X158.228 Y119.964 E99.81135
G1 X158.541 Y120.569 E99.8596
G1 X158.781 Y121.206 E99.90783
G1 X158.944 Y121.867 E99.95606
G1 X159.029 Y122.542 E100.00426
G1 X159.034 Y123.223 E100.0525
G1 X159 Y123.622 E100.08087
G1 X158.879 Y124.624 E100.15237
G1 X158.758 Y125.294 E100.20061
G1 X158.559 Y125.946 E100.2489
G1 X158.144 Y126.828 E100.31796
G1 X148.646 Y143.284 E101.66402
G1 X148.272 Y143.853 E101.71225
G1 X147.833 Y144.374 E101.76052
G1 X147.337 Y144.84 E101.80873
G1 X146.955 Y145.132 E101.8428
G1 X146.086 Y145.742 E101.91801
G1 X145.507 Y146.1 E101.96624
G1 X144.89 Y146.387 E102.01445
G1 X144.243 Y146.601 E102.06273
G1 X143.576 Y146.736 E102.11094
G1 X142.897 Y146.793 E102.15921
G1 X141.916 Y146.734 E102.22883
G1 X140.998 Y146.6 E102.29456
G1 X140.331 Y146.462 E102.34281
G1 X139.685 Y146.248 E102.39102
G1 X138.936 Y145.884 E102.45002
G1 X64.459 Y102.887 E108.54243
G1 X63.89 Y102.513 E108.59067
G1 X63.37 Y102.074 E108.63888
G1 X62.756 Y101.393 E108.70384
G1 X62.332 Y100.84 E108.75321
G1 X61.95 Y100.276 E108.80147
G1 X61.637 Y99.672 E108.84966
G1 X61.464 Y99.237 E108.88283
G1 X61.338 Y98.879 E108.90971
G1 X61.15 Y98.224 E108.95799
G1 X61.04 Y97.552 E109.00623
G1 X61.01 Y96.872 E109.05445
G1 X61.03 Y96.465 E109.08332
G1 X61.104 Y95.589 E109.1456
G1 X61.201 Y94.915 E109.19384
G1 X61.376 Y94.257 E109.24208
G1 X61.627 Y93.624 E109.29032
G1 X61.86 Y93.177 E109.32603
G1 X71.358 Y76.724 E110.6719
G1 X71.732 Y76.156 E110.72008
G1 X72.171 Y75.635 E110.76835
G0 F3600 X72.493 Y75.876
G1 F1800 X73.082 Y75.349 E110.82434
G1 X73.634 Y74.923 E110.87374
G1 X74.177 Y74.554 E110.92025
G1 X74.762 Y74.254 E110.96682
G1 X75.153 Y74.1 E110.99659
G1 X75.511 Y73.975 E111.02346
G1 X76.143 Y73.796 E111.06999
G1 X76.792 Y73.696 E111.11651
G1 X77.739 Y73.692 E111.1836
G1 X78.615 Y73.765 E111.24588
G1 X79.266 Y73.859 E111.29248
G1 X79.9 Y74.031 E111.33901
G1 X80.508 Y74.28 E111.38556
G1 X80.867 Y74.469 E111.4143
G1 X155.343 Y117.468 E117.50672
G1 X155.891 Y117.831 E117.55329
G1 X156.391 Y118.257 E117.59983
G1 X156.93 Y118.861 E117.65718
G1 X157.529 Y119.643 E117.72696
G1 X157.896 Y120.188 E117.77351
G1 X158.194 Y120.774 E117.82008
G1 X158.419 Y121.391 E117.86661
G1 X158.567 Y122.031 E117.91315
G1 X158.637 Y122.684 E117.95967
G1 X158.603 Y123.574 E118.02277
G1 X158.482 Y124.576 E118.09427
G1 X158.364 Y125.223 E118.14086
G1 X158.168 Y125.85 E118.1874
G1 X157.798 Y126.628 E118.24844
G1 X148.3 Y143.084 E119.5945
G1 X147.937 Y143.632 E119.64106
G1 X147.511 Y144.132 E119.6876
G1 X147.027 Y144.577 E119.73418
G1 X146.725 Y144.805 E119.76098
G1 X145.856 Y145.415 E119.8362
G1 X145.297 Y145.759 E119.8827
G1 X144.7 Y146.032 E119.92921
G1 X144.073 Y146.231 E119.97581
G1 X143.428 Y146.353 E120.02232
G1 X142.772 Y146.395 E120.06888
G1 X141.974 Y146.338 E120.12556
G1 X141.056 Y146.204 E120.19129
G1 X140.413 Y146.07 E120.23782
G1 X139.791 Y145.859 E120.28435
G1 X139.136 Y145.538 E120.33602
G1 X64.659 Y102.541 E126.42844
G1 X64.111 Y102.178 E126.475
G1 X63.611 Y101.752 E126.52154
G1 X63.074 Y101.15 E126.57869
G1 X62.65 Y100.597 E126.62806
G1 X62.282 Y100.052 E126.67464
G1 X61.984 Y99.467 E126.72116
G1 X61.841 Y99.104 E126.7488
G1 X61.715 Y98.746 E126.77568
G1 X61.535 Y98.114 E126.82224
G1 X61.433 Y97.465 E126.86878
G1 X61.428 Y96.498 E126.93729
G1 X61.502 Y95.622 E126.99957
G1 X61.597 Y94.972 E127.0461
G1 X61.77 Y94.339 E127.09259
G1 X62.019 Y93.731 E127.13914
G1 X62.206 Y93.377 E127.1675
G1 X71.704 Y76.924 E128.51338
G1 X72.067 Y76.376 E128.55994
G1 X72.493 Y75.876 E128.60648
G0 F3600 X72.814 Y76.12
G1 F1800 X73.326 Y75.666 E128.65496
G1 X73.878 Y75.24 E128.70436
G1 X74.402 Y74.886 E128.74916
G1 X74.966 Y74.601 E128.79392
G1 X75.285 Y74.477 E128.81817
G1 X75.643 Y74.352 E128.84503
