;FLAVOR:Marlin
;TIME:3376
;Filament used: 9.28098m
;Layer height: 0.3
;Generated with Cura_SteamEngine 3.6.0
M140 S60
M105
M190 S60
M104 S210
M105
M109 S210
M82 ;absolute extrusion mode
G21 ;metric values
G90 ;absolute positioning
M82 ;set extruder to absolute mode
M107 ;start with the fan off
G28 X0 Y0 ;move X/Y to min endstops
G28 Z0 ;move Z to min endstops
G1 Z15.0 F9000 ;move the platform down 15mm
G92 E0 ;zero the extruded length
G1 F200 E3 ;extrude 3mm of feed stock
G92 E0 ;zero the extruded length again
G1 F9000
;Put printing message on LCD screen
M117 Printing...
G92 E0
G1 F1500 E-4.2
;LAYER_COUNT:93
;LAYER:0
M107
G0 F3600 X86.722 Y76.752 Z0.3
;TYPE:SKIRT
G1 F1500 E0
G1 F1800 X87.359 Y76.032 E0.06811
G1 X87.994 Y75.397 E0.13172
G1 X88.58 Y74.867 E0.1877
G1 X89.355 Y74.31 E0.25531
G1 X90.121 Y73.828 E0.31943
G1 X90.81 Y73.442 E0.37538
G1 X91.702 Y73.066 E0.44396
G1 X92.555 Y72.768 E0.50797
G1 X93.313 Y72.546 E0.56392
G1 X94.255 Y72.381 E0.63168
G1 X95.152 Y72.28 E0.69562
G1 X96.025 Y72.231 E0.75757
G1 X122.026 Y72.232 E2.59959
G1 X122.815 Y72.272 E2.65555
G1 X123.596 Y72.392 E2.71153
G1 X124.713 Y72.709 E2.79379
G1 X125.329 Y72.935 E2.84027
G1 X126.055 Y73.244 E2.89617
G1 X126.747 Y73.626 E2.95217
G1 X127.396 Y74.075 E3.00808
G1 X127.997 Y74.587 E3.06401
G1 X128.543 Y75.158 E3.11998
G1 X129.029 Y75.78 E3.1759
G1 X129.338 Y76.258 E3.21622
G1 X129.743 Y76.936 E3.27217
G1 X130.113 Y77.634 E3.32814
G1 X130.411 Y78.365 E3.38407
G1 X130.633 Y79.123 E3.44002
G1 X130.778 Y79.899 E3.49595
G1 X130.847 Y80.937 E3.56965
G1 X130.846 Y95.189 E4.57932
G1 X130.806 Y95.977 E4.63521
G1 X130.686 Y96.758 E4.69119
G1 X130.489 Y97.522 E4.74709
G1 X130.473 Y97.563 E4.7502
G1 X130.611 Y97.563 E4.75998
G1 X131.484 Y97.612 E4.82193
G1 X132.381 Y97.713 E4.88587
G1 X133.16 Y97.841 E4.9418
G1 X134.081 Y98.1 E5.00958
G1 X134.934 Y98.398 E5.07359
G1 X135.665 Y98.696 E5.12952
G1 X136.515 Y99.16 E5.19812
G1 X137.281 Y99.642 E5.26224
G1 X137.927 Y100.096 E5.31817
G1 X138.642 Y100.729 E5.38583
G1 X139.277 Y101.364 E5.44945
G1 X139.807 Y101.95 E5.50542
G1 X140.364 Y102.725 E5.57304
G1 X140.846 Y103.491 E5.63715
G1 X141.232 Y104.18 E5.6931
G1 X141.607 Y105.07 E5.76152
G1 X141.906 Y105.925 E5.82569
G1 X142.128 Y106.683 E5.88164
G1 X142.295 Y107.632 E5.94991
G1 X142.395 Y108.525 E6.01357
G1 X142.443 Y109.399 E6.07558
G1 X142.434 Y120.526 E6.86386
G1 X142.393 Y121.315 E6.91983
G1 X142.273 Y122.095 E6.97574
G1 X142.075 Y122.86 E7.03172
G1 X141.69 Y123.845 E7.10665
G1 X141.452 Y124.35 E7.1462
G1 X141.079 Y125.047 E7.2022
G1 X140.638 Y125.702 E7.25814
G1 X139.993 Y126.458 E7.32854
G1 X139.827 Y126.629 E7.34543
G1 X139.249 Y127.167 E7.40137
G1 X138.619 Y127.644 E7.45735
G1 X137.945 Y128.055 E7.51328
G1 X136.938 Y128.511 E7.59159
G1 X136.322 Y128.739 E7.63812
G1 X135.568 Y128.975 E7.69409
G1 X134.794 Y129.134 E7.75007
G1 X133.614 Y129.224 E7.83391
G1 X104.61 Y129.224 E9.88867
G1 X103.821 Y129.184 E9.94464
G1 X103.041 Y129.065 E10.00054
G1 X101.913 Y128.743 E10.08364
G1 X101.297 Y128.516 E10.13015
G1 X100.571 Y128.206 E10.18608
G1 X99.88 Y127.824 E10.24201
G1 X99.231 Y127.374 E10.29796
G1 X98.631 Y126.86 E10.35393
G1 X98.085 Y126.289 E10.4099
G1 X97.601 Y125.666 E10.46579
G1 X97.296 Y125.194 E10.5056
G1 X96.892 Y124.517 E10.56146
G1 X96.522 Y123.819 E10.61742
G1 X96.225 Y123.088 E10.67332
G1 X96.003 Y122.33 E10.72928
G1 X95.859 Y121.553 E10.78526
G1 X95.79 Y120.52 E10.85861
G1 X95.79 Y106.268 E11.86828
G1 X95.83 Y105.479 E11.92424
G1 X95.949 Y104.699 E11.98014
G1 X96.147 Y103.934 E12.03612
G1 X96.163 Y103.893 E12.03924
G1 X93.022 Y103.893 E12.26176
G1 X92.234 Y103.853 E12.31766
G1 X91.453 Y103.734 E12.37363
G1 X90.688 Y103.536 E12.42961
G1 X90.314 Y103.408 E12.45761
G1 X89.698 Y103.18 E12.50415
G1 X88.973 Y102.869 E12.56003
G1 X88.282 Y102.486 E12.616
G1 X87.634 Y102.035 E12.67194
G1 X87.034 Y101.521 E12.72791
G1 X86.49 Y100.949 E12.78383
G1 X86.006 Y100.324 E12.83983
G1 X85.708 Y99.862 E12.87878
G1 X85.304 Y99.185 E12.93463
G1 X84.934 Y98.487 E12.9906
G1 X84.637 Y97.756 E13.0465
G1 X84.415 Y96.998 E13.10245
G1 X84.271 Y96.221 E13.15844
G1 X84.202 Y95.194 E13.23136
G1 X84.193 Y84.069 E14.0195
G1 X84.242 Y83.188 E14.08201
G1 X84.343 Y82.293 E14.14581
G1 X84.471 Y81.514 E14.20174
G1 X84.731 Y80.593 E14.26954
G1 X85.03 Y79.738 E14.33371
G1 X85.328 Y79.007 E14.38963
G1 X85.787 Y78.165 E14.45757
G1 X86.268 Y77.399 E14.52165
G1 X86.722 Y76.752 E14.57764
G0 F3600 X87.049 Y76.983
G1 F1800 X87.641 Y76.314 E14.64093
G1 X88.276 Y75.679 E14.70455
G1 X88.848 Y75.165 E14.75903
G1 X89.568 Y74.649 E14.82179
G1 X90.334 Y74.167 E14.8859
G1 X91.005 Y73.792 E14.94036
G1 X91.834 Y73.444 E15.00405
G1 X92.687 Y73.146 E15.06806
G1 X93.426 Y72.93 E15.12261
G1 X94.3 Y72.778 E15.18546
G1 X95.197 Y72.677 E15.2494
G1 X96.025 Y72.631 E15.30815
G1 X122.026 Y72.632 E17.15017
G1 X122.794 Y72.672 E17.20465
G1 X123.554 Y72.792 E17.25916
G1 X124.575 Y73.085 E17.33441
G1 X125.191 Y73.311 E17.3809
G1 X125.898 Y73.613 E17.43536
G1 X126.57 Y73.987 E17.48985
G1 X127.2 Y74.428 E17.54433
G1 X127.781 Y74.933 E17.59886
G1 X128.306 Y75.495 E17.65334
G1 X128.769 Y76.109 E17.70782
G1 X128.995 Y76.463 E17.73758
G1 X129.4 Y77.141 E17.79353
G1 X129.759 Y77.821 E17.848
G1 X130.047 Y78.535 E17.90255
G1 X130.258 Y79.274 E17.95699
G1 X130.392 Y80.032 E18.01152
G1 X130.447 Y80.937 E18.07576
G1 X130.446 Y95.189 E19.08543
G1 X130.406 Y95.957 E19.13991
G1 X130.286 Y96.716 E19.19435
G1 X130.089 Y97.46 E19.24887
G1 X129.89 Y97.963 E19.28719
G1 X130.611 Y97.963 E19.33827
G1 X131.439 Y98.009 E19.39702
G1 X132.336 Y98.11 E19.46097
G1 X133.095 Y98.236 E19.51548
G1 X133.949 Y98.478 E19.57836
G1 X134.802 Y98.776 E19.64237
G1 X135.514 Y99.067 E19.69686
G1 X136.302 Y99.499 E19.76053
G1 X137.068 Y99.981 E19.82464
G1 X137.697 Y100.424 E19.87915
G1 X138.36 Y101.011 E19.94188
G1 X138.995 Y101.646 E20.0055
G1 X139.509 Y102.218 E20.05998
G1 X140.025 Y102.938 E20.12273
G1 X140.507 Y103.704 E20.18685
G1 X140.882 Y104.375 E20.24131
G1 X141.229 Y105.202 E20.30484
G1 X141.528 Y106.057 E20.36901
G1 X141.744 Y106.795 E20.42349
G1 X141.897 Y107.676 E20.48683
G1 X141.997 Y108.569 E20.55049
G1 X142.043 Y109.399 E20.60938
G1 X142.034 Y120.526 E21.39767
G1 X141.993 Y121.294 E21.45215
G1 X141.873 Y122.054 E21.50666
G1 X141.675 Y122.797 E21.56114
G1 X141.328 Y123.675 E21.62802
G1 X141.09 Y124.18 E21.66757
G1 X140.726 Y124.858 E21.72209
G1 X140.294 Y125.494 E21.77655
G1 X139.706 Y126.179 E21.84051
G1 X139.54 Y126.35 E21.85739
G1 X138.976 Y126.874 E21.91193
G1 X138.361 Y127.336 E21.96642
G1 X137.701 Y127.731 E22.02092
G1 X136.799 Y128.136 E22.09096
G1 X136.183 Y128.364 E22.1375
G1 X135.448 Y128.593 E22.19204
G1 X134.694 Y128.745 E22.24653
G1 X133.614 Y128.824 E22.32324
G1 X104.61 Y128.824 E24.378
G1 X103.842 Y128.784 E24.43249
G1 X103.082 Y128.665 E24.48698
G1 X102.051 Y128.368 E24.56299
G1 X101.435 Y128.141 E24.6095
G1 X100.728 Y127.837 E24.66402
G1 X100.057 Y127.463 E24.71845
G1 X99.428 Y127.02 E24.77295
G1 X98.848 Y126.515 E24.82743
G1 X98.324 Y125.952 E24.88192
G1 X97.861 Y125.337 E24.93645
G1 X97.639 Y124.989 E24.9657
G1 X97.235 Y124.312 E25.02155
G1 X96.876 Y123.632 E25.07603
G1 X96.589 Y122.918 E25.13054
G1 X96.378 Y122.179 E25.18499
G1 X96.245 Y121.421 E25.23951
G1 X96.19 Y120.52 E25.30346
G1 X96.19 Y106.268 E26.31313
G1 X96.23 Y105.5 E26.36761
G1 X96.349 Y104.74 E26.42211
G1 X96.547 Y103.997 E26.47658
G1 X96.747 Y103.493 E26.51499
G1 X93.022 Y103.493 E26.77889
G1 X92.254 Y103.453 E26.83337
G1 X91.494 Y103.334 E26.88787
G1 X90.453 Y103.033 E26.96464
G1 X89.837 Y102.805 E27.01117
G1 X89.131 Y102.501 E27.06563
G1 X88.46 Y102.125 E27.12012
G1 X87.831 Y101.682 E27.17462
G1 X87.252 Y101.175 E27.22914
G1 X86.729 Y100.612 E27.28358
G1 X86.267 Y99.997 E27.33808
G1 X86.051 Y99.657 E27.36661
G1 X85.647 Y98.98 E27.42246
G1 X85.288 Y98.3 E27.47694
G1 X85.001 Y97.586 E27.53146
G1 X84.79 Y96.847 E27.5859
G1 X84.657 Y96.089 E27.64042
G1 X84.602 Y95.194 E27.70395
G1 X84.593 Y84.069 E28.49209
G1 X84.64 Y83.233 E28.55141
G1 X84.741 Y82.338 E28.61522
G1 X84.867 Y81.579 E28.66972
G1 X85.109 Y80.725 E28.7326
G1 X85.408 Y79.87 E28.79677
G1 X85.699 Y79.158 E28.85126
G1 X86.126 Y78.378 E28.91426
G1 X86.607 Y77.612 E28.97834
G1 X87.049 Y76.983 E29.0328
G0 F3600 X87.377 Y77.213
G1 F1800 X87.924 Y76.597 E29.09116
G1 X88.559 Y75.962 E29.15478
G1 X89.116 Y75.462 E29.20781
G1 X89.781 Y74.987 E29.26571
G1 X90.547 Y74.505 E29.32982
G1 X91.2 Y74.141 E29.38279
G1 X91.966 Y73.822 E29.44157
G1 X92.819 Y73.524 E29.50558
G1 X93.538 Y73.315 E29.55863
G1 X94.345 Y73.176 E29.61664
G1 X95.242 Y73.075 E29.68059
G1 X96.025 Y73.031 E29.73615
G1 X122.026 Y73.032 E31.57816
G1 X122.773 Y73.072 E31.63116
G1 X123.512 Y73.191 E31.68419
G1 X124.437 Y73.46 E31.75243
G1 X125.053 Y73.686 E31.79892
G1 X125.741 Y73.981 E31.85195
G1 X126.393 Y74.348 E31.90496
G1 X127.002 Y74.782 E31.95793
G1 X127.561 Y75.278 E32.01088
G1 X128.065 Y75.832 E32.06394
G1 X128.651 Y76.668 E32.13626
G1 X129.056 Y77.346 E32.19221
G1 X129.405 Y78.008 E32.24523
G1 X129.681 Y78.703 E32.29821
G1 X129.882 Y79.424 E32.35123
G1 X130.004 Y80.162 E32.40423
G1 X130.047 Y80.936 E32.45914
G1 X130.046 Y95.188 E33.46881
G1 X130.006 Y95.935 E33.52181
G1 X129.886 Y96.674 E33.57485
G1 X129.689 Y97.395 E33.6278
G1 X129.378 Y98.172 E33.68709
G1 X129.288 Y98.363 E33.70205
G1 X130.611 Y98.363 E33.79578
G1 X131.394 Y98.407 E33.85134
G1 X132.291 Y98.508 E33.91528
G1 X133.029 Y98.631 E33.96829
G1 X133.817 Y98.856 E34.02634
G1 X134.67 Y99.154 E34.09036
G1 X135.362 Y99.438 E34.14335
G1 X136.089 Y99.837 E34.2021
G1 X136.855 Y100.319 E34.26621
G1 X137.466 Y100.751 E34.31923
G1 X138.077 Y101.294 E34.37714
G1 X138.712 Y101.929 E34.44076
G1 X139.212 Y102.486 E34.49378
G1 X139.687 Y103.151 E34.55168
G1 X140.169 Y103.917 E34.61579
G1 X140.533 Y104.57 E34.66876
G1 X140.852 Y105.334 E34.72741
G1 X141.151 Y106.189 E34.79158
G1 X141.359 Y106.908 E34.8446
G1 X141.5 Y107.721 E34.90306
G1 X141.6 Y108.614 E34.96672
G1 X141.643 Y109.399 E35.02242
G1 X141.634 Y120.526 E35.8107
G1 X141.593 Y121.273 E35.8637
G1 X141.473 Y122.011 E35.91667
G1 X141.275 Y122.732 E35.96964
G1 X140.966 Y123.504 E36.02855
G1 X140.728 Y124.009 E36.0681
G1 X140.373 Y124.668 E36.12113
G1 X139.951 Y125.285 E36.17408
G1 X139.419 Y125.901 E36.23175
G1 X139.253 Y126.072 E36.24863
G1 X138.704 Y126.58 E36.30162
G1 X138.104 Y127.027 E36.35462
G1 X137.459 Y127.407 E36.40766
G1 X136.66 Y127.761 E36.46957
G1 X136.044 Y127.989 E36.5161
G1 X135.329 Y128.211 E36.56914
G1 X134.595 Y128.355 E36.62213
G1 X133.614 Y128.424 E36.6918
G1 X104.61 Y128.424 E38.74657
G1 X103.863 Y128.384 E38.79956
G1 X103.125 Y128.265 E38.85252
G1 X102.19 Y127.992 E38.92153
G1 X101.574 Y127.765 E38.96803
G1 X100.886 Y127.469 E39.02109
G1 X100.235 Y127.102 E39.07404
G1 X99.626 Y126.667 E39.12706
G1 X99.067 Y126.17 E39.18005
G1 X98.565 Y125.616 E39.23301
G1 X97.983 Y124.784 E39.30494
G1 X97.579 Y124.107 E39.3608
G1 X97.23 Y123.445 E39.41381
G1 X96.955 Y122.75 E39.46676
G1 X96.755 Y122.029 E39.51977
G1 X96.633 Y121.291 E39.57276
G1 X96.59 Y120.52 E39.62747
G1 X96.59 Y106.268 E40.63714
G1 X96.63 Y105.521 E40.69014
G1 X96.749 Y104.783 E40.74309
G1 X96.947 Y104.061 E40.79613
G1 X97.261 Y103.278 E40.8559
G1 X97.348 Y103.093 E40.87038
G1 X93.022 Y103.093 E41.17685
G1 X92.275 Y103.053 E41.22985
G1 X91.537 Y102.934 E41.28281
G1 X90.592 Y102.658 E41.35255
G1 X89.976 Y102.43 E41.39908
G1 X89.29 Y102.133 E41.45204
G1 X88.638 Y101.765 E41.50508
G1 X88.03 Y101.329 E41.55809
G1 X87.472 Y100.831 E41.61107
G1 X86.971 Y100.276 E41.66404
G1 X86.395 Y99.452 E41.73526
G1 X85.991 Y98.775 E41.79112
G1 X85.642 Y98.113 E41.84413
G1 X85.367 Y97.418 E41.89708
G1 X85.167 Y96.697 E41.95009
G1 X85.045 Y95.959 E42.00308
G1 X85.002 Y95.194 E42.05736
G1 X84.993 Y84.069 E42.84551
G1 X85.037 Y83.278 E42.90163
G1 X85.138 Y82.383 E42.96544
G1 X85.262 Y81.645 E43.01845
G1 X85.486 Y80.857 E43.07649
G1 X85.785 Y80.002 E43.14066
G1 X86.07 Y79.31 E43.19368
G1 X86.465 Y78.59 E43.25186
G1 X86.946 Y77.824 E43.31594
G1 X87.377 Y77.213 E43.36891
G0 F3600 X87.704 Y77.444
G1 F1800 X88.207 Y76.88 E43.42245
G1 X88.842 Y76.245 E43.48607
G1 X89.383 Y75.761 E43.53749
G1 X89.994 Y75.326 E43.59063
G1 X90.76 Y74.844 E43.65474
G1 X91.395 Y74.491 E43.70621
G1 X92.098 Y74.199 E43.76014
G1 X92.951 Y73.901 E43.82415
G1 X93.649 Y73.7 E43.87561
G1 X94.39 Y73.573 E43.92887
G1 X95.287 Y73.472 E43.99282
G1 X96.025 Y73.431 E44.04518
G1 X122.026 Y73.432 E45.8872
G1 X122.752 Y73.472 E45.93871
G1 X123.468 Y73.591 E45.99013
G1 X124.299 Y73.836 E46.05151
G1 X124.915 Y74.062 E46.09799
G1 X125.582 Y74.349 E46.14944
G1 X126.214 Y74.708 E46.20093
G1 X126.802 Y75.134 E46.25237
G1 X127.34 Y75.622 E46.30383
G1 X127.821 Y76.167 E46.35532
G1 X128.308 Y76.873 E46.41608
G1 X128.713 Y77.551 E46.47203
G1 X129.051 Y78.195 E46.52356
G1 X129.316 Y78.871 E46.575
G1 X129.505 Y79.572 E46.62643
G1 X129.615 Y80.29 E46.67789
G1 X129.647 Y80.936 E46.72371
G1 X129.646 Y95.188 E47.73338
G1 X129.606 Y95.914 E47.78489
G1 X129.487 Y96.63 E47.83631
G1 X129.289 Y97.329 E47.88778
G1 X129.016 Y98.002 E47.93923
G1 X128.778 Y98.507 E47.97878
G1 X128.64 Y98.763 E47.99939
G1 X130.611 Y98.763 E48.13902
G1 X131.349 Y98.804 E48.19138
G1 X132.246 Y98.905 E48.25533
G1 X132.963 Y99.026 E48.30685
G1 X133.685 Y99.233 E48.36006
G1 X134.538 Y99.531 E48.42407
G1 X135.209 Y99.808 E48.4755
G1 X135.876 Y100.176 E48.52946
G1 X136.642 Y100.658 E48.59358
G1 X137.235 Y101.078 E48.64506
G1 X137.794 Y101.577 E48.69815
G1 X138.429 Y102.212 E48.76177
G1 X138.913 Y102.753 E48.81319
G1 X139.348 Y103.364 E48.86633
G1 X139.83 Y104.13 E48.93044
G1 X140.183 Y104.765 E48.98191
G1 X140.474 Y105.466 E49.03568
G1 X140.773 Y106.321 E49.09985
G1 X140.975 Y107.019 E49.15133
G1 X141.102 Y107.766 E49.20501
G1 X141.202 Y108.659 E49.26867
G1 X141.243 Y109.398 E49.3211
G1 X141.234 Y120.525 E50.10939
G1 X141.193 Y121.251 E50.1609
G1 X141.073 Y121.967 E50.21233
G1 X140.875 Y122.666 E50.2638
G1 X140.604 Y123.334 E50.31487
G1 X140.366 Y123.839 E50.35442
G1 X140.021 Y124.478 E50.40587
G1 X139.607 Y125.075 E50.45734
G1 X139.132 Y125.622 E50.50866
G1 X138.966 Y125.793 E50.52554
G1 X138.432 Y126.286 E50.57703
G1 X137.847 Y126.717 E50.62851
G1 X137.218 Y127.081 E50.67999
G1 X136.521 Y127.386 E50.73389
G1 X135.905 Y127.614 E50.78042
G1 X135.211 Y127.828 E50.83187
G1 X134.498 Y127.965 E50.88331
G1 X133.614 Y128.024 E50.94608
G1 X104.61 Y128.024 E53.00084
G1 X103.885 Y127.984 E53.05228
G1 X103.168 Y127.865 E53.10377
G1 X102.328 Y127.617 E53.16582
G1 X101.712 Y127.39 E53.21233
G1 X101.045 Y127.102 E53.26379
G1 X100.414 Y126.742 E53.31526
G1 X99.827 Y126.315 E53.36669
G1 X99.289 Y125.826 E53.41819
G1 X98.809 Y125.281 E53.46964
G1 X98.326 Y124.579 E53.53001
G1 X97.922 Y123.902 E53.58586
G1 X97.585 Y123.259 E53.63729
G1 X97.321 Y122.582 E53.68877
G1 X97.132 Y121.881 E53.7402
G1 X97.021 Y121.163 E53.79167
G1 X96.99 Y120.52 E53.83728
G1 X96.99 Y106.268 E54.84695
G1 X97.03 Y105.543 E54.89839
G1 X97.149 Y104.826 E54.94988
G1 X97.347 Y104.127 E55.00135
G1 X97.622 Y103.449 E55.05318
G1 X97.861 Y102.943 E55.09283
G1 X97.997 Y102.693 E55.11299
G1 X93.022 Y102.693 E55.46544
G1 X92.297 Y102.653 E55.51688
G1 X91.58 Y102.534 E55.56837
G1 X90.731 Y102.283 E55.63109
G1 X90.115 Y102.055 E55.67762
G1 X89.449 Y101.765 E55.72908
G1 X88.818 Y101.405 E55.78055
G1 X88.231 Y100.977 E55.83201
G1 X87.695 Y100.487 E55.88346
G1 X87.215 Y99.941 E55.93497
G1 X86.738 Y99.247 E55.99462
G1 X86.334 Y98.57 E56.05048
G1 X85.997 Y97.927 E56.10191
G1 X85.733 Y97.25 E56.15339
G1 X85.544 Y96.549 E56.20482
G1 X85.433 Y95.831 E56.25629
G1 X85.402 Y95.193 E56.30154
G1 X85.393 Y84.068 E57.08968
G1 X85.435 Y83.323 E57.14255
G1 X85.536 Y82.428 E57.20635
G1 X85.657 Y81.712 E57.2578
G1 X85.864 Y80.989 E57.31108
G1 X86.163 Y80.134 E57.37524
G1 X86.44 Y79.463 E57.42667
G1 X86.804 Y78.803 E57.48007
G1 X87.285 Y78.037 E57.54415
G1 X87.704 Y77.444 E57.59559
G0 F3600 X88.031 Y77.676
G1 F1800 X88.49 Y77.163 E57.64435
G1 X89.125 Y76.528 E57.70797
G1 X89.65 Y76.059 E57.75785
G1 X90.207 Y75.664 E57.80622
G1 X90.973 Y75.182 E57.87034
G1 X91.589 Y74.842 E57.92018
G1 X92.23 Y74.577 E57.96932
G1 X93.083 Y74.279 E58.03333
